(Exported by FreeCAD)
(Post Processor: grbl_post)
(Output Time:2020-04-23 17:07:18.255225)
(begin preamble)
G17 G90
G21
(begin operation: T1: 1/8" 4T)
(Path: T1: 1/8" 4T)
(T1: 1/8" 4T)
(begin toolchange)
; M6 T1
M3 S1000.0000
(finish operation: T1: 1/8" 4T)
(begin operation: MillFace)
(Path: MillFace)
(MillFace)
G0 Z12.0000
G0 X85.2326 Y85.2326
G0 Z10.0000
G1 X85.2326 Y85.2326 Z6.0000 F600.00
G2 X51.9627 Y2.5974 Z6.0000 I-34.2326 J-34.2326 F900.00
G2 X2.5974 Y50.0375 Z6.0000 I-0.9627 J48.4026 F900.00
G2 X50.0377 Y99.4026 Z6.0000 I48.4026 J0.9625 F900.00
G2 X85.2326 Y85.2326 Z6.0000 I0.9623 J-48.4026 F900.00
G0 X85.2326 Y85.2326 Z12.0000
G0 X84.5626 Y16.1102 Z12.0000
G1 X84.5626 Y16.1102 Z6.0000 F600.00
G3 X92.8178 Y26.6106 Z6.0000 I-33.4850 J34.8208 F900.00
G1 X75.3905 Y9.1833 Z6.0000 F900.00
G2 X70.7838 Y6.8216 Z6.0000 I-22.5367 J38.2865 F900.00
G1 X95.1779 Y31.2157 Z6.0000 F900.00
G3 X96.6722 Y34.9551 Z6.0000 I-39.3732 J17.9024 F900.00
G1 X67.0443 Y5.3272 Z6.0000 F900.00
G2 X63.7873 Y4.3153 Z6.0000 I-13.4655 J37.5934 F900.00
G1 X97.6845 Y38.2124 Z6.0000 F900.00
G3 X98.3957 Y41.1687 Z6.0000 I-29.9935 J8.7793 F900.00
G1 X60.8316 Y3.6046 Z6.0000 F900.00
G2 X58.1002 Y3.1182 Z6.0000 I-7.5552 J34.5167 F900.00
G1 X98.8815 Y43.8996 Z6.0000 F900.00
G3 X99.1953 Y46.4584 Z6.0000 I-26.8982 J4.5973 F900.00
G1 X55.5420 Y2.8051 Z6.0000 F900.00
G2 X53.1356 Y2.6438 Z6.0000 I-3.2566 J30.5432 F900.00
G1 X99.3564 Y48.8646 Z6.0000 F900.00
G3 X99.4028 Y51.1561 Z6.0000 I-29.1383 J1.7370 F900.00
G1 X50.8441 Y2.5974 Z6.0000 F900.00
G2 X48.6541 Y2.6524 Z6.0000 I-0.4033 J27.5488 F900.00
G1 X99.3479 Y53.3462 Z6.0000 F900.00
G3 X99.2025 Y55.4459 Z6.0000 I-26.7922 J-0.8010 F900.00
G1 X46.5548 Y2.7982 Z6.0000 F900.00
G2 X44.5371 Y3.0256 Z6.0000 I1.8488 J25.4689 F900.00
G1 X98.9755 Y57.4639 Z6.0000 F900.00
G3 X98.6743 Y59.4078 Z6.0000 I-24.8888 J-2.8602 F900.00
G1 X42.5936 Y3.3271 Z6.0000 F900.00
G2 X40.7178 Y3.6964 Z6.0000 I3.7030 J23.7566 F900.00
G1 X98.3053 Y61.2839 Z6.0000 F900.00
G3 X97.8737 Y63.0974 Z6.0000 I-23.2934 J-4.5858 F900.00
G1 X38.9045 Y4.1282 Z6.0000 F900.00
G2 X37.1492 Y4.6179 Z6.0000 I5.2769 J22.3031 F900.00
G1 X97.3840 Y64.8527 Z6.0000 F900.00
G3 X96.8399 Y66.5537 Z6.0000 I-21.9187 J-6.0731 F900.00
G1 X35.4481 Y5.1618 Z6.0000 F900.00
G2 X33.7978 Y5.7566 Z6.0000 I6.6491 J21.0360 F900.00
G1 X96.2448 Y68.2036 Z6.0000 F900.00
G3 X95.6014 Y69.8053 Z6.0000 I-20.7042 J-7.3870 F900.00
G1 X32.1955 Y6.3994 Z6.0000 F900.00
G2 X30.6390 Y7.0880 Z6.0000 I7.8740 J19.9048 F900.00
G1 X94.9121 Y71.3611 Z6.0000 F900.00
G3 X94.1790 Y72.8730 Z6.0000 I-19.6073 J-8.5737 F900.00
G1 X29.1261 Y7.8201 Z6.0000 F900.00
G2 X27.6550 Y8.5941 Z6.0000 I8.9906 J18.8736 F900.00
G1 X93.4038 Y74.3429 Z6.0000 F900.00
G3 X92.5880 Y75.7722 Z6.0000 I-18.5968 J-9.6669 F900.00
G1 X26.2242 Y9.4084 Z6.0000 F900.00
G1 X24.8404 Y10.2697 Z6.0000 F900.00
G1 X91.7329 Y77.1621 Z6.0000 F900.00
G1 X90.8334 Y78.5077 Z6.0000 F900.00
G1 X23.4954 Y11.1697 Z6.0000 F900.00
G2 X22.1876 Y12.1070 Z6.0000 I11.1250 J16.9026 F900.00
G1 X89.8946 Y79.8139 Z6.0000 F900.00
G3 X88.9190 Y81.0834 Z6.0000 I-16.6427 J-11.7807 F900.00
G1 X20.9165 Y13.0809 Z6.0000 F900.00
G2 X19.6812 Y14.0907 Z6.0000 I12.0728 J16.0273 F900.00
G1 X87.9071 Y82.3166 Z6.0000 F900.00
G3 X86.8595 Y83.5140 Z6.0000 I-15.7621 J-12.7333 F900.00
G1 X18.4816 Y15.1361 Z6.0000 F900.00
G1 X17.3256 Y16.2252 Z6.0000 F900.00
G1 X85.7763 Y84.6759 Z6.0000 F900.00
G1 X84.6535 Y85.7982 Z6.0000 F900.00
G1 X16.2058 Y17.3505 Z6.0000 F900.00
G2 X15.1213 Y18.5110 Z6.0000 I14.0415 J14.2092 F900.00
G1 X83.4909 Y86.8806 Z6.0000 F900.00
G3 X82.2927 Y87.9275 Z6.0000 I-13.9214 J-14.7246 F900.00
G1 X14.0721 Y19.7069 Z6.0000 F900.00
G2 X13.0585 Y20.9383 Z6.0000 I14.9682 J13.3535 F900.00
G1 X81.0587 Y88.9385 Z6.0000 F900.00
G3 X79.7884 Y89.9133 Z6.0000 I-13.0406 J-15.6774 F900.00
G1 X12.0818 Y22.2067 Z6.0000 F900.00
G2 X11.1499 Y23.5199 Z6.0000 I16.0352 J12.3678 F900.00
G1 X78.4814 Y90.8514 Z6.0000 F900.00
G1 X77.1353 Y91.7503 Z6.0000 F900.00
G1 X10.2552 Y24.8702 Z6.0000 F900.00
G2 X9.3986 Y26.2587 Z6.0000 I17.0200 J11.4587 F900.00
G1 X75.7445 Y92.6046 Z6.0000 F900.00
G3 X74.3144 Y93.4195 Z6.0000 I-11.0859 J-17.7920 F900.00
G1 X8.5812 Y27.6864 Z6.0000 F900.00
G2 X7.8043 Y29.1546 Z6.0000 I18.0618 J10.4967 F900.00
G1 X72.8436 Y94.1939 Z6.0000 F900.00
G3 X71.3308 Y94.9261 Z6.0000 I-10.0747 J-18.8861 F900.00
G1 X7.0695 Y30.6648 Z6.0000 F900.00
G1 X6.3796 Y32.2199 Z6.0000 F900.00
G1 X69.7741 Y95.6145 Z6.0000 F900.00
G3 X68.1715 Y96.2569 Z6.0000 I-8.9769 J-20.0736 F900.00
G1 X5.7407 Y33.8261 Z6.0000 F900.00
G2 X5.1496 Y35.4801 Z6.0000 I20.4891 J8.2552 F900.00
G1 X66.5205 Y96.8510 Z6.0000 F900.00
G3 X64.8184 Y97.3940 Z6.0000 I-7.7610 J-21.3887 F900.00
G1 X4.6090 Y37.1845 Z6.0000 F900.00
G2 X4.1221 Y38.9427 Z6.0000 I21.8508 J6.9978 F900.00
G1 X63.0620 Y97.8826 Z6.0000 F900.00
G3 X61.2473 Y98.3130 Z6.0000 I-6.3846 J-22.8778 F900.00
G1 X3.6926 Y40.7583 Z6.0000 F900.00
G2 X3.3249 Y42.6356 Z6.0000 I23.4083 J5.5593 F900.00
G1 X59.3700 Y98.6807 Z6.0000 F900.00
G3 X57.4247 Y98.9805 Z6.0000 I-4.7872 J-24.6060 F900.00
G1 X3.0241 Y44.5799 Z6.0000 F900.00
G2 X2.7964 Y46.5972 Z6.0000 I25.2368 J3.8709 F900.00
G1 X55.4051 Y99.2060 Z6.0000 F900.00
G3 X53.3038 Y99.3498 Z6.0000 I-2.8805 J-26.6685 F900.00
G1 X2.6488 Y48.6948 Z6.0000 F900.00
G2 X2.5902 Y50.8812 Z6.0000 I27.4467 J1.8301 F900.00
G1 X51.1119 Y99.4029 Z6.0000 F900.00
G3 X48.8180 Y99.3541 Z6.0000 I-0.5299 J-29.0319 F900.00
G1 X2.6412 Y53.1772 Z6.0000 F900.00
G2 X2.8157 Y55.5969 Z6.0000 I30.4936 J-0.9836 F900.00
G1 X46.4091 Y99.1902 Z6.0000 F900.00
G3 X43.8479 Y98.8741 Z6.0000 I2.3286 J-29.4037 F900.00
G1 X3.1268 Y58.1530 Z6.0000 F900.00
G2 X3.6132 Y60.8844 Z6.0000 I28.5387 J-3.6727 F900.00
G1 X41.1117 Y98.3830 Z6.0000 F900.00
G3 X38.1525 Y97.6688 Z6.0000 I5.7207 J-30.1916 F900.00
G1 X4.3309 Y63.8473 Z6.0000 F900.00
G2 X5.3615 Y67.1229 Z6.0000 I34.9052 J-9.1820 F900.00
G1 X34.8908 Y96.6522 Z6.0000 F900.00
G3 X31.1398 Y95.1462 Z6.0000 I10.7981 J-32.3201 F900.00
G1 X6.8627 Y70.8692 Z6.0000 F900.00
G2 X9.2644 Y75.5159 Z6.0000 I39.3720 J-17.4054 F900.00
G1 X26.4948 Y92.7464 Z6.0000 F900.00
G3 X9.2644 Y75.5159 Z6.0000 I24.3621 J-41.5925 F900.00
G0 Z12.0000
(finish operation: MillFace)
(begin operation: MillFace001)
(Path: MillFace001)
(MillFace001)
G0 Z12.0000
G0 X81.7639 Y81.7639
G0 Z10.0000
G1 X81.7639 Y81.7639 Z4.0000 F600.00
G2 X50.1128 Y7.5023 Z4.0000 I-30.7639 J-30.7639 F900.00
G2 X7.5023 Y51.8872 Z4.0000 I0.8872 J43.4977 F900.00
G2 X51.8872 Y94.4977 Z4.0000 I43.4977 J-0.8872 F900.00
G2 X81.7639 Y81.7639 Z4.0000 I-0.8872 J-43.4977 F900.00
G0 X81.7639 Y81.7639 Z12.0000
G0 X73.4787 Y88.2398 Z12.0000
G1 X73.4787 Y88.2398 Z4.0000 F600.00
G2 X88.2394 Y73.4791 Z4.0000 I-22.2711 J-37.0318 F900.00
G1 X73.4787 Y88.2398 Z4.0000 F900.00
G3 X68.7699 Y90.7035 Z4.0000 I-20.6070 J-33.6533 F900.00
G1 X90.7032 Y68.7702 Z4.0000 F900.00
G2 X92.1594 Y65.0690 Z4.0000 I-32.3972 J-14.8832 F900.00
G1 X65.0690 Y92.1593 Z4.0000 F900.00
G3 X61.8639 Y93.1194 Z4.0000 I-10.6747 J-29.8070 F900.00
G1 X93.1192 Y61.8640 Z4.0000 F900.00
G2 X93.7688 Y58.9694 Z4.0000 I-33.0757 J-8.9422 F900.00
G1 X58.9689 Y93.7693 Z4.0000 F900.00
G3 X56.3226 Y94.1706 Z4.0000 I-6.1736 J-31.7902 F900.00
G1 X94.1706 Y56.3225 Z4.0000 F900.00
G2 X94.4117 Y53.8364 Z4.0000 I-29.9341 J-4.1573 F900.00
G1 X53.8369 Y94.4112 Z4.0000 F900.00
G3 X51.5055 Y94.4976 Z4.0000 I-2.0538 J-23.9367 F900.00
G1 X94.4973 Y51.5057 Z4.0000 F900.00
G2 X94.4640 Y49.2939 Z4.0000 I-26.7548 J-0.7038 F900.00
G1 X49.2939 Y94.4641 Z4.0000 F900.00
G3 X47.1828 Y94.3301 Z4.0000 I0.5636 J-25.5881 F900.00
G1 X94.3302 Y47.1826 Z4.0000 F900.00
G2 X94.1064 Y45.1614 Z4.0000 I-24.5462 J1.6955 F900.00
G1 X45.1617 Y94.1062 Z4.0000 F900.00
G3 X43.2220 Y93.8008 Z4.0000 I2.7220 J-23.6014 F900.00
G1 X93.8011 Y43.2217 Z4.0000 F900.00
G2 X93.4214 Y41.3563 Z4.0000 I-22.7407 J3.6566 F900.00
G1 X41.3566 Y93.4211 Z4.0000 F900.00
G3 X39.5595 Y92.9731 Z4.0000 I4.5173 J-21.9486 F900.00
G1 X92.9735 Y39.5592 Z4.0000 F900.00
G2 X92.4621 Y37.8254 Z4.0000 I-21.2148 J5.3144 F900.00
G1 X37.8258 Y92.4618 Z4.0000 F900.00
G3 X36.1511 Y91.8914 Z4.0000 I6.0582 J-20.5302 F900.00
G1 X91.8917 Y36.1508 Z4.0000 F900.00
G2 X91.2658 Y34.5317 Z4.0000 I-19.8862 J6.7573 F900.00
G1 X34.5320 Y91.2655 Z4.0000 F900.00
G3 X32.9653 Y90.5871 Z4.0000 I7.4177 J-19.2784 F900.00
G1 X90.5873 Y32.9650 Z4.0000 F900.00
G2 X89.8590 Y31.4484 Z4.0000 I-18.6993 J8.0469 F900.00
G1 X31.4486 Y89.8588 Z4.0000 F900.00
G3 X29.9796 Y89.0827 Z4.0000 I8.6475 J-18.1463 F900.00
G1 X89.0828 Y29.9794 Z4.0000 F900.00
G2 X88.2607 Y28.5565 Z4.0000 I-17.6132 J9.2267 F900.00
G1 X28.5565 Y88.2606 Z4.0000 F900.00
G3 X27.1779 Y87.3942 Z4.0000 I9.7853 J-17.0990 F900.00
G1 X87.3942 Y27.1779 Z4.0000 F900.00
G2 X86.4845 Y25.8426 Z4.0000 I-16.5977 J10.3298 F900.00
G1 X25.8425 Y86.4845 Z4.0000 F900.00
G3 X24.5493 Y85.5327 Z4.0000 I10.8599 J-16.1097 F900.00
G1 X85.5326 Y24.5494 Z4.0000 F900.00
G2 X84.5393 Y23.2977 Z4.0000 I-15.6290 J11.3821 F900.00
G1 X23.2975 Y84.5395 Z4.0000 F900.00
G3 X22.0864 Y83.5054 Z4.0000 I11.8951 J-15.1567 F900.00
G1 X83.5051 Y22.0867 Z4.0000 F900.00
G1 X82.4293 Y20.9175 Z4.0000 F900.00
G1 X20.9178 Y82.4290 Z4.0000 F900.00
G3 X19.7937 Y81.3081 Z4.0000 I12.9886 J-14.1497 F900.00
G1 X81.3083 Y19.7934 Z4.0000 F900.00
G2 X80.1470 Y18.7096 Z4.0000 I-13.6823 J13.4966 F900.00
G1 X18.7098 Y80.1469 Z4.0000 F900.00
G3 X17.6664 Y78.9452 Z4.0000 I14.0045 J-13.2149 F900.00
G1 X78.9453 Y17.6663 Z4.0000 F900.00
G2 X77.7029 Y16.6637 Z4.0000 I-12.7416 J14.5187 F900.00
G1 X16.6637 Y77.7029 Z4.0000 F900.00
G3 X15.7023 Y76.4192 Z4.0000 I15.0377 J-12.2637 F900.00
G1 X76.4191 Y15.7024 Z4.0000 F900.00
G2 X75.0933 Y14.7831 Z4.0000 I-11.7756 J15.5681 F900.00
G1 X14.7830 Y75.0934 Z4.0000 F900.00
G3 X13.9067 Y73.7247 Z4.0000 I16.1087 J-11.2779 F900.00
G1 X73.7244 Y13.9069 Z4.0000 F900.00
G2 X72.3114 Y13.0749 Z4.0000 I-10.7646 J16.6663 F900.00
G1 X13.0746 Y72.3117 Z4.0000 F900.00
G3 X12.2882 Y70.8530 Z4.0000 I17.2410 J-10.2358 F900.00
G1 X70.8526 Y12.2886 Z4.0000 F900.00
G1 X69.3451 Y11.5511 Z4.0000 F900.00
G1 X11.5514 Y69.3447 Z4.0000 F900.00
G3 X10.8652 Y67.7859 Z4.0000 I18.5014 J-9.0753 F900.00
G1 X67.7862 Y10.8649 Z4.0000 F900.00
G2 X66.1761 Y10.2300 Z4.0000 I-8.4803 J19.1477 F900.00
G1 X10.2303 Y66.1758 Z4.0000 F900.00
G3 X9.6495 Y64.5115 Z4.0000 I19.8286 J-7.8535 F900.00
G1 X64.5118 Y9.6492 Z4.0000 F900.00
G2 X62.7902 Y9.1257 Z4.0000 I-7.1885 J20.5511 F900.00
G1 X9.1260 Y62.7899 Z4.0000 F900.00
G3 X8.6639 Y61.0070 Z4.0000 I21.3222 J-6.4785 F900.00
G1 X61.0073 Y8.6635 Z4.0000 F900.00
G2 X59.1586 Y8.2671 Z4.0000 I-5.7164 J22.1501 F900.00
G1 X8.2675 Y59.1583 Z4.0000 F900.00
G3 X7.9432 Y57.2375 Z4.0000 I22.7633 J-4.8310 F900.00
G1 X57.2371 Y7.9436 Z4.0000 F900.00
G2 X55.2313 Y7.7043 Z4.0000 I-3.8963 J24.1273 F900.00
G1 X7.7040 Y55.2317 Z4.0000 F900.00
G3 X7.5537 Y53.1369 Z4.0000 I25.2483 J-2.8643 F900.00
G1 X53.1367 Y7.5539 Z4.0000 F900.00
G2 X50.9430 Y7.5026 Z4.0000 I-1.7170 J26.4946 F900.00
G1 X7.5026 Y50.9429 Z4.0000 F900.00
G3 X7.5633 Y48.6372 Z4.0000 I27.9042 J-0.4193 F900.00
G1 X48.6375 Y7.5629 Z4.0000 F900.00
G2 X46.1897 Y7.7657 Z4.0000 I0.8931 J25.6572 F900.00
G1 X7.7654 Y46.1900 Z4.0000 F900.00
G3 X8.1412 Y43.5691 Z4.0000 I31.8717 J3.2330 F900.00
G1 X43.5693 Y8.1410 Z4.0000 F900.00
G2 X40.7365 Y8.7287 Z4.0000 I4.4448 J28.5441 F900.00
G1 X8.7284 Y40.7369 Z4.0000 F900.00
G3 X9.6058 Y37.6144 Z4.0000 I36.1796 J8.4818 F900.00
G1 X37.6137 Y9.6065 Z4.0000 F900.00
G2 X34.0287 Y10.9464 Z4.0000 I12.0709 J37.7613 F900.00
G1 X10.9459 Y34.0293 Z4.0000 F900.00
G3 X13.1144 Y29.6157 Z4.0000 I37.1014 J15.4895 F900.00
G1 X29.6167 Y13.1133 Z4.0000 F900.00
G2 X19.6152 Y20.8698 Z4.0000 I21.3046 J37.7976 F900.00
G0 Z12.0000
(finish operation: MillFace001)

; go high and home to swap tools
G0 Z50.0000
G0 X0.0000 Y0.0000

(begin operation: T3: D1 2F Spiral Tapered Ballnose)
(Path: T3: D1 2F Spiral Tapered Ballnose)
(T3: D1 2F Spiral Tapered Ballnose)
(begin toolchange)
; M6 T3
M3 S1000.0000
(finish operation: T3: D1 2F Spiral Tapered Ballnose)
(begin operation: Pocket_Shape)
(Path: Pocket_Shape)
(Pocket_Shape)
G0 Z12.0000
G0 X60.2096 Y56.9191
G0 Z10.0000
G1 X60.2096 Y56.9191 Z3.5000 F600.00
G2 X60.9960 Y55.8142 Z3.5000 I-2.4515 J-2.5769 F900.00
G2 X61.3451 Y53.9757 Z3.5000 I-5.5279 J-2.0022 F900.00
G2 X61.3652 Y51.7140 Z3.5000 I-7.8639 J-1.2007 F900.00
G3 X60.8377 Y46.9526 Z3.5000 I17.6520 J-4.3653 F900.00
G3 X61.6416 Y45.4879 Z3.5000 I1.4795 J-0.1409 F900.00
G2 X61.3124 Y44.8149 Z3.5000 I-2.5815 J0.8454 F900.00
G2 X58.0568 Y41.8760 Z3.5000 I-62.7819 J66.2757 F900.00
G2 X53.0127 Y38.6606 Z3.5000 I-13.1246 J15.0250 F900.00
G2 X50.1280 Y39.6701 Z3.5000 I0.9482 J7.3364 F900.00
G2 X46.4126 Y42.1993 Z3.5000 I38.2235 J60.1423 F900.00
G3 X43.0800 Y44.4893 Z3.5000 I-13.2537 J-15.7184 F900.00
G2 X41.6967 Y46.3866 Z3.5000 I1.1076 J2.2605 F900.00
G2 X41.3063 Y48.5209 Z3.5000 I58.2537 J11.7579 F900.00
G3 X47.5993 Y45.1343 Z3.5000 I17.7494 J25.4418 F900.00
G3 X53.6647 Y43.9810 Z3.5000 I5.8546 J14.2649 F900.00
G3 X57.5893 Y45.9486 Z3.5000 I0.0053 J4.8874 F900.00
G3 X58.6396 Y49.0353 Z3.5000 I-5.1346 J3.4691 F900.00
G3 X58.6643 Y52.3246 Z3.5000 I-19.2248 J1.7894 F900.00
G3 X58.2819 Y53.9877 Z3.5000 I-4.4903 J-0.1570 F900.00
G3 X55.3487 Y55.9259 Z3.5000 I-2.8769 J-1.1652 F900.00
G3 X51.2976 Y55.0650 Z3.5000 I0.3880 J-11.7874 F900.00
G3 X49.2899 Y52.4588 Z3.5000 I1.6773 J-3.3686 F900.00
G3 X49.1411 Y49.9298 Z3.5000 I7.7038 J-1.7222 F900.00
G3 X50.1114 Y47.0025 Z3.5000 I5.2532 J0.1168 F900.00
G1 X49.6108 Y47.1686 Z3.5000 F900.00
G2 X47.6868 Y49.0736 Z3.5000 I0.7232 J2.6546 F900.00
G2 X47.1933 Y54.3379 Z3.5000 I15.1824 J4.0785 F900.00
G2 X47.9748 Y55.9900 Z3.5000 I2.5216 J-0.1819 F900.00
G3 X48.5848 Y56.2453 Z3.5000 I-3.1489 J8.3808 F900.00
G2 X51.9784 Y57.8961 Z3.5000 I27.9351 J-53.1137 F900.00
G2 X53.5394 Y58.3921 Z3.5000 I2.7641 J-5.9939 F900.00
G2 X56.3409 Y58.3009 Z3.5000 I0.9480 J-13.9558 F900.00
G2 X59.0048 Y57.6733 Z3.5000 I-0.8825 J-9.7122 F900.00
G2 X60.2096 Y56.9191 Z3.5000 I-1.2467 J-3.3311 F900.00
G0 X60.2096 Y56.9191 Z12.0000
G0 X48.1923 Y56.0866 Z12.0000
G1 X48.1923 Y56.0866 Z3.5000 F600.00
G3 X47.5152 Y55.4096 Z3.5000 I0.3746 J-1.0516 F900.00
G1 X48.1923 Y56.0866 Z3.5000 F900.00
G3 X48.5567 Y56.2323 Z3.5000 I-6.8922 J17.7694 F900.00
G3 X50.2335 Y57.0672 Z3.5000 I-9.2957 J20.7707 F900.00
G1 X47.1687 Y54.0024 Z3.5000 F900.00
G3 X47.1457 Y52.9188 Z3.5000 I7.2198 J-0.6952 F900.00
G1 X52.2236 Y57.9966 Z3.5000 F900.00
G2 X53.6915 Y58.4039 Z3.5000 I1.9582 J-4.2092 F900.00
G1 X47.2011 Y51.9135 Z3.5000 F900.00
G3 X47.3020 Y50.9537 Z3.5000 I12.3961 J0.8176 F900.00
G1 X49.5383 Y53.1901 Z3.5000 F900.00
G2 X51.4985 Y55.1502 Z3.5000 I3.2469 J-1.2868 F900.00
G1 X54.7630 Y58.4147 Z3.5000 F900.00
G2 X55.7542 Y58.3453 Z3.5000 I-2.2709 J-39.5115 F900.00
G1 X53.0173 Y55.6084 Z3.5000 F900.00
G2 X54.3265 Y55.8569 Z3.5000 I2.8302 J-11.3381 F900.00
G1 X56.7244 Y58.2548 Z3.5000 F900.00
G2 X57.6243 Y58.0941 Z3.5000 I-0.7005 J-6.5236 F900.00
G1 X55.4496 Y55.9194 Z3.5000 F900.00
G2 X56.3556 Y55.7647 Z3.5000 I-0.1163 J-3.4137 F900.00
G1 X58.4605 Y57.8696 Z3.5000 F900.00
G2 X59.2207 Y57.5691 Z3.5000 I-1.1708 J-4.0742 F900.00
G1 X57.0850 Y55.4334 Z3.5000 F900.00
G2 X57.6594 Y54.9472 Z3.5000 I-1.4844 J-2.3365 F900.00
G1 X59.8887 Y57.1764 Z3.5000 F900.00
G2 X60.4441 Y56.6713 Z3.5000 I-1.2495 J-1.9319 F900.00
G1 X58.1048 Y54.3319 Z3.5000 F900.00
G2 X58.4328 Y53.5992 Z3.5000 I-3.2735 J-1.9048 F900.00
G1 X60.8828 Y56.0493 Z3.5000 F900.00
G2 X61.1619 Y55.2677 Z3.5000 I-2.3819 J-1.2913 F900.00
G1 X58.6189 Y52.7247 Z3.5000 F900.00
G2 X58.6809 Y51.7261 Z3.5000 I-5.6233 J-0.8506 F900.00
G1 X61.3052 Y54.3504 Z3.5000 F900.00
G2 X61.4024 Y53.3868 Z3.5000 I-52.8564 J-5.8146 F900.00
G1 X58.6985 Y50.6829 Z3.5000 F900.00
G2 X58.6842 Y49.6080 Z3.5000 I-9.9027 J-0.4059 F900.00
G1 X61.4303 Y52.3541 Z3.5000 F900.00
G2 X61.2427 Y51.1059 Z3.5000 I-4.3064 J0.0088 F900.00
G1 X58.5515 Y48.4147 Z3.5000 F900.00
G2 X58.1354 Y46.9379 Z3.5000 I-6.3613 J0.9956 F900.00
G1 X61.0034 Y49.8059 Z3.5000 F900.00
G3 X60.8904 Y48.6323 Z3.5000 I10.4735 J-1.6001 F900.00
G1 X51.3428 Y39.0847 Z3.5000 F900.00
G3 X52.1504 Y38.8316 Z3.5000 I1.7818 J4.2701 F900.00
G1 X60.8354 Y47.5166 Z3.5000 F900.00
G3 X60.8792 Y46.4997 Z3.5000 I5.7305 J-0.2625 F900.00
G1 X53.0652 Y38.6857 Z3.5000 F900.00
G3 X55.2754 Y39.8353 Z3.5000 I-6.8215 J15.8152 F900.00
G1 X61.2293 Y45.7891 Z3.5000 F900.00
G3 X61.6277 Y45.4933 Z3.5000 I0.8269 J0.6975 F900.00
G2 X61.2232 Y44.7224 Z3.5000 I-1.7743 J0.4394 F900.00
G0 X61.2232 Y44.7224 Z12.0000
G0 X55.5682 Y44.3707 Z12.0000
G1 X55.5682 Y44.3707 Z3.5000 F600.00
G1 X50.6064 Y39.4089 Z3.5000 F900.00
G2 X49.9297 Y39.7929 Z3.5000 I3.1494 J6.3380 F900.00
G1 X54.1603 Y44.0234 Z3.5000 F900.00
G2 X53.0570 Y43.9808 Z3.5000 I-0.7953 J6.2878 F900.00
G1 X49.2874 Y40.2112 Z3.5000 F900.00
G2 X48.6552 Y40.6397 Z3.5000 I60.3107 J89.6602 F900.00
G1 X52.0586 Y44.0431 Z3.5000 F900.00
G2 X51.1136 Y44.1587 Z3.5000 I0.8434 J10.8162 F900.00
G1 X48.0233 Y41.0685 Z3.5000 F900.00
G1 X47.3914 Y41.4972 Z3.5000 F900.00
G1 X50.2186 Y44.3244 Z3.5000 F900.00
G2 X49.3712 Y44.5377 Z3.5000 I2.0077 J9.7652 F900.00
G1 X46.7732 Y41.9397 Z3.5000 F900.00
G2 X46.1665 Y42.3936 Z3.5000 I4.8291 J7.0861 F900.00
G1 X48.5604 Y44.7875 Z3.5000 F900.00
G2 X47.7792 Y45.0670 Z3.5000 I3.5508 J11.1586 F900.00
G1 X45.5738 Y42.8616 Z3.5000 F900.00
G3 X44.9644 Y43.3128 Z3.5000 I-6.2091 J-7.7478 F900.00
G1 X47.0274 Y45.3758 Z3.5000 F900.00
G2 X46.2817 Y45.6908 Z3.5000 I25.1218 J60.5121 F900.00
G1 X44.3265 Y43.7356 Z3.5000 F900.00
G1 X43.6723 Y44.1421 Z3.5000 F900.00
G1 X45.5656 Y46.0354 Z3.5000 F900.00
G2 X44.8543 Y46.3847 Z3.5000 I3.5751 J8.1788 F900.00
G1 X43.0067 Y44.5371 Z3.5000 F900.00
G2 X42.3971 Y44.9882 Z3.5000 I0.9810 J1.9631 F900.00
G1 X44.1653 Y46.7564 Z3.5000 F900.00
G2 X43.4861 Y47.1379 Z3.5000 I3.8472 J7.6445 F900.00
G1 X41.9543 Y45.6060 Z3.5000 F900.00
G2 X41.6931 Y46.4055 Z3.5000 I3.0719 J1.4462 F900.00
G1 X42.8235 Y47.5359 Z3.5000 F900.00
G2 X42.1744 Y47.9474 Z3.5000 I4.9600 J8.5414 F900.00
G1 X41.5221 Y47.2952 Z3.5000 F900.00
G2 X41.3626 Y48.1963 Z3.5000 I24.5985 J4.8187 F900.00
G1 X41.3063 Y48.5209 Z3.5000 F900.00
G3 X41.5338 Y48.3675 Z3.5000 I3.5136 J4.9637 F900.00
G1 X41.3626 Y48.1963 Z3.5000 F900.00
G0 X41.3626 Y48.1963 Z12.0000
G0 X47.3020 Y50.9537 Z12.0000
G1 X47.3020 Y50.9537 Z3.5000 F600.00
G1 X49.5383 Y53.1901 Z3.5000 F900.00
G3 X49.1670 Y51.7581 Z3.5000 I4.4020 J-1.9056 F900.00
G1 X47.4486 Y50.0397 Z3.5000 F900.00
G3 X47.6543 Y49.1847 Z3.5000 I6.6548 J1.1483 F900.00
G1 X49.1130 Y50.6435 Z3.5000 F900.00
G3 X49.1677 Y49.6375 Z3.5000 I9.4901 J0.0113 F900.00
G1 X47.9638 Y48.4336 Z3.5000 F900.00
G3 X48.4341 Y47.8432 Z3.5000 I2.1467 J1.2278 F900.00
G1 X49.3177 Y48.7268 Z3.5000 F900.00
G3 X49.5852 Y47.9336 Z3.5000 I3.7902 J0.8368 F900.00
G1 X49.0405 Y47.3890 Z3.5000 F900.00
G3 X49.8136 Y47.1013 Z3.5000 I2.3125 J5.0323 F900.00
G1 X49.9540 Y47.2418 Z3.5000 F900.00
G3 X50.1114 Y47.0025 Z3.5000 I1.8930 J1.0733 F900.00
G1 X49.8136 Y47.1013 Z3.5000 F900.00
G1 X49.8136 Y47.1013 Z3.0000 F600.00
G1 X50.1114 Y47.0025 Z3.0000 F900.00
G2 X49.9540 Y47.2418 Z3.0000 I1.7356 J1.3127 F900.00
G1 X49.8136 Y47.1013 Z3.0000 F900.00
G2 X49.0405 Y47.3890 Z3.0000 I1.5395 J5.3199 F900.00
G1 X49.5852 Y47.9336 Z3.0000 F900.00
G2 X49.3177 Y48.7268 Z3.0000 I3.5227 J1.6299 F900.00
G1 X48.4341 Y47.8432 Z3.0000 F900.00
G2 X47.9638 Y48.4336 Z3.0000 I1.6764 J1.8181 F900.00
G1 X49.1677 Y49.6375 Z3.0000 F900.00
G2 X49.1130 Y50.6435 Z3.0000 I9.4354 J1.0173 F900.00
G1 X47.6543 Y49.1847 Z3.0000 F900.00
G2 X47.4486 Y50.0397 Z3.0000 I6.4492 J2.0033 F900.00
G1 X49.1670 Y51.7581 Z3.0000 F900.00
G2 X49.5383 Y53.1901 Z3.0000 I4.7733 J-0.4736 F900.00
G1 X47.3020 Y50.9537 Z3.0000 F900.00
G0 X47.3020 Y50.9537 Z12.0000
G0 X47.3030 Y50.9539 Z12.0000
G1 X47.3030 Y50.9539 Z3.0000 F600.00
G2 X47.1933 Y54.3379 Z3.0000 I15.5662 J2.1982 F900.00
G2 X47.9748 Y55.9900 Z3.0000 I2.5216 J-0.1819 F900.00
G3 X48.5848 Y56.2453 Z3.0000 I-3.1489 J8.3808 F900.00
G2 X51.9784 Y57.8961 Z3.0000 I27.9351 J-53.1137 F900.00
G2 X53.5394 Y58.3921 Z3.0000 I2.7641 J-5.9939 F900.00
G2 X56.3409 Y58.3009 Z3.0000 I0.9480 J-13.9558 F900.00
G2 X59.0048 Y57.6733 Z3.0000 I-0.8825 J-9.7122 F900.00
G2 X60.9960 Y55.8142 Z3.0000 I-1.2467 J-3.3311 F900.00
G2 X61.3451 Y53.9757 Z3.0000 I-5.5279 J-2.0022 F900.00
G2 X61.3652 Y51.7140 Z3.0000 I-7.8639 J-1.2007 F900.00
G3 X60.8377 Y46.9526 Z3.0000 I17.6520 J-4.3653 F900.00
G3 X61.6416 Y45.4879 Z3.0000 I1.4795 J-0.1409 F900.00
G2 X61.3124 Y44.8149 Z3.0000 I-2.5815 J0.8454 F900.00
G2 X58.0568 Y41.8760 Z3.0000 I-62.7819 J66.2757 F900.00
G2 X53.0127 Y38.6606 Z3.0000 I-13.1246 J15.0250 F900.00
G2 X50.1280 Y39.6701 Z3.0000 I0.9482 J7.3364 F900.00
G2 X46.4126 Y42.1993 Z3.0000 I38.2235 J60.1423 F900.00
G3 X43.0800 Y44.4893 Z3.0000 I-13.2537 J-15.7184 F900.00
G2 X41.6967 Y46.3866 Z3.0000 I1.1076 J2.2605 F900.00
G2 X41.3063 Y48.5209 Z3.0000 I58.2537 J11.7579 F900.00
G3 X47.5993 Y45.1343 Z3.0000 I17.7494 J25.4418 F900.00
G3 X53.6647 Y43.9810 Z3.0000 I5.8546 J14.2649 F900.00
G3 X57.5893 Y45.9486 Z3.0000 I0.0053 J4.8874 F900.00
G3 X58.6396 Y49.0353 Z3.0000 I-5.1346 J3.4691 F900.00
G3 X58.6643 Y52.3246 Z3.0000 I-19.2248 J1.7894 F900.00
G3 X58.2819 Y53.9877 Z3.0000 I-4.4903 J-0.1570 F900.00
G3 X55.3487 Y55.9259 Z3.0000 I-2.8769 J-1.1652 F900.00
G3 X51.2976 Y55.0650 Z3.0000 I0.3880 J-11.7874 F900.00
G3 X49.2899 Y52.4588 Z3.0000 I1.6773 J-3.3686 F900.00
G3 X49.1411 Y49.9298 Z3.0000 I7.7038 J-1.7222 F900.00
G3 X50.1114 Y47.0025 Z3.0000 I5.2532 J0.1168 F900.00
G1 X49.6108 Y47.1686 Z3.0000 F900.00
G2 X47.6868 Y49.0736 Z3.0000 I0.7232 J2.6546 F900.00
G2 X47.3030 Y50.9539 Z3.0000 I15.1824 J4.0785 F900.00
G0 X47.3030 Y50.9539 Z12.0000
G0 X48.1923 Y56.0866 Z12.0000
G1 X48.1923 Y56.0866 Z3.0000 F600.00
G3 X47.5152 Y55.4096 Z3.0000 I0.3746 J-1.0516 F900.00
G1 X48.1923 Y56.0866 Z3.0000 F900.00
G3 X48.5567 Y56.2323 Z3.0000 I-6.8922 J17.7694 F900.00
G3 X50.2335 Y57.0672 Z3.0000 I-9.2957 J20.7707 F900.00
G1 X47.1687 Y54.0024 Z3.0000 F900.00
G3 X47.1457 Y52.9188 Z3.0000 I7.2198 J-0.6952 F900.00
G1 X52.2236 Y57.9966 Z3.0000 F900.00
G2 X53.6915 Y58.4039 Z3.0000 I1.9582 J-4.2092 F900.00
G1 X47.2011 Y51.9135 Z3.0000 F900.00
G3 X47.3020 Y50.9537 Z3.0000 I12.3961 J0.8176 F900.00
G1 X49.5383 Y53.1901 Z3.0000 F900.00
G2 X51.4985 Y55.1502 Z3.0000 I3.2469 J-1.2868 F900.00
G1 X54.7630 Y58.4147 Z3.0000 F900.00
G2 X55.7542 Y58.3453 Z3.0000 I-2.2709 J-39.5115 F900.00
G1 X53.0173 Y55.6084 Z3.0000 F900.00
G2 X54.3265 Y55.8569 Z3.0000 I2.8302 J-11.3381 F900.00
G1 X56.7244 Y58.2548 Z3.0000 F900.00
G2 X57.6243 Y58.0941 Z3.0000 I-0.7005 J-6.5236 F900.00
G1 X55.4496 Y55.9194 Z3.0000 F900.00
G2 X56.3556 Y55.7647 Z3.0000 I-0.1163 J-3.4137 F900.00
G1 X58.4605 Y57.8696 Z3.0000 F900.00
G2 X59.2207 Y57.5691 Z3.0000 I-1.1708 J-4.0742 F900.00
G1 X57.0850 Y55.4334 Z3.0000 F900.00
G2 X57.6594 Y54.9472 Z3.0000 I-1.4844 J-2.3365 F900.00
G1 X59.8887 Y57.1764 Z3.0000 F900.00
G2 X60.4441 Y56.6713 Z3.0000 I-1.2495 J-1.9319 F900.00
G1 X58.1048 Y54.3319 Z3.0000 F900.00
G2 X58.4328 Y53.5992 Z3.0000 I-3.2735 J-1.9048 F900.00
G1 X60.8828 Y56.0493 Z3.0000 F900.00
G2 X61.1619 Y55.2677 Z3.0000 I-2.3819 J-1.2913 F900.00
G1 X58.6189 Y52.7247 Z3.0000 F900.00
G2 X58.6809 Y51.7261 Z3.0000 I-5.6233 J-0.8506 F900.00
G1 X61.3052 Y54.3504 Z3.0000 F900.00
G2 X61.4024 Y53.3868 Z3.0000 I-52.8564 J-5.8146 F900.00
G1 X58.6985 Y50.6829 Z3.0000 F900.00
G2 X58.6842 Y49.6080 Z3.0000 I-9.9027 J-0.4059 F900.00
G1 X61.4303 Y52.3541 Z3.0000 F900.00
G2 X61.2427 Y51.1059 Z3.0000 I-4.3064 J0.0088 F900.00
G1 X58.5515 Y48.4147 Z3.0000 F900.00
G2 X58.1354 Y46.9379 Z3.0000 I-6.3613 J0.9956 F900.00
G1 X61.0034 Y49.8059 Z3.0000 F900.00
G3 X60.8904 Y48.6323 Z3.0000 I10.4735 J-1.6001 F900.00
G1 X51.3428 Y39.0847 Z3.0000 F900.00
G3 X52.1504 Y38.8316 Z3.0000 I1.7818 J4.2701 F900.00
G1 X60.8354 Y47.5166 Z3.0000 F900.00
G3 X60.8792 Y46.4997 Z3.0000 I5.7305 J-0.2625 F900.00
G1 X53.0652 Y38.6857 Z3.0000 F900.00
G3 X55.2754 Y39.8353 Z3.0000 I-6.8215 J15.8152 F900.00
G1 X61.2293 Y45.7891 Z3.0000 F900.00
G3 X61.6277 Y45.4933 Z3.0000 I0.8269 J0.6975 F900.00
G2 X61.2232 Y44.7224 Z3.0000 I-1.7743 J0.4394 F900.00
G0 X61.2232 Y44.7224 Z12.0000
G0 X55.5682 Y44.3707 Z12.0000
G1 X55.5682 Y44.3707 Z3.0000 F600.00
G1 X50.6064 Y39.4089 Z3.0000 F900.00
G2 X49.9297 Y39.7929 Z3.0000 I3.1494 J6.3380 F900.00
G1 X54.1603 Y44.0234 Z3.0000 F900.00
G2 X53.0570 Y43.9808 Z3.0000 I-0.7953 J6.2878 F900.00
G1 X49.2874 Y40.2112 Z3.0000 F900.00
G2 X48.6552 Y40.6397 Z3.0000 I60.3107 J89.6602 F900.00
G1 X52.0586 Y44.0431 Z3.0000 F900.00
G2 X51.1136 Y44.1587 Z3.0000 I0.8434 J10.8162 F900.00
G1 X48.0233 Y41.0685 Z3.0000 F900.00
G1 X47.3914 Y41.4972 Z3.0000 F900.00
G1 X50.2186 Y44.3244 Z3.0000 F900.00
G2 X49.3712 Y44.5377 Z3.0000 I2.0077 J9.7652 F900.00
G1 X46.7732 Y41.9397 Z3.0000 F900.00
G2 X46.1665 Y42.3936 Z3.0000 I4.8291 J7.0861 F900.00
G1 X48.5604 Y44.7875 Z3.0000 F900.00
G2 X47.7792 Y45.0670 Z3.0000 I3.5508 J11.1586 F900.00
G1 X45.5738 Y42.8616 Z3.0000 F900.00
G3 X44.9644 Y43.3128 Z3.0000 I-6.2091 J-7.7478 F900.00
G1 X47.0274 Y45.3758 Z3.0000 F900.00
G2 X46.2817 Y45.6908 Z3.0000 I25.1218 J60.5121 F900.00
G1 X44.3265 Y43.7356 Z3.0000 F900.00
G1 X43.6723 Y44.1421 Z3.0000 F900.00
G1 X45.5656 Y46.0354 Z3.0000 F900.00
G2 X44.8543 Y46.3847 Z3.0000 I3.5751 J8.1788 F900.00
G1 X43.0067 Y44.5371 Z3.0000 F900.00
G2 X42.3971 Y44.9882 Z3.0000 I0.9810 J1.9631 F900.00
G1 X44.1653 Y46.7564 Z3.0000 F900.00
G2 X43.4861 Y47.1379 Z3.0000 I3.8472 J7.6445 F900.00
G1 X41.9543 Y45.6060 Z3.0000 F900.00
G2 X41.6931 Y46.4055 Z3.0000 I3.0719 J1.4462 F900.00
G1 X42.8235 Y47.5359 Z3.0000 F900.00
G2 X42.1744 Y47.9474 Z3.0000 I4.9600 J8.5414 F900.00
G1 X41.5221 Y47.2952 Z3.0000 F900.00
G2 X41.3626 Y48.1963 Z3.0000 I24.5985 J4.8187 F900.00
G1 X41.3063 Y48.5209 Z3.0000 F900.00
G3 X41.5338 Y48.3675 Z3.0000 I3.5136 J4.9637 F900.00
G1 X41.3626 Y48.1963 Z3.0000 F900.00
G1 X41.3626 Y48.1963 Z2.5000 F600.00
G1 X41.5338 Y48.3675 Z2.5000 F900.00
G2 X41.3063 Y48.5209 Z2.5000 I3.2861 J5.1171 F900.00
G1 X41.3626 Y48.1963 Z2.5000 F900.00
G3 X41.5221 Y47.2952 Z2.5000 I24.7580 J3.9176 F900.00
G1 X42.1744 Y47.9474 Z2.5000 F900.00
G3 X42.8235 Y47.5359 Z2.5000 I5.6091 J8.1299 F900.00
G1 X41.6931 Y46.4055 Z2.5000 F900.00
G3 X41.9543 Y45.6060 Z2.5000 I3.3331 J0.6467 F900.00
G1 X43.4861 Y47.1379 Z2.5000 F900.00
G3 X44.1653 Y46.7564 Z2.5000 I4.5264 J7.2630 F900.00
G1 X42.3971 Y44.9882 Z2.5000 F900.00
G3 X43.0067 Y44.5371 Z2.5000 I1.5905 J1.5120 F900.00
G1 X44.8543 Y46.3847 Z2.5000 F900.00
G3 X45.5656 Y46.0354 Z2.5000 I4.2865 J7.8294 F900.00
G1 X43.6723 Y44.1421 Z2.5000 F900.00
G1 X44.3265 Y43.7356 Z2.5000 F900.00
G1 X46.2817 Y45.6908 Z2.5000 F900.00
G3 X47.0274 Y45.3758 Z2.5000 I25.8675 J60.1971 F900.00
G1 X44.9644 Y43.3128 Z2.5000 F900.00
G2 X45.5738 Y42.8616 Z2.5000 I-5.5997 J-8.1991 F900.00
G1 X47.7792 Y45.0670 Z2.5000 F900.00
G3 X48.5604 Y44.7875 Z2.5000 I4.3320 J10.8792 F900.00
G1 X46.1665 Y42.3936 Z2.5000 F900.00
G3 X46.7732 Y41.9397 Z2.5000 I5.4358 J6.6321 F900.00
G1 X49.3712 Y44.5377 Z2.5000 F900.00
G3 X50.2186 Y44.3244 Z2.5000 I2.8550 J9.5519 F900.00
G1 X47.3914 Y41.4972 Z2.5000 F900.00
G1 X48.0233 Y41.0685 Z2.5000 F900.00
G1 X51.1136 Y44.1587 Z2.5000 F900.00
G3 X52.0586 Y44.0431 Z2.5000 I1.7885 J10.7006 F900.00
G1 X48.6552 Y40.6397 Z2.5000 F900.00
G3 X49.2874 Y40.2112 Z2.5000 I60.9429 J89.2317 F900.00
G1 X53.0570 Y43.9808 Z2.5000 F900.00
G3 X54.1603 Y44.0234 Z2.5000 I0.3080 J6.3304 F900.00
G1 X49.9297 Y39.7929 Z2.5000 F900.00
G3 X50.6064 Y39.4089 Z2.5000 I3.8261 J5.9540 F900.00
G1 X55.5682 Y44.3707 Z2.5000 F900.00
G0 X55.5682 Y44.3707 Z12.0000
G0 X55.5704 Y44.3656 Z12.0000
G1 X55.5704 Y44.3656 Z2.5000 F600.00
G3 X57.5893 Y45.9486 Z2.5000 I-1.9004 J4.5028 F900.00
G3 X58.6396 Y49.0353 Z2.5000 I-5.1346 J3.4691 F900.00
G3 X58.6643 Y52.3246 Z2.5000 I-19.2248 J1.7894 F900.00
G3 X58.2819 Y53.9877 Z2.5000 I-4.4903 J-0.1570 F900.00
G3 X55.3487 Y55.9259 Z2.5000 I-2.8769 J-1.1652 F900.00
G3 X51.2976 Y55.0650 Z2.5000 I0.3880 J-11.7874 F900.00
G3 X49.2899 Y52.4588 Z2.5000 I1.6773 J-3.3686 F900.00
G3 X49.1411 Y49.9298 Z2.5000 I7.7038 J-1.7222 F900.00
G3 X50.1114 Y47.0025 Z2.5000 I5.2532 J0.1168 F900.00
G1 X49.6108 Y47.1686 Z2.5000 F900.00
G2 X47.6868 Y49.0736 Z2.5000 I0.7232 J2.6546 F900.00
G2 X47.1933 Y54.3379 Z2.5000 I15.1824 J4.0785 F900.00
G2 X47.9748 Y55.9900 Z2.5000 I2.5216 J-0.1819 F900.00
G3 X48.5848 Y56.2453 Z2.5000 I-3.1489 J8.3808 F900.00
G2 X51.9784 Y57.8961 Z2.5000 I27.9351 J-53.1137 F900.00
G2 X53.5394 Y58.3921 Z2.5000 I2.7641 J-5.9939 F900.00
G2 X56.3409 Y58.3009 Z2.5000 I0.9480 J-13.9558 F900.00
G2 X59.0048 Y57.6733 Z2.5000 I-0.8825 J-9.7122 F900.00
G2 X60.9960 Y55.8142 Z2.5000 I-1.2467 J-3.3311 F900.00
G2 X61.3451 Y53.9757 Z2.5000 I-5.5279 J-2.0022 F900.00
G2 X61.3652 Y51.7140 Z2.5000 I-7.8639 J-1.2007 F900.00
G3 X60.8377 Y46.9526 Z2.5000 I17.6520 J-4.3653 F900.00
G3 X61.6416 Y45.4879 Z2.5000 I1.4795 J-0.1409 F900.00
G2 X61.3124 Y44.8149 Z2.5000 I-2.5815 J0.8454 F900.00
G2 X58.0568 Y41.8760 Z2.5000 I-62.7819 J66.2757 F900.00
G2 X53.0127 Y38.6606 Z2.5000 I-13.1246 J15.0250 F900.00
G2 X50.1280 Y39.6701 Z2.5000 I0.9482 J7.3364 F900.00
G2 X46.4126 Y42.1993 Z2.5000 I38.2235 J60.1423 F900.00
G3 X43.0800 Y44.4893 Z2.5000 I-13.2537 J-15.7184 F900.00
G2 X41.6967 Y46.3866 Z2.5000 I1.1076 J2.2605 F900.00
G2 X41.3063 Y48.5209 Z2.5000 I58.2537 J11.7579 F900.00
G3 X47.5993 Y45.1343 Z2.5000 I17.7494 J25.4418 F900.00
G3 X53.6647 Y43.9810 Z2.5000 I5.8546 J14.2649 F900.00
G3 X55.5704 Y44.3656 Z2.5000 I0.0053 J4.8874 F900.00
G0 X55.5704 Y44.3656 Z12.0000
G0 X61.2232 Y44.7224 Z12.0000
G1 X61.2232 Y44.7224 Z2.5000 F600.00
G3 X61.6277 Y45.4933 Z2.5000 I-1.3698 J1.2104 F900.00
G2 X61.2293 Y45.7891 Z2.5000 I0.4285 J0.9933 F900.00
G1 X55.2754 Y39.8353 Z2.5000 F900.00
G2 X53.0652 Y38.6857 Z2.5000 I-9.0317 J14.6656 F900.00
G1 X60.8792 Y46.4997 Z2.5000 F900.00
G2 X60.8354 Y47.5166 Z2.5000 I5.6867 J0.7544 F900.00
G1 X52.1504 Y38.8316 Z2.5000 F900.00
G2 X51.3428 Y39.0847 Z2.5000 I0.9742 J4.5232 F900.00
G1 X60.8904 Y48.6323 Z2.5000 F900.00
G2 X61.0034 Y49.8059 Z2.5000 I10.5864 J-0.4265 F900.00
G1 X58.1354 Y46.9379 Z2.5000 F900.00
G3 X58.5515 Y48.4147 Z2.5000 I-5.9451 J2.4724 F900.00
G1 X61.2427 Y51.1059 Z2.5000 F900.00
G3 X61.4303 Y52.3541 Z2.5000 I-4.1188 J1.2570 F900.00
G1 X58.6842 Y49.6080 Z2.5000 F900.00
G3 X58.6985 Y50.6829 Z2.5000 I-9.8884 J0.6690 F900.00
G1 X61.4024 Y53.3868 Z2.5000 F900.00
G3 X61.3052 Y54.3504 Z2.5000 I-52.9535 J-4.8511 F900.00
G1 X58.6809 Y51.7261 Z2.5000 F900.00
G3 X58.6189 Y52.7247 Z2.5000 I-5.6853 J0.1481 F900.00
G1 X61.1619 Y55.2677 Z2.5000 F900.00
G3 X60.8828 Y56.0493 Z2.5000 I-2.6610 J-0.5097 F900.00
G1 X58.4328 Y53.5992 Z2.5000 F900.00
G3 X58.1048 Y54.3319 Z2.5000 I-3.6015 J-1.1721 F900.00
G1 X60.4441 Y56.6713 Z2.5000 F900.00
G3 X59.8887 Y57.1764 Z2.5000 I-1.8050 J-1.4267 F900.00
G1 X57.6594 Y54.9472 Z2.5000 F900.00
G3 X57.0850 Y55.4334 Z2.5000 I-2.0589 J-1.8503 F900.00
G1 X59.2207 Y57.5691 Z2.5000 F900.00
G3 X58.4605 Y57.8696 Z2.5000 I-1.9310 J-3.7738 F900.00
G1 X56.3556 Y55.7647 Z2.5000 F900.00
G3 X55.4496 Y55.9194 Z2.5000 I-1.0224 J-3.2591 F900.00
G1 X57.6243 Y58.0941 Z2.5000 F900.00
G3 X56.7244 Y58.2548 Z2.5000 I-1.6005 J-6.3629 F900.00
G1 X54.3265 Y55.8569 Z2.5000 F900.00
G3 X53.0173 Y55.6084 Z2.5000 I1.5210 J-11.5866 F900.00
G1 X55.7542 Y58.3453 Z2.5000 F900.00
G3 X54.7630 Y58.4147 Z2.5000 I-3.2621 J-39.4421 F900.00
G1 X51.4985 Y55.1502 Z2.5000 F900.00
G3 X49.5383 Y53.1901 Z2.5000 I1.2868 J-3.2469 F900.00
G1 X47.3020 Y50.9537 Z2.5000 F900.00
G2 X47.2011 Y51.9135 Z2.5000 I12.2952 J1.7774 F900.00
G1 X53.6915 Y58.4039 Z2.5000 F900.00
G3 X52.2236 Y57.9966 Z2.5000 I0.4903 J-4.6165 F900.00
G1 X47.1457 Y52.9188 Z2.5000 F900.00
G2 X47.1687 Y54.0024 Z2.5000 I7.2428 J0.3885 F900.00
G1 X50.2335 Y57.0672 Z2.5000 F900.00
G2 X48.5567 Y56.2323 Z2.5000 I-10.9724 J19.9358 F900.00
G2 X48.1923 Y56.0866 Z2.5000 I-7.2567 J17.6237 F900.00
G1 X47.5152 Y55.4096 Z2.5000 F900.00
G2 X48.1923 Y56.0866 Z2.5000 I1.0516 J-0.3746 F900.00
G0 X48.1923 Y56.0866 Z12.0000
G0 X47.3020 Y50.9537 Z12.0000
G1 X47.3020 Y50.9537 Z2.5000 F600.00
G1 X49.5383 Y53.1901 Z2.5000 F900.00
G3 X49.1670 Y51.7581 Z2.5000 I4.4020 J-1.9056 F900.00
G1 X47.4486 Y50.0397 Z2.5000 F900.00
G3 X47.6543 Y49.1847 Z2.5000 I6.6548 J1.1483 F900.00
G1 X49.1130 Y50.6435 Z2.5000 F900.00
G3 X49.1677 Y49.6375 Z2.5000 I9.4901 J0.0113 F900.00
G1 X47.9638 Y48.4336 Z2.5000 F900.00
G3 X48.4341 Y47.8432 Z2.5000 I2.1467 J1.2278 F900.00
G1 X49.3177 Y48.7268 Z2.5000 F900.00
G3 X49.5852 Y47.9336 Z2.5000 I3.7902 J0.8368 F900.00
G1 X49.0405 Y47.3890 Z2.5000 F900.00
G3 X49.8136 Y47.1013 Z2.5000 I2.3125 J5.0323 F900.00
G1 X49.9540 Y47.2418 Z2.5000 F900.00
G3 X50.1114 Y47.0025 Z2.5000 I1.8930 J1.0733 F900.00
G1 X49.8136 Y47.1013 Z2.5000 F900.00
G0 Z12.0000
G0 X67.3839 Y52.3125
G0 Z10.0000
G1 X67.3839 Y52.3125 Z3.5000 F600.00
G2 X67.6398 Y51.5601 Z3.5000 I-1.6906 J-0.9946 F900.00
G2 X67.5522 Y45.9696 Z3.5000 I-19.8417 J-2.4852 F900.00
G2 X66.6951 Y40.8081 Z3.5000 I-162.2594 J24.2917 F900.00
G2 X65.6108 Y37.0573 Z3.5000 I-18.2305 J3.2380 F900.00
G3 X63.9099 Y36.2196 Z3.5000 I11.7161 J-25.9334 F900.00
G3 X58.2047 Y32.4739 Z3.5000 I25.9113 J-45.6856 F900.00
G2 X53.3423 Y30.8311 Z3.5000 I-4.7369 J6.0028 F900.00
G1 X52.3934 Y30.8691 Z3.5000 F900.00
G2 X49.5436 Y31.2193 Z3.5000 I2.6433 J33.2825 F900.00
G2 X43.0513 Y33.3503 Z3.5000 I1.8271 J16.5218 F900.00
G2 X35.1580 Y39.2226 Z3.5000 I25.7574 J42.8633 F900.00
G2 X33.1355 Y43.5023 Z3.5000 I4.5036 J4.7461 F900.00
G2 X33.3438 Y49.2365 Z3.5000 I28.4972 J1.8355 F900.00
G2 X34.9469 Y53.3726 Z3.5000 I9.9388 J-1.4733 F900.00
G2 X37.5974 Y57.0406 Z3.5000 I40.1653 J-26.2327 F900.00
G3 X37.6891 Y52.4624 Z3.5000 I24.1740 J-1.8062 F900.00
G2 X38.2085 Y46.3273 Z3.5000 I-49.5120 J-7.2814 F900.00
G3 X38.3968 Y43.9996 Z3.5000 I8.8492 J-0.4558 F900.00
G3 X39.2458 Y43.1205 Z3.5000 I1.1474 J0.2587 F900.00
G2 X41.6942 Y42.3895 Z3.5000 I-1.5057 J-9.5079 F900.00
G2 X45.2969 Y40.0541 Z3.5000 I-19.9432 J-34.7132 F900.00
G2 X49.0494 Y36.7545 Z3.5000 I-24.4836 J-31.6278 F900.00
G3 X50.4914 Y35.6767 Z3.5000 I4.2894 J4.2353 F900.00
G3 X53.3655 Y35.4688 Z3.5000 I1.7256 J3.8854 F900.00
G3 X56.1217 Y36.5213 Z3.5000 I-3.0573 J12.1415 F900.00
G3 X60.9810 Y39.6873 Z3.5000 I-8.5964 J18.5061 F900.00
G3 X64.6891 Y45.4478 Z3.5000 I-10.7032 J10.9635 F900.00
G3 X66.5379 Y50.9398 Z3.5000 I-110.3875 J40.2187 F900.00
G2 X67.3839 Y52.3125 Z3.5000 I3.0201 J-0.9142 F900.00
G0 X67.3839 Y52.3125 Z12.0000
G0 X66.4213 Y50.5957 Z12.0000
G1 X66.4213 Y50.5957 Z3.5000 F600.00
G1 X67.5877 Y51.7621 Z3.5000 F900.00
G3 X67.3839 Y52.3125 Z3.5000 I-1.5722 J-0.2693 F900.00
G3 X66.4213 Y50.5957 Z3.5000 I2.4341 J-2.4930 F900.00
G3 X65.9179 Y49.0316 Z3.5000 I36.8651 J-12.7293 F900.00
G1 X67.7256 Y50.8393 Z3.5000 F900.00
G2 X67.7823 Y49.8353 Z3.5000 I-9.4409 J-1.0366 F900.00
G1 X65.4022 Y47.4553 Z3.5000 F900.00
G2 X64.8297 Y45.8221 Z3.5000 I-24.1391 J7.5451 F900.00
G1 X67.7861 Y48.7785 Z3.5000 F900.00
G2 X67.7331 Y47.6649 Z3.5000 I-11.6819 J-0.0021 F900.00
G1 X64.0492 Y43.9810 Z3.5000 F900.00
G2 X62.4419 Y41.3129 Z3.5000 I-12.9916 J6.0087 F900.00
G1 X67.6164 Y46.4875 Z3.5000 F900.00
G2 X67.4426 Y45.2530 Z3.5000 I-21.8153 J2.4423 F900.00
G1 X53.0331 Y30.8435 Z3.5000 F900.00
G3 X54.1083 Y30.8581 Z3.5000 I0.4409 J7.1399 F900.00
G1 X67.2326 Y43.9823 Z3.5000 F900.00
G1 X67.0164 Y42.7055 Z3.5000 F900.00
G1 X55.3823 Y31.0714 Z3.5000 F900.00
G3 X57.1770 Y31.8055 Z3.5000 I-1.9139 J7.2405 F900.00
G1 X66.8002 Y41.4286 Z3.5000 F900.00
G2 X66.5578 Y40.1256 Z3.5000 I-21.2283 J3.2750 F900.00
G1 X60.5461 Y34.1139 Z3.5000 F900.00
G2 X63.4496 Y35.9567 Z3.5000 I21.8173 J-31.1661 F900.00
G1 X66.1848 Y38.6919 Z3.5000 F900.00
G2 X65.6108 Y37.0573 Z3.5000 I-27.7231 J8.8160 F900.00
G0 X65.6108 Y37.0573 Z12.0000
G0 X59.9820 Y38.8531 Z12.0000
G1 X59.9820 Y38.8531 Z3.5000 F600.00
G1 X52.0320 Y30.9030 Z3.5000 F900.00
G2 X51.0769 Y31.0086 Z3.5000 I0.7494 J11.1482 F900.00
G1 X57.0880 Y37.0197 Z3.5000 F900.00
G2 X55.0418 Y36.0342 Z3.5000 I-10.3739 J18.9217 F900.00
G1 X50.1444 Y31.1368 Z3.5000 F900.00
G2 X49.2150 Y31.2680 Z3.5000 I5.7482 J44.0652 F900.00
G1 X53.4324 Y35.4855 Z3.5000 F900.00
G2 X52.2084 Y35.3221 Z3.5000 I-1.3029 J5.0947 F900.00
G1 X48.2993 Y31.4130 Z3.5000 F900.00
G2 X47.4185 Y31.5929 Z3.5000 I1.1474 J7.8667 F900.00
G1 X51.2434 Y35.4178 Z3.5000 F900.00
G2 X50.4596 Y35.6946 Z3.5000 I0.5454 J2.7925 F900.00
G1 X46.5883 Y31.8234 Z3.5000 F900.00
G2 X45.7982 Y32.0939 Z3.5000 I2.0526 J7.2850 F900.00
G1 X49.8091 Y36.1048 Z3.5000 F900.00
G2 X49.2351 Y36.5915 Z3.5000 I2.3360 J3.3372 F900.00
G1 X45.0377 Y32.3941 Z3.5000 F900.00
G2 X44.3022 Y32.7192 Z3.5000 I3.4078 J8.7046 F900.00
G1 X48.6848 Y37.1018 Z3.5000 F900.00
G1 X48.1415 Y37.6192 Z3.5000 F900.00
G1 X43.5898 Y33.0675 Z3.5000 F900.00
G2 X42.9001 Y33.4384 Z3.5000 I3.8463 J7.9795 F900.00
G1 X47.5868 Y38.1251 Z3.5000 F900.00
G1 X47.0258 Y38.6248 Z3.5000 F900.00
G1 X42.2317 Y33.8307 Z3.5000 F900.00
G1 X41.5828 Y34.2424 Z3.5000 F900.00
G1 X46.4586 Y39.1183 Z3.5000 F900.00
G3 X45.8779 Y39.5982 Z3.5000 I-8.2521 J-9.3943 F900.00
G1 X40.9492 Y34.6695 Z3.5000 F900.00
G2 X40.3261 Y35.1071 Z3.5000 I9.4664 J14.1424 F900.00
G1 X45.2831 Y40.0641 Z3.5000 F900.00
G1 X44.6670 Y40.5087 Z3.5000 F900.00
G1 X39.7122 Y35.5538 Z3.5000 F900.00
G1 X39.1030 Y36.0052 Z3.5000 F900.00
G1 X44.0336 Y40.9359 Z3.5000 F900.00
G3 X43.3905 Y41.3535 Z3.5000 I-11.9877 J-17.7552 F900.00
G1 X38.4958 Y36.4588 Z3.5000 F900.00
G1 X37.8990 Y36.9226 Z3.5000 F900.00
G1 X42.7461 Y41.7697 Z3.5000 F900.00
G3 X42.0831 Y42.1673 Z3.5000 I-3.9745 J-5.8754 F900.00
G1 X37.3022 Y37.3864 Z3.5000 F900.00
G2 X36.7148 Y37.8598 Z3.5000 I10.0618 J13.0858 F900.00
G1 X41.3892 Y42.5342 Z3.5000 F900.00
G3 X40.6107 Y42.8163 Z3.5000 I-2.0366 J-4.4038 F900.00
G1 X36.1371 Y38.3427 Z3.5000 F900.00
G2 X35.5728 Y38.8390 Z3.5000 I5.7806 J7.1409 F900.00
G1 X39.7495 Y43.0158 Z3.5000 F900.00
G2 X38.9295 Y43.2564 Z3.5000 I0.1795 J2.1292 F900.00
G1 X35.0284 Y39.3553 Z3.5000 F900.00
G2 X34.5266 Y39.9141 Z3.5000 I3.4090 J3.5661 F900.00
G1 X38.4538 Y43.8413 Z3.5000 F900.00
G2 X38.2708 Y44.7190 Z3.5000 I3.0730 J1.0985 F900.00
G1 X34.0859 Y40.5342 Z3.5000 F900.00
G2 X33.7220 Y41.2309 Z3.5000 I3.4942 J2.2685 F900.00
G1 X38.2208 Y45.7296 Z3.5000 F900.00
G3 X38.1929 Y46.7625 Z3.5000 I-33.9176 J-0.3972 F900.00
G1 X33.4362 Y42.0058 Z3.5000 F900.00
G2 X33.2300 Y42.8602 Z3.5000 I5.6090 J1.8058 F900.00
G1 X38.1563 Y47.7865 Z3.5000 F900.00
G3 X38.0926 Y48.7834 Z3.5000 I-16.4503 J-0.5509 F900.00
G1 X33.1143 Y43.8052 Z3.5000 F900.00
G2 X33.0708 Y44.8224 Z3.5000 I9.0997 J0.8988 F900.00
G1 X38.0131 Y49.7646 Z3.5000 F900.00
G1 X37.9120 Y50.7242 Z3.5000 F900.00
G1 X33.0818 Y45.8940 Z3.5000 F900.00
G2 X33.1434 Y47.0162 Z3.5000 I15.2698 J-0.2748 F900.00
G1 X37.7935 Y51.6664 Z3.5000 F900.00
G2 X37.6742 Y52.6077 Z3.5000 I16.4538 J2.5637 F900.00
G1 X33.2247 Y48.1582 Z3.5000 F900.00
G2 X33.3654 Y49.3596 Z3.5000 I9.5062 J-0.5045 F900.00
G1 X37.5879 Y53.5821 Z3.5000 F900.00
G2 X37.5440 Y54.5988 Z3.5000 I14.5805 J1.1393 F900.00
G1 X33.6777 Y50.7325 Z3.5000 F900.00
G2 X34.5119 Y52.6274 Z3.5000 I9.9232 J-3.2377 F900.00
G1 X37.5412 Y55.6567 Z3.5000 F900.00
G1 X37.5861 Y56.7623 Z3.5000 F900.00
G1 X36.7861 Y55.9622 Z3.5000 F900.00
G1 X37.5974 Y57.0406 Z3.5000 F900.00
G1 X37.5861 Y56.7623 Z3.5000 F900.00
G1 X37.5861 Y56.7623 Z3.0000 F600.00
G1 X37.5974 Y57.0406 Z3.0000 F900.00
G1 X36.7861 Y55.9622 Z3.0000 F900.00
G1 X37.5861 Y56.7623 Z3.0000 F900.00
G1 X37.5412 Y55.6567 Z3.0000 F900.00
G1 X34.5119 Y52.6274 Z3.0000 F900.00
G3 X33.6777 Y50.7325 Z3.0000 I9.0889 J-5.1326 F900.00
G1 X37.5440 Y54.5988 Z3.0000 F900.00
G3 X37.5879 Y53.5821 Z3.0000 I14.6245 J0.1226 F900.00
G1 X33.3654 Y49.3596 Z3.0000 F900.00
G3 X33.2247 Y48.1582 Z3.0000 I9.3655 J-1.7058 F900.00
G1 X37.6742 Y52.6077 Z3.0000 F900.00
G3 X37.7935 Y51.6664 Z3.0000 I16.5731 J1.6224 F900.00
G1 X33.1434 Y47.0162 Z3.0000 F900.00
G3 X33.0818 Y45.8940 Z3.0000 I15.2083 J-1.3970 F900.00
G1 X37.9120 Y50.7242 Z3.0000 F900.00
G1 X38.0131 Y49.7646 Z3.0000 F900.00
G1 X33.0708 Y44.8224 Z3.0000 F900.00
G3 X33.1143 Y43.8052 Z3.0000 I9.1432 J-0.1184 F900.00
G1 X38.0926 Y48.7834 Z3.0000 F900.00
G2 X38.1563 Y47.7865 Z3.0000 I-16.3866 J-1.5478 F900.00
G1 X33.2300 Y42.8602 Z3.0000 F900.00
G3 X33.4362 Y42.0058 Z3.0000 I5.8153 J0.9514 F900.00
G1 X38.1929 Y46.7625 Z3.0000 F900.00
G2 X38.2208 Y45.7296 Z3.0000 I-33.8898 J-1.4301 F900.00
G1 X33.7220 Y41.2309 Z3.0000 F900.00
G3 X34.0859 Y40.5342 Z3.0000 I3.8582 J1.5718 F900.00
G1 X38.2708 Y44.7190 Z3.0000 F900.00
G3 X38.4538 Y43.8413 Z3.0000 I3.2560 J0.2208 F900.00
G1 X34.5266 Y39.9141 Z3.0000 F900.00
G3 X35.0284 Y39.3553 Z3.0000 I3.9109 J3.0073 F900.00
G1 X38.9295 Y43.2564 Z3.0000 F900.00
G3 X39.7495 Y43.0158 Z3.0000 I0.9995 J1.8886 F900.00
G1 X35.5728 Y38.8390 Z3.0000 F900.00
G3 X36.1371 Y38.3427 Z3.0000 I6.3449 J6.6445 F900.00
G1 X40.6107 Y42.8163 Z3.0000 F900.00
G2 X41.3892 Y42.5342 Z3.0000 I-1.2581 J-4.6860 F900.00
G1 X36.7148 Y37.8598 Z3.0000 F900.00
G3 X37.3022 Y37.3864 Z3.0000 I10.6491 J12.6125 F900.00
G1 X42.0831 Y42.1673 Z3.0000 F900.00
G2 X42.7461 Y41.7697 Z3.0000 I-3.3115 J-6.2730 F900.00
G1 X37.8990 Y36.9226 Z3.0000 F900.00
G1 X38.4958 Y36.4588 Z3.0000 F900.00
G1 X43.3905 Y41.3535 Z3.0000 F900.00
G2 X44.0336 Y40.9359 Z3.0000 I-11.3446 J-18.1729 F900.00
G1 X39.1030 Y36.0052 Z3.0000 F900.00
G1 X39.7122 Y35.5538 Z3.0000 F900.00
G1 X44.6670 Y40.5087 Z3.0000 F900.00
G1 X45.2831 Y40.0641 Z3.0000 F900.00
G1 X40.3261 Y35.1071 Z3.0000 F900.00
G3 X40.9492 Y34.6695 Z3.0000 I10.0895 J13.7049 F900.00
G1 X45.8779 Y39.5982 Z3.0000 F900.00
G2 X46.4586 Y39.1183 Z3.0000 I-7.6714 J-9.8742 F900.00
G1 X41.5828 Y34.2424 Z3.0000 F900.00
G1 X42.2317 Y33.8307 Z3.0000 F900.00
G1 X47.0258 Y38.6248 Z3.0000 F900.00
G1 X47.5868 Y38.1251 Z3.0000 F900.00
G1 X42.9001 Y33.4384 Z3.0000 F900.00
G3 X43.5898 Y33.0675 Z3.0000 I4.5361 J7.6086 F900.00
G1 X48.1415 Y37.6192 Z3.0000 F900.00
G1 X48.6848 Y37.1018 Z3.0000 F900.00
G1 X44.3022 Y32.7192 Z3.0000 F900.00
G3 X45.0377 Y32.3941 Z3.0000 I4.1433 J8.3795 F900.00
G1 X49.2351 Y36.5915 Z3.0000 F900.00
G3 X49.8091 Y36.1048 Z3.0000 I2.9101 J2.8506 F900.00
G1 X45.7982 Y32.0939 Z3.0000 F900.00
G3 X46.5883 Y31.8234 Z3.0000 I2.8428 J7.0145 F900.00
G1 X50.4596 Y35.6946 Z3.0000 F900.00
G3 X51.2434 Y35.4178 Z3.0000 I1.3292 J2.5157 F900.00
G1 X47.4185 Y31.5929 Z3.0000 F900.00
G3 X48.2993 Y31.4130 Z3.0000 I2.0282 J7.6869 F900.00
G1 X52.2084 Y35.3221 Z3.0000 F900.00
G3 X53.4324 Y35.4855 Z3.0000 I-0.0789 J5.2581 F900.00
G1 X49.2150 Y31.2680 Z3.0000 F900.00
G3 X50.1444 Y31.1368 Z3.0000 I6.6776 J43.9340 F900.00
G1 X55.0418 Y36.0342 Z3.0000 F900.00
G3 X57.0880 Y37.0197 Z3.0000 I-8.3277 J19.9072 F900.00
G1 X51.0769 Y31.0086 Z3.0000 F900.00
G3 X52.0320 Y30.9030 Z3.0000 I1.7044 J11.0426 F900.00
G1 X59.9820 Y38.8531 Z3.0000 F900.00
G0 X59.9820 Y38.8531 Z12.0000
G0 X59.9760 Y38.8610 Z12.0000
G1 X59.9760 Y38.8610 Z3.0000 F600.00
G3 X60.9810 Y39.6873 Z3.0000 I-12.4508 J16.1664 F900.00
G3 X64.6891 Y45.4478 Z3.0000 I-10.7032 J10.9635 F900.00
G3 X66.5379 Y50.9398 Z3.0000 I-110.3875 J40.2187 F900.00
G2 X67.3839 Y52.3125 Z3.0000 I3.0201 J-0.9142 F900.00
G2 X67.6398 Y51.5601 Z3.0000 I-1.6906 J-0.9946 F900.00
G2 X67.5522 Y45.9696 Z3.0000 I-19.8417 J-2.4852 F900.00
G2 X66.6951 Y40.8081 Z3.0000 I-162.2594 J24.2917 F900.00
G2 X65.6108 Y37.0573 Z3.0000 I-18.2305 J3.2380 F900.00
G3 X63.9099 Y36.2196 Z3.0000 I11.7161 J-25.9334 F900.00
G3 X58.2047 Y32.4739 Z3.0000 I25.9113 J-45.6856 F900.00
G2 X53.3423 Y30.8311 Z3.0000 I-4.7369 J6.0028 F900.00
G1 X52.3934 Y30.8691 Z3.0000 F900.00
G2 X49.5436 Y31.2193 Z3.0000 I2.6433 J33.2825 F900.00
G2 X43.0513 Y33.3503 Z3.0000 I1.8271 J16.5218 F900.00
G2 X35.1580 Y39.2226 Z3.0000 I25.7574 J42.8633 F900.00
G2 X33.1355 Y43.5023 Z3.0000 I4.5036 J4.7461 F900.00
G2 X33.3438 Y49.2365 Z3.0000 I28.4972 J1.8355 F900.00
G2 X34.9469 Y53.3726 Z3.0000 I9.9388 J-1.4733 F900.00
G2 X37.5974 Y57.0406 Z3.0000 I40.1653 J-26.2327 F900.00
G3 X37.6891 Y52.4624 Z3.0000 I24.1740 J-1.8062 F900.00
G2 X38.2085 Y46.3273 Z3.0000 I-49.5120 J-7.2814 F900.00
G3 X38.3968 Y43.9996 Z3.0000 I8.8492 J-0.4558 F900.00
G3 X39.2458 Y43.1205 Z3.0000 I1.1474 J0.2587 F900.00
G2 X41.6942 Y42.3895 Z3.0000 I-1.5057 J-9.5079 F900.00
G2 X45.2969 Y40.0541 Z3.0000 I-19.9432 J-34.7132 F900.00
G2 X49.0494 Y36.7545 Z3.0000 I-24.4836 J-31.6278 F900.00
G3 X50.4914 Y35.6767 Z3.0000 I4.2894 J4.2353 F900.00
G3 X53.3655 Y35.4688 Z3.0000 I1.7256 J3.8854 F900.00
G3 X56.1217 Y36.5213 Z3.0000 I-3.0573 J12.1415 F900.00
G3 X59.9760 Y38.8610 Z3.0000 I-8.5964 J18.5061 F900.00
G0 X59.9760 Y38.8610 Z12.0000
G0 X65.6108 Y37.0573 Z12.0000
G1 X65.6108 Y37.0573 Z3.0000 F600.00
G3 X66.1848 Y38.6919 Z3.0000 I-27.1492 J10.4506 F900.00
G1 X63.4496 Y35.9567 Z3.0000 F900.00
G3 X60.5461 Y34.1139 Z3.0000 I18.9138 J-33.0088 F900.00
G1 X66.5578 Y40.1256 Z3.0000 F900.00
G3 X66.8002 Y41.4286 Z3.0000 I-20.9859 J4.5781 F900.00
G1 X57.1770 Y31.8055 Z3.0000 F900.00
G2 X55.3823 Y31.0714 Z3.0000 I-3.7086 J6.5065 F900.00
G1 X67.0164 Y42.7055 Z3.0000 F900.00
G1 X67.2326 Y43.9823 Z3.0000 F900.00
G1 X54.1083 Y30.8581 Z3.0000 F900.00
G2 X53.0331 Y30.8435 Z3.0000 I-0.6344 J7.1253 F900.00
G1 X67.4426 Y45.2530 Z3.0000 F900.00
G3 X67.6164 Y46.4875 Z3.0000 I-21.6415 J3.6768 F900.00
G1 X62.4419 Y41.3129 Z3.0000 F900.00
G3 X64.0492 Y43.9810 Z3.0000 I-11.3843 J8.6767 F900.00
G1 X67.7331 Y47.6649 Z3.0000 F900.00
G3 X67.7861 Y48.7785 Z3.0000 I-11.6289 J1.1116 F900.00
G1 X64.8297 Y45.8221 Z3.0000 F900.00
G3 X65.4022 Y47.4553 Z3.0000 I-23.5665 J9.1783 F900.00
G1 X67.7823 Y49.8353 Z3.0000 F900.00
G3 X67.7256 Y50.8393 Z3.0000 I-9.4976 J-0.0326 F900.00
G1 X65.9179 Y49.0316 Z3.0000 F900.00
G2 X66.4213 Y50.5957 Z3.0000 I37.3685 J-11.1651 F900.00
G2 X67.3839 Y52.3125 Z3.0000 I3.3966 J-0.7762 F900.00
G2 X67.5877 Y51.7621 Z3.0000 I-1.3684 J-0.8197 F900.00
G1 X66.4213 Y50.5957 Z3.0000 F900.00
G1 X66.4213 Y50.5957 Z2.5000 F600.00
G1 X67.5877 Y51.7621 Z2.5000 F900.00
G3 X67.3839 Y52.3125 Z2.5000 I-1.5722 J-0.2693 F900.00
G3 X66.4213 Y50.5957 Z2.5000 I2.4341 J-2.4930 F900.00
G3 X65.9179 Y49.0316 Z2.5000 I36.8651 J-12.7293 F900.00
G1 X67.7256 Y50.8393 Z2.5000 F900.00
G2 X67.7823 Y49.8353 Z2.5000 I-9.4409 J-1.0366 F900.00
G1 X65.4022 Y47.4553 Z2.5000 F900.00
G2 X64.8297 Y45.8221 Z2.5000 I-24.1391 J7.5451 F900.00
G1 X67.7861 Y48.7785 Z2.5000 F900.00
G2 X67.7331 Y47.6649 Z2.5000 I-11.6819 J-0.0021 F900.00
G1 X64.0492 Y43.9810 Z2.5000 F900.00
G2 X62.4419 Y41.3129 Z2.5000 I-12.9916 J6.0087 F900.00
G1 X67.6164 Y46.4875 Z2.5000 F900.00
G2 X67.4426 Y45.2530 Z2.5000 I-21.8153 J2.4423 F900.00
G1 X53.0331 Y30.8435 Z2.5000 F900.00
G3 X54.1083 Y30.8581 Z2.5000 I0.4409 J7.1399 F900.00
G1 X67.2326 Y43.9823 Z2.5000 F900.00
G1 X67.0164 Y42.7055 Z2.5000 F900.00
G1 X55.3823 Y31.0714 Z2.5000 F900.00
G3 X57.1770 Y31.8055 Z2.5000 I-1.9139 J7.2405 F900.00
G1 X66.8002 Y41.4286 Z2.5000 F900.00
G2 X66.5578 Y40.1256 Z2.5000 I-21.2283 J3.2750 F900.00
G1 X60.5461 Y34.1139 Z2.5000 F900.00
G2 X63.4496 Y35.9567 Z2.5000 I21.8173 J-31.1661 F900.00
G1 X66.1848 Y38.6919 Z2.5000 F900.00
G2 X65.6108 Y37.0573 Z2.5000 I-27.7231 J8.8160 F900.00
G1 X65.6108 Y37.0573 Z2.5000 F600.00
G3 X63.9099 Y36.2196 Z2.5000 I11.7161 J-25.9334 F900.00
G3 X58.2047 Y32.4739 Z2.5000 I25.9113 J-45.6856 F900.00
G2 X53.3423 Y30.8311 Z2.5000 I-4.7369 J6.0028 F900.00
G1 X52.3934 Y30.8691 Z2.5000 F900.00
G2 X49.5436 Y31.2193 Z2.5000 I2.6433 J33.2825 F900.00
G2 X43.0513 Y33.3503 Z2.5000 I1.8271 J16.5218 F900.00
G2 X35.1580 Y39.2226 Z2.5000 I25.7574 J42.8633 F900.00
G2 X33.1355 Y43.5023 Z2.5000 I4.5036 J4.7461 F900.00
G2 X33.3438 Y49.2365 Z2.5000 I28.4972 J1.8355 F900.00
G2 X34.9469 Y53.3726 Z2.5000 I9.9388 J-1.4733 F900.00
G2 X37.5974 Y57.0406 Z2.5000 I40.1653 J-26.2327 F900.00
G3 X37.6891 Y52.4624 Z2.5000 I24.1740 J-1.8062 F900.00
G2 X38.2085 Y46.3273 Z2.5000 I-49.5120 J-7.2814 F900.00
G3 X38.3968 Y43.9996 Z2.5000 I8.8492 J-0.4558 F900.00
G3 X39.2458 Y43.1205 Z2.5000 I1.1474 J0.2587 F900.00
G2 X41.6942 Y42.3895 Z2.5000 I-1.5057 J-9.5079 F900.00
G2 X45.2969 Y40.0541 Z2.5000 I-19.9432 J-34.7132 F900.00
G2 X49.0494 Y36.7545 Z2.5000 I-24.4836 J-31.6278 F900.00
G3 X50.4914 Y35.6767 Z2.5000 I4.2894 J4.2353 F900.00
G3 X53.3655 Y35.4688 Z2.5000 I1.7256 J3.8854 F900.00
G3 X56.1217 Y36.5213 Z2.5000 I-3.0573 J12.1415 F900.00
G3 X60.9810 Y39.6873 Z2.5000 I-8.5964 J18.5061 F900.00
G3 X64.6891 Y45.4478 Z2.5000 I-10.7032 J10.9635 F900.00
G3 X66.5379 Y50.9398 Z2.5000 I-110.3875 J40.2187 F900.00
G2 X67.3839 Y52.3125 Z2.5000 I3.0201 J-0.9142 F900.00
G2 X67.6398 Y51.5601 Z2.5000 I-1.6906 J-0.9946 F900.00
G2 X67.5522 Y45.9696 Z2.5000 I-19.8417 J-2.4852 F900.00
G2 X66.6951 Y40.8081 Z2.5000 I-162.2594 J24.2917 F900.00
G2 X65.6108 Y37.0573 Z2.5000 I-18.2305 J3.2380 F900.00
G0 X65.6108 Y37.0573 Z12.0000
G0 X59.9820 Y38.8531 Z12.0000
G1 X59.9820 Y38.8531 Z2.5000 F600.00
G1 X52.0320 Y30.9030 Z2.5000 F900.00
G2 X51.0769 Y31.0086 Z2.5000 I0.7494 J11.1482 F900.00
G1 X57.0880 Y37.0197 Z2.5000 F900.00
G2 X55.0418 Y36.0342 Z2.5000 I-10.3739 J18.9217 F900.00
G1 X50.1444 Y31.1368 Z2.5000 F900.00
G2 X49.2150 Y31.2680 Z2.5000 I5.7482 J44.0652 F900.00
G1 X53.4324 Y35.4855 Z2.5000 F900.00
G2 X52.2084 Y35.3221 Z2.5000 I-1.3029 J5.0947 F900.00
G1 X48.2993 Y31.4130 Z2.5000 F900.00
G2 X47.4185 Y31.5929 Z2.5000 I1.1474 J7.8667 F900.00
G1 X51.2434 Y35.4178 Z2.5000 F900.00
G2 X50.4596 Y35.6946 Z2.5000 I0.5454 J2.7925 F900.00
G1 X46.5883 Y31.8234 Z2.5000 F900.00
G2 X45.7982 Y32.0939 Z2.5000 I2.0526 J7.2850 F900.00
G1 X49.8091 Y36.1048 Z2.5000 F900.00
G2 X49.2351 Y36.5915 Z2.5000 I2.3360 J3.3372 F900.00
G1 X45.0377 Y32.3941 Z2.5000 F900.00
G2 X44.3022 Y32.7192 Z2.5000 I3.4078 J8.7046 F900.00
G1 X48.6848 Y37.1018 Z2.5000 F900.00
G1 X48.1415 Y37.6192 Z2.5000 F900.00
G1 X43.5898 Y33.0675 Z2.5000 F900.00
G2 X42.9001 Y33.4384 Z2.5000 I3.8463 J7.9795 F900.00
G1 X47.5868 Y38.1251 Z2.5000 F900.00
G1 X47.0258 Y38.6248 Z2.5000 F900.00
G1 X42.2317 Y33.8307 Z2.5000 F900.00
G1 X41.5828 Y34.2424 Z2.5000 F900.00
G1 X46.4586 Y39.1183 Z2.5000 F900.00
G3 X45.8779 Y39.5982 Z2.5000 I-8.2521 J-9.3943 F900.00
G1 X40.9492 Y34.6695 Z2.5000 F900.00
G2 X40.3261 Y35.1071 Z2.5000 I9.4664 J14.1424 F900.00
G1 X45.2831 Y40.0641 Z2.5000 F900.00
G1 X44.6670 Y40.5087 Z2.5000 F900.00
G1 X39.7122 Y35.5538 Z2.5000 F900.00
G1 X39.1030 Y36.0052 Z2.5000 F900.00
G1 X44.0336 Y40.9359 Z2.5000 F900.00
G3 X43.3905 Y41.3535 Z2.5000 I-11.9877 J-17.7552 F900.00
G1 X38.4958 Y36.4588 Z2.5000 F900.00
G1 X37.8990 Y36.9226 Z2.5000 F900.00
G1 X42.7461 Y41.7697 Z2.5000 F900.00
G3 X42.0831 Y42.1673 Z2.5000 I-3.9745 J-5.8754 F900.00
G1 X37.3022 Y37.3864 Z2.5000 F900.00
G2 X36.7148 Y37.8598 Z2.5000 I10.0618 J13.0858 F900.00
G1 X41.3892 Y42.5342 Z2.5000 F900.00
G3 X40.6107 Y42.8163 Z2.5000 I-2.0366 J-4.4038 F900.00
G1 X36.1371 Y38.3427 Z2.5000 F900.00
G2 X35.5728 Y38.8390 Z2.5000 I5.7806 J7.1409 F900.00
G1 X39.7495 Y43.0158 Z2.5000 F900.00
G2 X38.9295 Y43.2564 Z2.5000 I0.1795 J2.1292 F900.00
G1 X35.0284 Y39.3553 Z2.5000 F900.00
G2 X34.5266 Y39.9141 Z2.5000 I3.4090 J3.5661 F900.00
G1 X38.4538 Y43.8413 Z2.5000 F900.00
G2 X38.2708 Y44.7190 Z2.5000 I3.0730 J1.0985 F900.00
G1 X34.0859 Y40.5342 Z2.5000 F900.00
G2 X33.7220 Y41.2309 Z2.5000 I3.4942 J2.2685 F900.00
G1 X38.2208 Y45.7296 Z2.5000 F900.00
G3 X38.1929 Y46.7625 Z2.5000 I-33.9176 J-0.3972 F900.00
G1 X33.4362 Y42.0058 Z2.5000 F900.00
G2 X33.2300 Y42.8602 Z2.5000 I5.6090 J1.8058 F900.00
G1 X38.1563 Y47.7865 Z2.5000 F900.00
G3 X38.0926 Y48.7834 Z2.5000 I-16.4503 J-0.5509 F900.00
G1 X33.1143 Y43.8052 Z2.5000 F900.00
G2 X33.0708 Y44.8224 Z2.5000 I9.0997 J0.8988 F900.00
G1 X38.0131 Y49.7646 Z2.5000 F900.00
G1 X37.9120 Y50.7242 Z2.5000 F900.00
G1 X33.0818 Y45.8940 Z2.5000 F900.00
G2 X33.1434 Y47.0162 Z2.5000 I15.2698 J-0.2748 F900.00
G1 X37.7935 Y51.6664 Z2.5000 F900.00
G2 X37.6742 Y52.6077 Z2.5000 I16.4538 J2.5637 F900.00
G1 X33.2247 Y48.1582 Z2.5000 F900.00
G2 X33.3654 Y49.3596 Z2.5000 I9.5062 J-0.5045 F900.00
G1 X37.5879 Y53.5821 Z2.5000 F900.00
G2 X37.5440 Y54.5988 Z2.5000 I14.5805 J1.1393 F900.00
G1 X33.6777 Y50.7325 Z2.5000 F900.00
G2 X34.5119 Y52.6274 Z2.5000 I9.9232 J-3.2377 F900.00
G1 X37.5412 Y55.6567 Z2.5000 F900.00
G1 X37.5861 Y56.7623 Z2.5000 F900.00
G1 X36.7861 Y55.9622 Z2.5000 F900.00
G1 X37.5974 Y57.0406 Z2.5000 F900.00
G1 X37.5861 Y56.7623 Z2.5000 F900.00
G0 Z12.0000
G0 X61.7277 Y64.4113
G0 Z10.0000
G1 X61.7277 Y64.4113 Z3.5000 F600.00
G1 X62.9191 Y62.4874 Z3.5000 F900.00
G2 X65.0736 Y58.8407 Z3.5000 I-78.7946 J-49.0103 F900.00
G2 X65.4742 Y57.9875 Z3.5000 I-4.8657 J-2.8053 F900.00
G2 X65.1960 Y54.2808 Z3.5000 I-14.0400 J-0.8099 F900.00
G2 X63.7648 Y51.3108 Z3.5000 I-6.0820 J1.1009 F900.00
G3 X64.1184 Y54.7406 Z3.5000 I-49.4860 J6.8342 F900.00
G3 X63.2022 Y58.1007 Z3.5000 I-4.8676 J0.4777 F900.00
G3 X59.3847 Y60.6784 Z3.5000 I-5.8979 J-4.6189 F900.00
G3 X55.0753 Y61.3460 Z3.5000 I-5.5050 J-21.2930 F900.00
G3 X50.1796 Y60.6676 Z3.5000 I-1.0419 J-10.4849 F900.00
G3 X45.1374 Y56.3731 Z3.5000 I3.3077 J-8.9907 F900.00
G3 X44.2462 Y50.9513 Z3.5000 I9.4687 J-4.3406 F900.00
G2 X42.4884 Y51.3853 Z3.5000 I0.2164 J4.6534 F900.00
G2 X40.7882 Y52.8378 Z3.5000 I1.3992 J3.3592 F900.00
G2 X40.2693 Y55.5708 Z3.5000 I4.0742 J2.1892 F900.00
G2 X41.4760 Y60.7729 Z3.5000 I24.3785 J-2.9136 F900.00
G2 X42.1404 Y62.0389 Z3.5000 I2.9202 J-0.7253 F900.00
G2 X44.7067 Y63.7158 Z3.5000 I6.5054 J-7.1534 F900.00
G2 X46.9477 Y64.4001 Z3.5000 I4.4501 J-10.5624 F900.00
G3 X49.3137 Y65.3258 Z3.5000 I-1.4243 J7.1265 F900.00
G3 X50.2004 Y66.0211 Z3.5000 I-8.3027 J11.5011 F900.00
G2 X52.7079 Y66.7242 Z3.5000 I2.7121 J-4.8499 F900.00
G2 X57.7773 Y66.5234 Z3.5000 I1.4996 J-26.2297 F900.00
G2 X60.7681 Y65.9609 Z3.5000 I-0.9339 J-13.1976 F900.00
G1 X61.7277 Y64.4113 Z3.5000 F900.00
G0 X61.7277 Y64.4113 Z12.0000
G0 X55.8165 Y66.6971 Z12.0000
G1 X55.8165 Y66.6971 Z3.5000 F600.00
G1 X49.4867 Y60.3672 Z3.5000 F900.00
G2 X51.1857 Y61.0056 Z3.5000 I4.5788 J-9.6059 F900.00
G1 X56.8000 Y66.6199 Z3.5000 F900.00
G1 X57.7653 Y66.5245 Z3.5000 F900.00
G1 X52.5254 Y61.2846 Z3.5000 F900.00
G2 X53.6796 Y61.3781 Z3.5000 I1.2448 J-8.1941 F900.00
G1 X58.7082 Y66.4068 Z3.5000 F900.00
G2 X59.6251 Y66.2630 Z3.5000 I-1.3690 J-11.7294 F900.00
G1 X54.7212 Y61.3591 Z3.5000 F900.00
G2 X55.7099 Y61.2871 Z3.5000 I-0.1348 J-8.6821 F900.00
G1 X60.4833 Y66.0605 Z3.5000 F900.00
G1 X60.7681 Y65.9609 Z3.5000 F900.00
G1 X61.0267 Y65.5432 Z3.5000 F900.00
G1 X56.6622 Y61.1788 Z3.5000 F900.00
G2 X57.5894 Y61.0453 Z3.5000 I-1.7609 J-15.5219 F900.00
G1 X61.4323 Y64.8882 Z3.5000 F900.00
G1 X61.8380 Y64.2332 Z3.5000 F900.00
G1 X58.4947 Y60.8900 Z3.5000 F900.00
G2 X59.3523 Y60.6868 Z3.5000 I-1.6301 J-8.7940 F900.00
G1 X62.2436 Y63.5782 Z3.5000 F900.00
G1 X62.6493 Y62.9232 Z3.5000 F900.00
G1 X60.1382 Y60.4122 Z3.5000 F900.00
G2 X60.8586 Y60.0718 Z3.5000 I-1.8486 J-4.8453 F900.00
G1 X63.0531 Y62.2664 Z3.5000 F900.00
G1 X63.4535 Y61.6061 Z3.5000 F900.00
G1 X61.5199 Y59.6725 Z3.5000 F900.00
G2 X62.1256 Y59.2176 Z3.5000 I-2.8316 J-4.4001 F900.00
G1 X63.8538 Y60.9457 Z3.5000 F900.00
G2 X64.2499 Y60.2811 Z3.5000 I-25.5294 J-15.6657 F900.00
G1 X62.6795 Y58.7107 Z3.5000 F900.00
G2 X63.1718 Y58.1424 Z3.5000 I-2.6740 J-2.8141 F900.00
G1 X64.6405 Y59.6111 Z3.5000 F900.00
G1 X65.0222 Y58.9321 Z3.5000 F900.00
G1 X63.5785 Y57.4884 Z3.5000 F900.00
G2 X63.8921 Y56.7414 Z3.5000 I-2.8383 J-1.6309 F900.00
G1 X65.3808 Y58.2301 Z3.5000 F900.00
G2 X65.5030 Y57.2916 Z3.5000 I-1.3252 J-0.6498 F900.00
G1 X64.0888 Y55.8774 Z3.5000 F900.00
G2 X64.1206 Y54.8486 Z3.5000 I-6.4550 J-0.7145 F900.00
G1 X65.4540 Y56.1820 Z3.5000 F900.00
G2 X65.3253 Y54.9926 Z3.5000 I-14.0545 J0.9194 F900.00
G1 X64.0454 Y53.7127 Z3.5000 F900.00
G2 X63.9088 Y52.5155 Z3.5000 I-14.2885 J1.0238 F900.00
G1 X65.0312 Y53.6378 Z3.5000 F900.00
G2 X63.7648 Y51.3108 Z3.5000 I-5.6457 J1.5643 F900.00
G0 X63.7648 Y51.3108 Z12.0000
G0 X43.3774 Y51.0760 Z12.0000
G1 X43.3774 Y51.0760 Z3.5000 F600.00
G3 X44.2462 Y50.9513 Z3.5000 I1.2115 J5.3513 F900.00
G2 X44.1760 Y51.8746 Z3.5000 I5.9758 J0.9187 F900.00
G1 X43.3774 Y51.0760 Z3.5000 F900.00
G2 X42.5857 Y51.3449 Z3.5000 I0.7751 J3.5821 F900.00
G1 X44.2323 Y52.9915 Z3.5000 F900.00
G2 X44.4218 Y54.2417 Z3.5000 I12.6572 J-1.2795 F900.00
G1 X41.8951 Y51.7150 Z3.5000 F900.00
G2 X41.2987 Y52.1792 Z3.5000 I0.8746 J1.7389 F900.00
G1 X44.8517 Y55.7322 Z3.5000 F900.00
G2 X48.1905 Y59.6479 Z3.5000 I7.8889 J-3.3453 F900.00
G2 X49.4867 Y60.3672 Z3.5000 I5.3089 J-8.0394 F900.00
G1 X55.8165 Y66.6971 Z3.5000 F900.00
G3 X54.8077 Y66.7489 Z3.5000 I-1.2797 J-15.0718 F900.00
G1 X40.8322 Y52.7734 Z3.5000 F900.00
G2 X40.4915 Y53.4933 Z3.5000 I2.2268 J1.4945 F900.00
G1 X53.7597 Y66.7616 Z3.5000 F900.00
G3 X52.6558 Y66.7183 Z3.5000 I-0.2679 J-7.2763 F900.00
G1 X40.2980 Y54.3605 Z3.5000 F900.00
G2 X40.2631 Y55.3863 Z3.5000 I5.3048 J0.6938 F900.00
G1 X51.3758 Y66.4990 Z3.5000 F900.00
G3 X49.7778 Y65.7035 Z3.5000 I0.7462 J-3.5017 F900.00
G2 X48.8710 Y65.0548 Z3.5000 I-2.5692 J2.6335 F900.00
G1 X40.3898 Y56.5737 Z3.5000 F900.00
G2 X40.6763 Y57.9208 Z3.5000 I15.9489 J-2.6877 F900.00
G1 X47.2324 Y64.4769 Z3.5000 F900.00
G2 X45.7930 Y64.0982 Z3.5000 I-25.1220 J92.5462 F900.00
G1 X41.0468 Y59.3520 Z3.5000 F900.00
G2 X41.5184 Y60.8842 Z3.5000 I10.9727 J-2.5383 F900.00
G2 X42.1404 Y62.0389 Z3.5000 I2.7372 J-0.7295 F900.00
G2 X43.9805 Y63.3463 Z3.5000 I5.4031 J-5.6562 F900.00
G1 X41.5184 Y60.8842 Z3.5000 F900.00
G1 X41.5184 Y60.8842 Z3.0000 F600.00
G1 X43.9805 Y63.3463 Z3.0000 F900.00
G3 X42.1404 Y62.0389 Z3.0000 I3.5631 J-6.9635 F900.00
G3 X41.5184 Y60.8842 Z3.0000 I2.1152 J-1.8842 F900.00
G3 X41.0468 Y59.3520 Z3.0000 I10.5011 J-4.0706 F900.00
G1 X45.7930 Y64.0982 Z3.0000 F900.00
G3 X47.2324 Y64.4769 Z3.0000 I-23.6826 J92.9250 F900.00
G1 X40.6763 Y57.9208 Z3.0000 F900.00
G3 X40.3898 Y56.5737 Z3.0000 I15.6624 J-4.0349 F900.00
G1 X48.8710 Y65.0548 Z3.0000 F900.00
G3 X49.7778 Y65.7035 Z3.0000 I-1.6624 J3.2822 F900.00
G2 X51.3758 Y66.4990 Z3.0000 I2.3442 J-2.7063 F900.00
G1 X40.2631 Y55.3863 Z3.0000 F900.00
G3 X40.2980 Y54.3605 Z3.0000 I5.3397 J-0.3319 F900.00
G1 X52.6558 Y66.7183 Z3.0000 F900.00
G2 X53.7597 Y66.7616 Z3.0000 I0.8360 J-7.2330 F900.00
G1 X40.4915 Y53.4933 Z3.0000 F900.00
G3 X40.8322 Y52.7734 Z3.0000 I2.5675 J0.7746 F900.00
G1 X54.8077 Y66.7489 Z3.0000 F900.00
G2 X55.8165 Y66.6971 Z3.0000 I-0.2708 J-15.1236 F900.00
G1 X49.4867 Y60.3672 Z3.0000 F900.00
G3 X48.1905 Y59.6479 Z3.0000 I4.0127 J-8.7586 F900.00
G3 X44.8517 Y55.7322 Z3.0000 I4.5501 J-7.2610 F900.00
G1 X41.2987 Y52.1792 Z3.0000 F900.00
G3 X41.8951 Y51.7150 Z3.0000 I1.4710 J1.2747 F900.00
G1 X44.4218 Y54.2417 Z3.0000 F900.00
G3 X44.2323 Y52.9915 Z3.0000 I12.4676 J-2.5297 F900.00
G1 X42.5857 Y51.3449 Z3.0000 F900.00
G3 X43.3774 Y51.0760 Z3.0000 I1.5668 J3.3131 F900.00
G1 X44.1760 Y51.8746 Z3.0000 F900.00
G3 X44.2462 Y50.9513 Z3.0000 I6.0461 J-0.0046 F900.00
G2 X43.3774 Y51.0760 Z3.0000 I0.3427 J5.4760 F900.00
G0 X43.3774 Y51.0760 Z12.0000
G0 X43.3771 Y51.0745 Z12.0000
G1 X43.3771 Y51.0745 Z3.0000 F600.00
G2 X42.4884 Y51.3853 Z3.0000 I1.0856 J4.5302 F900.00
G2 X40.7882 Y52.8378 Z3.0000 I1.3992 J3.3592 F900.00
G2 X40.2693 Y55.5708 Z3.0000 I4.0742 J2.1892 F900.00
G2 X41.4760 Y60.7729 Z3.0000 I24.3785 J-2.9136 F900.00
G2 X42.1404 Y62.0389 Z3.0000 I2.9202 J-0.7253 F900.00
G2 X44.7067 Y63.7158 Z3.0000 I6.5054 J-7.1534 F900.00
G2 X46.9477 Y64.4001 Z3.0000 I4.4501 J-10.5624 F900.00
G3 X49.3137 Y65.3258 Z3.0000 I-1.4243 J7.1265 F900.00
G3 X50.2004 Y66.0211 Z3.0000 I-8.3027 J11.5011 F900.00
G2 X52.7079 Y66.7242 Z3.0000 I2.7121 J-4.8499 F900.00
G2 X57.7773 Y66.5234 Z3.0000 I1.4996 J-26.2297 F900.00
G2 X60.7681 Y65.9609 Z3.0000 I-0.9339 J-13.1976 F900.00
G1 X62.9191 Y62.4874 Z3.0000 F900.00
G2 X65.0736 Y58.8407 Z3.0000 I-78.7946 J-49.0103 F900.00
G2 X65.4742 Y57.9875 Z3.0000 I-4.8657 J-2.8053 F900.00
G2 X65.1960 Y54.2808 Z3.0000 I-14.0400 J-0.8099 F900.00
G2 X63.7648 Y51.3108 Z3.0000 I-6.0820 J1.1009 F900.00
G3 X64.1184 Y54.7406 Z3.0000 I-49.4860 J6.8342 F900.00
G3 X63.2022 Y58.1007 Z3.0000 I-4.8676 J0.4777 F900.00
G3 X59.3847 Y60.6784 Z3.0000 I-5.8979 J-4.6189 F900.00
G3 X55.0753 Y61.3460 Z3.0000 I-5.5050 J-21.2930 F900.00
G3 X50.1796 Y60.6676 Z3.0000 I-1.0419 J-10.4849 F900.00
G3 X45.1374 Y56.3731 Z3.0000 I3.3077 J-8.9907 F900.00
G3 X44.2462 Y50.9513 Z3.0000 I9.4687 J-4.3406 F900.00
G2 X43.3771 Y51.0745 Z3.0000 I0.2164 J4.6534 F900.00
G0 X43.3771 Y51.0745 Z12.0000
G0 X55.8165 Y66.6971 Z12.0000
G1 X55.8165 Y66.6971 Z3.0000 F600.00
G1 X49.4867 Y60.3672 Z3.0000 F900.00
G2 X51.1857 Y61.0056 Z3.0000 I4.5788 J-9.6059 F900.00
G1 X56.8000 Y66.6199 Z3.0000 F900.00
G1 X57.7653 Y66.5245 Z3.0000 F900.00
G1 X52.5254 Y61.2846 Z3.0000 F900.00
G2 X53.6796 Y61.3781 Z3.0000 I1.2448 J-8.1941 F900.00
G1 X58.7082 Y66.4068 Z3.0000 F900.00
G2 X59.6251 Y66.2630 Z3.0000 I-1.3690 J-11.7294 F900.00
G1 X54.7212 Y61.3591 Z3.0000 F900.00
G2 X55.7099 Y61.2871 Z3.0000 I-0.1348 J-8.6821 F900.00
G1 X60.4833 Y66.0605 Z3.0000 F900.00
G1 X60.7681 Y65.9609 Z3.0000 F900.00
G1 X61.0267 Y65.5432 Z3.0000 F900.00
G1 X56.6622 Y61.1788 Z3.0000 F900.00
G2 X57.5894 Y61.0453 Z3.0000 I-1.7609 J-15.5219 F900.00
G1 X61.4323 Y64.8882 Z3.0000 F900.00
G1 X61.8380 Y64.2332 Z3.0000 F900.00
G1 X58.4947 Y60.8900 Z3.0000 F900.00
G2 X59.3523 Y60.6868 Z3.0000 I-1.6301 J-8.7940 F900.00
G1 X62.2436 Y63.5782 Z3.0000 F900.00
G1 X62.6493 Y62.9232 Z3.0000 F900.00
G1 X60.1382 Y60.4122 Z3.0000 F900.00
G2 X60.8586 Y60.0718 Z3.0000 I-1.8486 J-4.8453 F900.00
G1 X63.0531 Y62.2664 Z3.0000 F900.00
G1 X63.4535 Y61.6061 Z3.0000 F900.00
G1 X61.5199 Y59.6725 Z3.0000 F900.00
G2 X62.1256 Y59.2176 Z3.0000 I-2.8316 J-4.4001 F900.00
G1 X63.8538 Y60.9457 Z3.0000 F900.00
G2 X64.2499 Y60.2811 Z3.0000 I-25.5294 J-15.6657 F900.00
G1 X62.6795 Y58.7107 Z3.0000 F900.00
G2 X63.1718 Y58.1424 Z3.0000 I-2.6740 J-2.8141 F900.00
G1 X64.6405 Y59.6111 Z3.0000 F900.00
G1 X65.0222 Y58.9321 Z3.0000 F900.00
G1 X63.5785 Y57.4884 Z3.0000 F900.00
G2 X63.8921 Y56.7414 Z3.0000 I-2.8383 J-1.6309 F900.00
G1 X65.3808 Y58.2301 Z3.0000 F900.00
G2 X65.5030 Y57.2916 Z3.0000 I-1.3252 J-0.6498 F900.00
G1 X64.0888 Y55.8774 Z3.0000 F900.00
G2 X64.1206 Y54.8486 Z3.0000 I-6.4550 J-0.7145 F900.00
G1 X65.4540 Y56.1820 Z3.0000 F900.00
G2 X65.3253 Y54.9926 Z3.0000 I-14.0545 J0.9194 F900.00
G1 X64.0454 Y53.7127 Z3.0000 F900.00
G2 X63.9088 Y52.5155 Z3.0000 I-14.2885 J1.0238 F900.00
G1 X65.0312 Y53.6378 Z3.0000 F900.00
G2 X63.7648 Y51.3108 Z3.0000 I-5.6457 J1.5643 F900.00
G1 X63.7648 Y51.3108 Z2.5000 F600.00
G3 X65.0312 Y53.6378 Z2.5000 I-4.3794 J3.8913 F900.00
G1 X63.9088 Y52.5155 Z2.5000 F900.00
G3 X64.0454 Y53.7127 Z2.5000 I-14.1519 J2.2210 F900.00
G1 X65.3253 Y54.9926 Z2.5000 F900.00
G3 X65.4540 Y56.1820 Z2.5000 I-13.9258 J2.1088 F900.00
G1 X64.1206 Y54.8486 Z2.5000 F900.00
G3 X64.0888 Y55.8774 Z2.5000 I-6.4868 J0.3144 F900.00
G1 X65.5030 Y57.2916 Z2.5000 F900.00
G3 X65.3808 Y58.2301 Z2.5000 I-1.4474 J0.2887 F900.00
G1 X63.8921 Y56.7414 Z2.5000 F900.00
G3 X63.5785 Y57.4884 Z2.5000 I-3.1519 J-0.8838 F900.00
G1 X65.0222 Y58.9321 Z2.5000 F900.00
G1 X64.6405 Y59.6111 Z2.5000 F900.00
G1 X63.1718 Y58.1424 Z2.5000 F900.00
G3 X62.6795 Y58.7107 Z2.5000 I-3.1663 J-2.2458 F900.00
G1 X64.2499 Y60.2811 Z2.5000 F900.00
G3 X63.8538 Y60.9457 Z2.5000 I-25.9255 J-15.0011 F900.00
G1 X62.1256 Y59.2176 Z2.5000 F900.00
G3 X61.5199 Y59.6725 Z2.5000 I-3.4373 J-3.9451 F900.00
G1 X63.4535 Y61.6061 Z2.5000 F900.00
G1 X63.0531 Y62.2664 Z2.5000 F900.00
G1 X60.8586 Y60.0718 Z2.5000 F900.00
G3 X60.1382 Y60.4122 Z2.5000 I-2.5690 J-4.5050 F900.00
G1 X62.6493 Y62.9232 Z2.5000 F900.00
G1 X62.2436 Y63.5782 Z2.5000 F900.00
G1 X59.3523 Y60.6868 Z2.5000 F900.00
G3 X58.4947 Y60.8900 Z2.5000 I-2.4876 J-8.5909 F900.00
G1 X61.8380 Y64.2332 Z2.5000 F900.00
G1 X61.4323 Y64.8882 Z2.5000 F900.00
G1 X57.5894 Y61.0453 Z2.5000 F900.00
G3 X56.6622 Y61.1788 Z2.5000 I-2.6881 J-15.3885 F900.00
G1 X61.0267 Y65.5432 Z2.5000 F900.00
G1 X60.7681 Y65.9609 Z2.5000 F900.00
G1 X60.4833 Y66.0605 Z2.5000 F900.00
G1 X55.7099 Y61.2871 Z2.5000 F900.00
G3 X54.7212 Y61.3591 Z2.5000 I-1.1236 J-8.6102 F900.00
G1 X59.6251 Y66.2630 Z2.5000 F900.00
G3 X58.7082 Y66.4068 Z2.5000 I-2.2859 J-11.5856 F900.00
G1 X53.6796 Y61.3781 Z2.5000 F900.00
G3 X52.5254 Y61.2846 Z2.5000 I0.0907 J-8.2876 F900.00
G1 X57.7653 Y66.5245 Z2.5000 F900.00
G1 X56.8000 Y66.6199 Z2.5000 F900.00
G1 X51.1857 Y61.0056 Z2.5000 F900.00
G3 X49.4867 Y60.3672 Z2.5000 I2.8797 J-10.2443 F900.00
G1 X55.8165 Y66.6971 Z2.5000 F900.00
G0 X55.8165 Y66.6971 Z12.0000
G0 X55.8178 Y66.7176 Z12.0000
G1 X55.8178 Y66.7176 Z2.5000 F600.00
G2 X57.7773 Y66.5234 Z2.5000 I-1.6102 J-26.2231 F900.00
G2 X60.7681 Y65.9609 Z2.5000 I-0.9339 J-13.1976 F900.00
G1 X62.9191 Y62.4874 Z2.5000 F900.00
G2 X65.0736 Y58.8407 Z2.5000 I-78.7946 J-49.0103 F900.00
G2 X65.4742 Y57.9875 Z2.5000 I-4.8657 J-2.8053 F900.00
G2 X65.1960 Y54.2808 Z2.5000 I-14.0400 J-0.8099 F900.00
G2 X63.7648 Y51.3108 Z2.5000 I-6.0820 J1.1009 F900.00
G3 X64.1184 Y54.7406 Z2.5000 I-49.4860 J6.8342 F900.00
G3 X63.2022 Y58.1007 Z2.5000 I-4.8676 J0.4777 F900.00
G3 X59.3847 Y60.6784 Z2.5000 I-5.8979 J-4.6189 F900.00
G3 X55.0753 Y61.3460 Z2.5000 I-5.5050 J-21.2930 F900.00
G3 X50.1796 Y60.6676 Z2.5000 I-1.0419 J-10.4849 F900.00
G3 X45.1374 Y56.3731 Z2.5000 I3.3077 J-8.9907 F900.00
G3 X44.2462 Y50.9513 Z2.5000 I9.4687 J-4.3406 F900.00
G2 X42.4884 Y51.3853 Z2.5000 I0.2164 J4.6534 F900.00
G2 X40.7882 Y52.8378 Z2.5000 I1.3992 J3.3592 F900.00
G2 X40.2693 Y55.5708 Z2.5000 I4.0742 J2.1892 F900.00
G2 X41.4760 Y60.7729 Z2.5000 I24.3785 J-2.9136 F900.00
G2 X42.1404 Y62.0389 Z2.5000 I2.9202 J-0.7253 F900.00
G2 X44.7067 Y63.7158 Z2.5000 I6.5054 J-7.1534 F900.00
G2 X46.9477 Y64.4001 Z2.5000 I4.4501 J-10.5624 F900.00
G3 X49.3137 Y65.3258 Z2.5000 I-1.4243 J7.1265 F900.00
G3 X50.2004 Y66.0211 Z2.5000 I-8.3027 J11.5011 F900.00
G2 X52.7079 Y66.7242 Z2.5000 I2.7121 J-4.8499 F900.00
G2 X55.8178 Y66.7176 Z2.5000 I1.4996 J-26.2297 F900.00
G0 X55.8178 Y66.7176 Z12.0000
G0 X41.5184 Y60.8842 Z12.0000
G1 X41.5184 Y60.8842 Z2.5000 F600.00
G1 X43.9805 Y63.3463 Z2.5000 F900.00
G3 X42.1404 Y62.0389 Z2.5000 I3.5631 J-6.9635 F900.00
G3 X41.5184 Y60.8842 Z2.5000 I2.1152 J-1.8842 F900.00
G3 X41.0468 Y59.3520 Z2.5000 I10.5011 J-4.0706 F900.00
G1 X45.7930 Y64.0982 Z2.5000 F900.00
G3 X47.2324 Y64.4769 Z2.5000 I-23.6826 J92.9250 F900.00
G1 X40.6763 Y57.9208 Z2.5000 F900.00
G3 X40.3898 Y56.5737 Z2.5000 I15.6624 J-4.0349 F900.00
G1 X48.8710 Y65.0548 Z2.5000 F900.00
G3 X49.7778 Y65.7035 Z2.5000 I-1.6624 J3.2822 F900.00
G2 X51.3758 Y66.4990 Z2.5000 I2.3442 J-2.7063 F900.00
G1 X40.2631 Y55.3863 Z2.5000 F900.00
G3 X40.2980 Y54.3605 Z2.5000 I5.3397 J-0.3319 F900.00
G1 X52.6558 Y66.7183 Z2.5000 F900.00
G2 X53.7597 Y66.7616 Z2.5000 I0.8360 J-7.2330 F900.00
G1 X40.4915 Y53.4933 Z2.5000 F900.00
G3 X40.8322 Y52.7734 Z2.5000 I2.5675 J0.7746 F900.00
G1 X54.8077 Y66.7489 Z2.5000 F900.00
G2 X55.8165 Y66.6971 Z2.5000 I-0.2708 J-15.1236 F900.00
G1 X49.4867 Y60.3672 Z2.5000 F900.00
G3 X48.1905 Y59.6479 Z2.5000 I4.0127 J-8.7586 F900.00
G3 X44.8517 Y55.7322 Z2.5000 I4.5501 J-7.2610 F900.00
G1 X41.2987 Y52.1792 Z2.5000 F900.00
G3 X41.8951 Y51.7150 Z2.5000 I1.4710 J1.2747 F900.00
G1 X44.4218 Y54.2417 Z2.5000 F900.00
G3 X44.2323 Y52.9915 Z2.5000 I12.4676 J-2.5297 F900.00
G1 X42.5857 Y51.3449 Z2.5000 F900.00
G3 X43.3774 Y51.0760 Z2.5000 I1.5668 J3.3131 F900.00
G1 X44.1760 Y51.8746 Z2.5000 F900.00
G3 X44.2462 Y50.9513 Z2.5000 I6.0461 J-0.0046 F900.00
G2 X43.3774 Y51.0760 Z2.5000 I0.3427 J5.4760 F900.00
G0 Z12.0000
G0 X68.7129 Y70.8263
G0 Z10.0000
G1 X68.7129 Y70.8263 Z3.5000 F600.00
G2 X69.7526 Y68.3338 Z3.5000 I-13.4641 J-7.0797 F900.00
G3 X70.2751 Y65.9123 Z3.5000 I180.7598 J37.7342 F900.00
G2 X71.1548 Y61.9326 Z3.5000 I-41.7882 J-11.3248 F900.00
G3 X73.0100 Y57.2428 Z3.5000 I10.3525 J1.3833 F900.00
G2 X74.5124 Y54.8629 Z3.5000 I-7.6420 J-6.4882 F900.00
G1 X74.1910 Y51.9036 Z3.5000 F900.00
G3 X74.0044 Y48.1078 Z3.5000 I23.5774 J-3.0619 F900.00
G3 X73.4398 Y47.1612 Z3.5000 I4.7282 J-3.4614 F900.00
G3 X72.3199 Y43.6288 Z3.5000 I20.9188 J-8.5761 F900.00
G2 X71.4196 Y41.1031 Z3.5000 I-11.1827 J2.5627 F900.00
G2 X68.8059 Y38.5018 Z3.5000 I-6.9926 J4.4120 F900.00
G3 X70.0533 Y42.6269 Z3.5000 I-24.9319 J9.7903 F900.00
G3 X70.6216 Y47.6095 Z3.5000 I-184.5224 J23.5675 F900.00
G3 X71.1050 Y51.3991 Z3.5000 I-18.7069 J4.3123 F900.00
G3 X69.9092 Y55.1204 Z3.5000 I-5.6709 J0.2304 F900.00
G2 X68.6529 Y57.1428 Z3.5000 I7.7710 J6.2285 F900.00
G3 X63.4365 Y66.3381 Z3.5000 I-53.6056 J-24.3326 F900.00
G3 X57.7028 Y73.0114 Z3.5000 I-29.7023 J-19.7205 F900.00
G3 X59.1313 Y73.0970 Z3.5000 I0.2867 J7.1746 F900.00
G3 X62.1797 Y73.6501 Z3.5000 I-11.6206 J72.7260 F900.00
G2 X65.0839 Y73.8354 Z3.5000 I2.1070 J-10.1725 F900.00
G2 X68.3996 Y71.3925 Z3.5000 I-0.7110 J-4.4366 F900.00
G2 X68.7129 Y70.8263 Z3.5000 I-13.1509 J-7.6458 F900.00
G0 X68.7129 Y70.8263 Z12.0000
G0 X58.0029 Y73.0065 Z12.0000
G1 X58.0029 Y73.0065 Z3.5000 F600.00
G1 X57.8636 Y72.8672 Z3.5000 F900.00
G1 X57.7028 Y73.0114 Z3.5000 F900.00
G1 X58.0029 Y73.0065 Z3.5000 F900.00
G3 X59.1579 Y73.1008 Z3.5000 I-0.1331 J8.7524 F900.00
G1 X58.4205 Y72.3634 Z3.5000 F900.00
G1 X58.9544 Y71.8366 Z3.5000 F900.00
G1 X60.4392 Y73.3215 Z3.5000 F900.00
G1 X61.7467 Y73.5683 Z3.5000 F900.00
G1 X59.4798 Y71.3014 Z3.5000 F900.00
G1 X59.9906 Y70.7516 Z3.5000 F900.00
G1 X63.0121 Y73.7731 Z3.5000 F900.00
G2 X64.1755 Y73.8758 Z3.5000 I1.4688 J-9.9986 F900.00
G1 X60.4876 Y70.1879 Z3.5000 F900.00
G1 X60.9766 Y69.6163 Z3.5000 F900.00
G1 X65.1773 Y73.8169 Z3.5000 F900.00
G2 X66.0021 Y73.5811 Z3.5000 I-0.4618 J-3.1754 F900.00
G1 X61.4480 Y69.0270 Z3.5000 F900.00
G2 X61.9153 Y68.4336 Z3.5000 I-9.9572 J-8.3238 F900.00
G1 X66.7084 Y73.2267 Z3.5000 F900.00
G2 X67.3332 Y72.7908 Z3.5000 I-2.2434 J-3.8812 F900.00
G1 X62.3685 Y67.8261 Z3.5000 F900.00
G2 X62.8169 Y67.2139 Z3.5000 I-12.1266 J-9.3504 F900.00
G1 X67.8592 Y72.2562 Z3.5000 F900.00
G2 X68.2778 Y71.6142 Z3.5000 I-2.0892 J-1.8197 F900.00
G1 X63.2564 Y66.5928 Z3.5000 F900.00
G2 X63.6886 Y65.9643 Z3.5000 I-13.8317 J-9.9751 F900.00
G1 X68.6417 Y70.9174 Z3.5000 F900.00
G2 X68.9952 Y70.2102 Z3.5000 I-20.2701 J-10.5735 F900.00
G1 X64.1159 Y65.3309 Z3.5000 F900.00
G2 X64.5329 Y64.6873 Z3.5000 I-14.8542 J-10.0823 F900.00
G1 X69.3371 Y69.4914 Z3.5000 F900.00
G2 X69.6341 Y68.7278 Z3.5000 I-6.4286 J-2.9401 F900.00
G1 X64.9468 Y64.0405 Z3.5000 F900.00
G1 X65.3498 Y63.3828 Z3.5000 F900.00
G1 X69.8601 Y67.8932 Z3.5000 F900.00
G2 X70.0441 Y67.0165 Z3.5000 I-13.1026 J-3.2068 F900.00
G1 X65.7481 Y62.7205 Z3.5000 F900.00
G1 X66.1387 Y62.0504 Z3.5000 F900.00
G1 X70.2275 Y66.1392 Z3.5000 F900.00
G3 X70.4302 Y65.2812 Z3.5000 I12.5542 J2.5128 F900.00
G1 X66.5210 Y61.3721 Z3.5000 F900.00
G1 X66.8990 Y60.6894 Z3.5000 F900.00
G1 X70.6394 Y64.4298 Z3.5000 F900.00
G2 X70.8401 Y63.5698 Z3.5000 I-14.7822 J-3.9023 F900.00
G1 X67.2639 Y59.9936 Z3.5000 F900.00
G2 X67.6231 Y59.2922 Z3.5000 I-9.9916 J-5.5591 F900.00
G1 X71.0204 Y62.6895 Z3.5000 F900.00
G3 X71.1809 Y61.7893 Z3.5000 I115.1603 J20.0663 F900.00
G1 X67.9667 Y58.5751 Z3.5000 F900.00
G1 X68.3102 Y57.8580 Z3.5000 F900.00
G1 X71.3458 Y60.8936 Z3.5000 F900.00
G3 X71.5736 Y60.0607 Z3.5000 I6.4665 J1.3214 F900.00
G1 X68.6539 Y57.1409 Z3.5000 F900.00
G3 X69.0177 Y56.4441 Z3.5000 I6.3150 J2.8540 F900.00
G1 X71.8731 Y59.2995 Z3.5000 F900.00
G3 X72.2075 Y58.5733 Z3.5000 I9.7174 J4.0346 F900.00
G1 X69.4306 Y55.7964 Z3.5000 F900.00
G1 X69.8703 Y55.1754 Z3.5000 F900.00
G1 X72.5830 Y57.8881 Z3.5000 F900.00
G3 X73.0051 Y57.2496 Z3.5000 I4.8082 J2.7198 F900.00
G1 X70.2967 Y54.5411 Z3.5000 F900.00
G2 X70.6545 Y53.8383 Z3.5000 I-2.7513 J-1.8434 F900.00
G1 X73.4648 Y56.6486 Z3.5000 F900.00
G2 X73.9027 Y56.0258 Z3.5000 I-4.7694 J-3.8195 F900.00
G1 X70.9192 Y53.0423 Z3.5000 F900.00
G2 X71.0755 Y52.1380 Z3.5000 I-3.9331 J-1.1457 F900.00
G1 X74.2755 Y55.3380 Z3.5000 F900.00
G1 X74.5124 Y54.8629 Z3.5000 F900.00
G1 X74.4699 Y54.4717 Z3.5000 F900.00
G1 X71.0942 Y51.0960 Z3.5000 F900.00
G2 X71.0042 Y49.9453 Z3.5000 I-9.9215 J0.1972 F900.00
G1 X74.3407 Y53.2818 Z3.5000 F900.00
G1 X74.2115 Y52.0920 Z3.5000 F900.00
G1 X70.8268 Y48.7073 Z3.5000 F900.00
G3 X70.5999 Y47.4198 Z3.5000 I8.8996 J-2.2319 F900.00
G1 X74.0931 Y50.9129 Z3.5000 F900.00
G3 X74.0128 Y49.7720 Z3.5000 I12.7451 J-1.4703 F900.00
G1 X70.4635 Y46.2226 Z3.5000 F900.00
G1 X70.3270 Y45.0255 Z3.5000 F900.00
G1 X73.9923 Y48.6908 Z3.5000 F900.00
G1 X74.0044 Y48.1078 Z3.5000 F900.00
G3 X73.3753 Y47.0132 Z3.5000 I4.3365 J-3.2200 F900.00
G1 X70.1905 Y43.8283 Z3.5000 F900.00
G2 X70.0539 Y42.6310 Z3.5000 I-44.4926 J4.4708 F900.00
G1 X72.8155 Y45.3927 Z3.5000 F900.00
G3 X72.3998 Y43.9164 Z3.5000 I33.5935 J-10.2551 F900.00
G1 X69.7087 Y41.2253 Z3.5000 F900.00
G2 X69.2178 Y39.6737 Z3.5000 I-20.4167 J5.6067 F900.00
G1 X71.9575 Y42.4133 Z3.5000 F900.00
G2 X70.2632 Y39.6585 Z3.5000 I-5.5404 J1.5089 F900.00
G1 X70.2632 Y39.6585 Z3.0000 F600.00
G3 X71.9575 Y42.4133 Z3.0000 I-3.8461 J4.2637 F900.00
G1 X69.2178 Y39.6737 Z3.0000 F900.00
G3 X69.7087 Y41.2253 Z3.0000 I-19.9258 J7.1583 F900.00
G1 X72.3998 Y43.9164 Z3.0000 F900.00
G2 X72.8155 Y45.3927 Z3.0000 I34.0092 J-8.7788 F900.00
G1 X70.0539 Y42.6310 Z3.0000 F900.00
G3 X70.1905 Y43.8283 Z3.0000 I-44.3560 J5.6681 F900.00
G1 X73.3753 Y47.0132 Z3.0000 F900.00
G2 X74.0044 Y48.1078 Z3.0000 I4.9655 J-2.1253 F900.00
G1 X73.9923 Y48.6908 Z3.0000 F900.00
G1 X70.3270 Y45.0255 Z3.0000 F900.00
G1 X70.4635 Y46.2226 Z3.0000 F900.00
G1 X74.0128 Y49.7720 Z3.0000 F900.00
G2 X74.0931 Y50.9129 Z3.0000 I12.8254 J-0.3293 F900.00
G1 X70.5999 Y47.4198 Z3.0000 F900.00
G2 X70.8268 Y48.7073 Z3.0000 I9.1265 J-0.9444 F900.00
G1 X74.2115 Y52.0920 Z3.0000 F900.00
G1 X74.3407 Y53.2818 Z3.0000 F900.00
G1 X71.0042 Y49.9453 Z3.0000 F900.00
G3 X71.0942 Y51.0960 Z3.0000 I-9.8315 J1.3479 F900.00
G1 X74.4699 Y54.4717 Z3.0000 F900.00
G1 X74.5124 Y54.8629 Z3.0000 F900.00
G1 X74.2755 Y55.3380 Z3.0000 F900.00
G1 X71.0755 Y52.1380 Z3.0000 F900.00
G3 X70.9192 Y53.0423 Z3.0000 I-4.0895 J-0.2413 F900.00
G1 X73.9027 Y56.0258 Z3.0000 F900.00
G3 X73.4648 Y56.6486 Z3.0000 I-5.2073 J-3.1968 F900.00
G1 X70.6545 Y53.8383 Z3.0000 F900.00
G3 X70.2967 Y54.5411 Z3.0000 I-3.1091 J-1.1405 F900.00
G1 X73.0051 Y57.2496 Z3.0000 F900.00
G2 X72.5830 Y57.8881 Z3.0000 I4.3860 J3.3583 F900.00
G1 X69.8703 Y55.1754 Z3.0000 F900.00
G1 X69.4306 Y55.7964 Z3.0000 F900.00
G1 X72.2075 Y58.5733 Z3.0000 F900.00
G2 X71.8731 Y59.2995 Z3.0000 I9.3830 J4.7608 F900.00
G1 X69.0177 Y56.4441 Z3.0000 F900.00
G2 X68.6539 Y57.1409 Z3.0000 I5.9511 J3.5508 F900.00
G1 X71.5736 Y60.0607 Z3.0000 F900.00
G2 X71.3458 Y60.8936 Z3.0000 I6.2386 J2.1542 F900.00
G1 X68.3102 Y57.8580 Z3.0000 F900.00
G1 X67.9667 Y58.5751 Z3.0000 F900.00
G1 X71.1809 Y61.7893 Z3.0000 F900.00
G2 X71.0204 Y62.6895 Z3.0000 I114.9998 J20.9665 F900.00
G1 X67.6231 Y59.2922 Z3.0000 F900.00
G3 X67.2639 Y59.9936 Z3.0000 I-10.3508 J-4.8577 F900.00
G1 X70.8401 Y63.5698 Z3.0000 F900.00
G3 X70.6394 Y64.4298 Z3.0000 I-14.9829 J-3.0423 F900.00
G1 X66.8990 Y60.6894 Z3.0000 F900.00
G1 X66.5210 Y61.3721 Z3.0000 F900.00
G1 X70.4302 Y65.2812 Z3.0000 F900.00
G2 X70.2275 Y66.1392 Z3.0000 I12.3515 J3.3708 F900.00
G1 X66.1387 Y62.0504 Z3.0000 F900.00
G1 X65.7481 Y62.7205 Z3.0000 F900.00
G1 X70.0441 Y67.0165 Z3.0000 F900.00
G3 X69.8601 Y67.8932 Z3.0000 I-13.2866 J-2.3301 F900.00
G1 X65.3498 Y63.3828 Z3.0000 F900.00
G1 X64.9468 Y64.0405 Z3.0000 F900.00
G1 X69.6341 Y68.7278 Z3.0000 F900.00
G3 X69.3371 Y69.4914 Z3.0000 I-6.7256 J-2.1765 F900.00
G1 X64.5329 Y64.6873 Z3.0000 F900.00
G3 X64.1159 Y65.3309 Z3.0000 I-15.2713 J-9.4387 F900.00
G1 X68.9952 Y70.2102 Z3.0000 F900.00
G3 X68.6417 Y70.9174 Z3.0000 I-20.6235 J-9.8664 F900.00
G1 X63.6886 Y65.9643 Z3.0000 F900.00
G3 X63.2564 Y66.5928 Z3.0000 I-14.2639 J-9.3466 F900.00
G1 X68.2778 Y71.6142 Z3.0000 F900.00
G3 X67.8592 Y72.2562 Z3.0000 I-2.5078 J-1.1777 F900.00
G1 X62.8169 Y67.2139 Z3.0000 F900.00
G3 X62.3685 Y67.8261 Z3.0000 I-12.5750 J-8.7381 F900.00
G1 X67.3332 Y72.7908 Z3.0000 F900.00
G3 X66.7084 Y73.2267 Z3.0000 I-2.8682 J-3.4453 F900.00
G1 X61.9153 Y68.4336 Z3.0000 F900.00
G3 X61.4480 Y69.0270 Z3.0000 I-10.4246 J-7.7304 F900.00
G1 X66.0021 Y73.5811 Z3.0000 F900.00
G3 X65.1773 Y73.8169 Z3.0000 I-1.2866 J-2.9396 F900.00
G1 X60.9766 Y69.6163 Z3.0000 F900.00
G1 X60.4876 Y70.1879 Z3.0000 F900.00
G1 X64.1755 Y73.8758 Z3.0000 F900.00
G3 X63.0121 Y73.7731 Z3.0000 I0.3054 J-10.1013 F900.00
G1 X59.9906 Y70.7516 Z3.0000 F900.00
G1 X59.4798 Y71.3014 Z3.0000 F900.00
G1 X61.7467 Y73.5683 Z3.0000 F900.00
G1 X60.4392 Y73.3215 Z3.0000 F900.00
G1 X58.9544 Y71.8366 Z3.0000 F900.00
G1 X58.4205 Y72.3634 Z3.0000 F900.00
G1 X59.1579 Y73.1008 Z3.0000 F900.00
G2 X58.0029 Y73.0065 Z3.0000 I-1.2880 J8.6581 F900.00
G1 X57.7028 Y73.0114 Z3.0000 F900.00
G1 X57.8636 Y72.8672 Z3.0000 F900.00
G1 X58.0029 Y73.0065 Z3.0000 F900.00
G0 X58.0029 Y73.0065 Z12.0000
G0 X58.0029 Y73.0057 Z12.0000
G1 X58.0029 Y73.0057 Z3.0000 F600.00
G3 X59.1313 Y73.0970 Z3.0000 I-0.0134 J7.1803 F900.00
G3 X62.1797 Y73.6501 Z3.0000 I-11.6206 J72.7260 F900.00
G2 X65.0839 Y73.8354 Z3.0000 I2.1070 J-10.1725 F900.00
G2 X68.3996 Y71.3925 Z3.0000 I-0.7110 J-4.4366 F900.00
G2 X69.7526 Y68.3338 Z3.0000 I-13.1509 J-7.6458 F900.00
G3 X70.2751 Y65.9123 Z3.0000 I180.7598 J37.7342 F900.00
G2 X71.1548 Y61.9326 Z3.0000 I-41.7882 J-11.3248 F900.00
G3 X73.0100 Y57.2428 Z3.0000 I10.3525 J1.3833 F900.00
G2 X74.5124 Y54.8629 Z3.0000 I-7.6420 J-6.4882 F900.00
G1 X74.1910 Y51.9036 Z3.0000 F900.00
G3 X74.0044 Y48.1078 Z3.0000 I23.5774 J-3.0619 F900.00
G3 X73.4398 Y47.1612 Z3.0000 I4.7282 J-3.4614 F900.00
G3 X72.3199 Y43.6288 Z3.0000 I20.9188 J-8.5761 F900.00
G2 X71.4196 Y41.1031 Z3.0000 I-11.1827 J2.5627 F900.00
G2 X68.8059 Y38.5018 Z3.0000 I-6.9926 J4.4120 F900.00
G3 X70.0533 Y42.6269 Z3.0000 I-24.9319 J9.7903 F900.00
G3 X70.6216 Y47.6095 Z3.0000 I-184.5224 J23.5675 F900.00
G3 X71.1050 Y51.3991 Z3.0000 I-18.7069 J4.3123 F900.00
G3 X69.9092 Y55.1204 Z3.0000 I-5.6709 J0.2304 F900.00
G2 X68.6529 Y57.1428 Z3.0000 I7.7710 J6.2285 F900.00
G3 X63.4365 Y66.3381 Z3.0000 I-53.6056 J-24.3326 F900.00
G3 X57.7028 Y73.0114 Z3.0000 I-29.7023 J-19.7205 F900.00
G3 X58.0029 Y73.0057 Z3.0000 I0.2867 J7.1746 F900.00
G1 X58.0029 Y73.0057 Z2.5000 F600.00
G3 X59.1313 Y73.0970 Z2.5000 I-0.0134 J7.1803 F900.00
G3 X62.1797 Y73.6501 Z2.5000 I-11.6206 J72.7260 F900.00
G2 X65.0839 Y73.8354 Z2.5000 I2.1070 J-10.1725 F900.00
G2 X68.3996 Y71.3925 Z2.5000 I-0.7110 J-4.4366 F900.00
G2 X69.7526 Y68.3338 Z2.5000 I-13.1509 J-7.6458 F900.00
G3 X70.2751 Y65.9123 Z2.5000 I180.7598 J37.7342 F900.00
G2 X71.1548 Y61.9326 Z2.5000 I-41.7882 J-11.3248 F900.00
G3 X73.0100 Y57.2428 Z2.5000 I10.3525 J1.3833 F900.00
G2 X74.5124 Y54.8629 Z2.5000 I-7.6420 J-6.4882 F900.00
G1 X74.1910 Y51.9036 Z2.5000 F900.00
G3 X74.0044 Y48.1078 Z2.5000 I23.5774 J-3.0619 F900.00
G3 X73.4398 Y47.1612 Z2.5000 I4.7282 J-3.4614 F900.00
G3 X72.3199 Y43.6288 Z2.5000 I20.9188 J-8.5761 F900.00
G2 X71.4196 Y41.1031 Z2.5000 I-11.1827 J2.5627 F900.00
G2 X68.8059 Y38.5018 Z2.5000 I-6.9926 J4.4120 F900.00
G3 X70.0533 Y42.6269 Z2.5000 I-24.9319 J9.7903 F900.00
G3 X70.6216 Y47.6095 Z2.5000 I-184.5224 J23.5675 F900.00
G3 X71.1050 Y51.3991 Z2.5000 I-18.7069 J4.3123 F900.00
G3 X69.9092 Y55.1204 Z2.5000 I-5.6709 J0.2304 F900.00
G2 X68.6529 Y57.1428 Z2.5000 I7.7710 J6.2285 F900.00
G3 X63.4365 Y66.3381 Z2.5000 I-53.6056 J-24.3326 F900.00
G3 X57.7028 Y73.0114 Z2.5000 I-29.7023 J-19.7205 F900.00
G3 X58.0029 Y73.0057 Z2.5000 I0.2867 J7.1746 F900.00
G0 X58.0029 Y73.0057 Z12.0000
G0 X58.0029 Y73.0065 Z12.0000
G1 X58.0029 Y73.0065 Z2.5000 F600.00
G1 X57.8636 Y72.8672 Z2.5000 F900.00
G1 X57.7028 Y73.0114 Z2.5000 F900.00
G1 X58.0029 Y73.0065 Z2.5000 F900.00
G3 X59.1579 Y73.1008 Z2.5000 I-0.1331 J8.7524 F900.00
G1 X58.4205 Y72.3634 Z2.5000 F900.00
G1 X58.9544 Y71.8366 Z2.5000 F900.00
G1 X60.4392 Y73.3215 Z2.5000 F900.00
G1 X61.7467 Y73.5683 Z2.5000 F900.00
G1 X59.4798 Y71.3014 Z2.5000 F900.00
G1 X59.9906 Y70.7516 Z2.5000 F900.00
G1 X63.0121 Y73.7731 Z2.5000 F900.00
G2 X64.1755 Y73.8758 Z2.5000 I1.4688 J-9.9986 F900.00
G1 X60.4876 Y70.1879 Z2.5000 F900.00
G1 X60.9766 Y69.6163 Z2.5000 F900.00
G1 X65.1773 Y73.8169 Z2.5000 F900.00
G2 X66.0021 Y73.5811 Z2.5000 I-0.4618 J-3.1754 F900.00
G1 X61.4480 Y69.0270 Z2.5000 F900.00
G2 X61.9153 Y68.4336 Z2.5000 I-9.9572 J-8.3238 F900.00
G1 X66.7084 Y73.2267 Z2.5000 F900.00
G2 X67.3332 Y72.7908 Z2.5000 I-2.2434 J-3.8812 F900.00
G1 X62.3685 Y67.8261 Z2.5000 F900.00
G2 X62.8169 Y67.2139 Z2.5000 I-12.1266 J-9.3504 F900.00
G1 X67.8592 Y72.2562 Z2.5000 F900.00
G2 X68.2778 Y71.6142 Z2.5000 I-2.0892 J-1.8197 F900.00
G1 X63.2564 Y66.5928 Z2.5000 F900.00
G2 X63.6886 Y65.9643 Z2.5000 I-13.8317 J-9.9751 F900.00
G1 X68.6417 Y70.9174 Z2.5000 F900.00
G2 X68.9952 Y70.2102 Z2.5000 I-20.2701 J-10.5735 F900.00
G1 X64.1159 Y65.3309 Z2.5000 F900.00
G2 X64.5329 Y64.6873 Z2.5000 I-14.8542 J-10.0823 F900.00
G1 X69.3371 Y69.4914 Z2.5000 F900.00
G2 X69.6341 Y68.7278 Z2.5000 I-6.4286 J-2.9401 F900.00
G1 X64.9468 Y64.0405 Z2.5000 F900.00
G1 X65.3498 Y63.3828 Z2.5000 F900.00
G1 X69.8601 Y67.8932 Z2.5000 F900.00
G2 X70.0441 Y67.0165 Z2.5000 I-13.1026 J-3.2068 F900.00
G1 X65.7481 Y62.7205 Z2.5000 F900.00
G1 X66.1387 Y62.0504 Z2.5000 F900.00
G1 X70.2275 Y66.1392 Z2.5000 F900.00
G3 X70.4302 Y65.2812 Z2.5000 I12.5542 J2.5128 F900.00
G1 X66.5210 Y61.3721 Z2.5000 F900.00
G1 X66.8990 Y60.6894 Z2.5000 F900.00
G1 X70.6394 Y64.4298 Z2.5000 F900.00
G2 X70.8401 Y63.5698 Z2.5000 I-14.7822 J-3.9023 F900.00
G1 X67.2639 Y59.9936 Z2.5000 F900.00
G2 X67.6231 Y59.2922 Z2.5000 I-9.9916 J-5.5591 F900.00
G1 X71.0204 Y62.6895 Z2.5000 F900.00
G3 X71.1809 Y61.7893 Z2.5000 I115.1603 J20.0663 F900.00
G1 X67.9667 Y58.5751 Z2.5000 F900.00
G1 X68.3102 Y57.8580 Z2.5000 F900.00
G1 X71.3458 Y60.8936 Z2.5000 F900.00
G3 X71.5736 Y60.0607 Z2.5000 I6.4665 J1.3214 F900.00
G1 X68.6539 Y57.1409 Z2.5000 F900.00
G3 X69.0177 Y56.4441 Z2.5000 I6.3150 J2.8540 F900.00
G1 X71.8731 Y59.2995 Z2.5000 F900.00
G3 X72.2075 Y58.5733 Z2.5000 I9.7174 J4.0346 F900.00
G1 X69.4306 Y55.7964 Z2.5000 F900.00
G1 X69.8703 Y55.1754 Z2.5000 F900.00
G1 X72.5830 Y57.8881 Z2.5000 F900.00
G3 X73.0051 Y57.2496 Z2.5000 I4.8082 J2.7198 F900.00
G1 X70.2967 Y54.5411 Z2.5000 F900.00
G2 X70.6545 Y53.8383 Z2.5000 I-2.7513 J-1.8434 F900.00
G1 X73.4648 Y56.6486 Z2.5000 F900.00
G2 X73.9027 Y56.0258 Z2.5000 I-4.7694 J-3.8195 F900.00
G1 X70.9192 Y53.0423 Z2.5000 F900.00
G2 X71.0755 Y52.1380 Z2.5000 I-3.9331 J-1.1457 F900.00
G1 X74.2755 Y55.3380 Z2.5000 F900.00
G1 X74.5124 Y54.8629 Z2.5000 F900.00
G1 X74.4699 Y54.4717 Z2.5000 F900.00
G1 X71.0942 Y51.0960 Z2.5000 F900.00
G2 X71.0042 Y49.9453 Z2.5000 I-9.9215 J0.1972 F900.00
G1 X74.3407 Y53.2818 Z2.5000 F900.00
G1 X74.2115 Y52.0920 Z2.5000 F900.00
G1 X70.8268 Y48.7073 Z2.5000 F900.00
G3 X70.5999 Y47.4198 Z2.5000 I8.8996 J-2.2319 F900.00
G1 X74.0931 Y50.9129 Z2.5000 F900.00
G3 X74.0128 Y49.7720 Z2.5000 I12.7451 J-1.4703 F900.00
G1 X70.4635 Y46.2226 Z2.5000 F900.00
G1 X70.3270 Y45.0255 Z2.5000 F900.00
G1 X73.9923 Y48.6908 Z2.5000 F900.00
G1 X74.0044 Y48.1078 Z2.5000 F900.00
G3 X73.3753 Y47.0132 Z2.5000 I4.3365 J-3.2200 F900.00
G1 X70.1905 Y43.8283 Z2.5000 F900.00
G2 X70.0539 Y42.6310 Z2.5000 I-44.4926 J4.4708 F900.00
G1 X72.8155 Y45.3927 Z2.5000 F900.00
G3 X72.3998 Y43.9164 Z2.5000 I33.5935 J-10.2551 F900.00
G1 X69.7087 Y41.2253 Z2.5000 F900.00
G2 X69.2178 Y39.6737 Z2.5000 I-20.4167 J5.6067 F900.00
G1 X71.9575 Y42.4133 Z2.5000 F900.00
G2 X70.2632 Y39.6585 Z2.5000 I-5.5404 J1.5089 F900.00
G0 Z12.0000
G0 X78.2705 Y67.5850
G0 Z10.0000
G1 X78.2705 Y67.5850 Z3.5000 F600.00
G3 X77.9388 Y67.0926 Z3.5000 I2.2994 J-1.9068 F900.00
G3 X77.3856 Y65.2381 Z3.5000 I8.3915 J-3.5130 F900.00
G3 X77.9869 Y61.8668 Z3.5000 I7.2615 J-0.4442 F900.00
G3 X80.1853 Y57.4348 Z3.5000 I32.9223 J13.5690 F900.00
G2 X81.7484 Y53.2633 Z3.5000 I-11.3058 J-6.6151 F900.00
G2 X80.4280 Y50.0381 Z3.5000 I-3.2318 J-0.5598 F900.00
G2 X76.4588 Y48.1822 Z3.5000 I-7.3256 J10.4952 F900.00
G2 X76.6702 Y51.8981 Z3.5000 I19.4486 J0.7573 F900.00
G3 X77.0385 Y54.8706 Z3.5000 I-27.4821 J4.9139 F900.00
G3 X76.7248 Y57.1922 Z3.5000 I-10.2678 J-0.2054 F900.00
G3 X75.9874 Y59.0721 Z3.5000 I-4.6097 J-0.7235 F900.00
G3 X74.8180 Y60.5876 Z3.5000 I-15.0692 J-10.4189 F900.00
G2 X73.9429 Y62.0515 Z3.5000 I3.4886 J3.0791 F900.00
G2 X72.9226 Y66.4667 Z3.5000 I27.5066 J8.6817 F900.00
G3 X71.8155 Y70.5008 Z3.5000 I-18.7199 J-2.9684 F900.00
G2 X76.0307 Y69.0662 Z3.5000 I-3.6092 J-17.5144 F900.00
G2 X78.2705 Y67.5850 Z3.5000 I-3.4998 J-7.7267 F900.00
G0 X78.2705 Y67.5850 Z12.0000
G0 X72.2110 Y70.4085 Z12.0000
G1 X72.2110 Y70.4085 Z3.5000 F600.00
G3 X71.8155 Y70.5008 Z3.5000 I-1.4956 J-5.5124 F900.00
G1 X71.9498 Y70.1473 Z3.5000 F900.00
G1 X72.2110 Y70.4085 Z3.5000 F900.00
G2 X73.0594 Y70.1962 Z3.5000 I-1.4541 J-7.6138 F900.00
G1 X72.2233 Y69.3601 Z3.5000 F900.00
G2 X72.4677 Y68.5439 Z3.5000 I-9.2087 J-3.2024 F900.00
G1 X73.8709 Y69.9471 Z3.5000 F900.00
G2 X74.6462 Y69.6617 Z3.5000 I-1.6736 J-5.7432 F900.00
G1 X72.6792 Y67.6947 Z3.5000 F900.00
G2 X72.8582 Y66.8130 Z3.5000 I-11.6244 J-2.8186 F900.00
G1 X75.3960 Y69.3508 Z3.5000 F900.00
G2 X76.1248 Y69.0190 Z3.5000 I-3.4310 J-8.5017 F900.00
G1 X73.0246 Y65.9187 Z3.5000 F900.00
G1 X73.1909 Y65.0245 Z3.5000 F900.00
G1 X76.8189 Y68.6524 Z3.5000 F900.00
G2 X77.4673 Y68.2402 Z3.5000 I-2.5583 J-4.7406 F900.00
G1 X73.3768 Y64.1497 Z3.5000 F900.00
G3 X73.5836 Y63.2958 Z3.5000 I17.7146 J3.8388 F900.00
G1 X78.0575 Y67.7697 Z3.5000 F900.00
G1 X78.2705 Y67.5850 Z3.5000 F900.00
G3 X77.6494 Y66.3009 Z3.5000 I2.2552 J-1.8832 F900.00
G1 X73.8122 Y62.4637 Z3.5000 F900.00
G3 X74.0951 Y61.6860 Z3.5000 I4.5715 J1.2225 F900.00
G1 X77.3692 Y64.9600 Z3.5000 F900.00
G3 X77.4213 Y63.9515 Z3.5000 I4.5116 J-0.2725 F900.00
G1 X74.4960 Y61.0262 Z3.5000 F900.00
G3 X74.9504 Y60.4200 Z3.5000 I8.7938 J6.1188 F900.00
G1 X77.5940 Y63.0636 Z3.5000 F900.00
G3 X77.8488 Y62.2577 Z3.5000 I7.3346 J1.8760 F900.00
G1 X75.4186 Y59.8275 Z3.5000 F900.00
G2 X75.8786 Y59.2268 Z3.5000 I-5.8777 J-4.9776 F900.00
G1 X78.1431 Y61.4913 Z3.5000 F900.00
G3 X78.4665 Y60.7541 Z3.5000 I10.0403 J3.9650 F900.00
G1 X76.2794 Y58.5670 Z3.5000 F900.00
G2 X76.5718 Y57.7987 Z3.5000 I-2.8672 J-1.5306 F900.00
G1 X78.8124 Y60.0393 Z3.5000 F900.00
G1 X79.1723 Y59.3386 Z3.5000 F900.00
G1 X76.7743 Y56.9406 Z3.5000 F900.00
G2 X76.9349 Y56.0405 Z3.5000 I-11.6097 J-2.5362 F900.00
G1 X79.5359 Y58.6415 Z3.5000 F900.00
G1 X79.9070 Y57.9519 Z3.5000 F900.00
G1 X77.0335 Y55.0784 Z3.5000 F900.00
G2 X76.9729 Y53.9571 Z3.5000 I-5.8715 J-0.2449 F900.00
G1 X80.2754 Y57.2597 Z3.5000 F900.00
G2 X80.6315 Y56.5551 Z3.5000 I-11.3612 J-6.1842 F900.00
G1 X76.7945 Y52.7182 Z3.5000 F900.00
G3 X76.6237 Y51.4867 Z3.5000 I16.0958 J-2.8600 F900.00
G1 X80.9669 Y55.8298 Z3.5000 F900.00
G2 X81.2695 Y55.0718 Z3.5000 I-6.7235 J-3.1233 F900.00
G1 X76.4968 Y50.2991 Z3.5000 F900.00
G3 X76.4476 Y49.1892 Z3.5000 I13.3898 J-1.1503 F900.00
G1 X81.5296 Y54.2713 Z3.5000 F900.00
G2 X81.7264 Y53.4074 Z3.5000 I-4.7530 J-1.5371 F900.00
G1 X76.5170 Y48.1979 Z3.5000 F900.00
G3 X78.1805 Y48.8008 Z3.5000 I-3.7349 J12.9028 F900.00
G1 X81.7715 Y52.3918 Z3.5000 F900.00
G2 X80.9396 Y50.4992 Z3.5000 I-3.1069 J0.2365 F900.00
G1 X80.9396 Y50.4992 Z3.0000 F600.00
G3 X81.7715 Y52.3918 Z3.0000 I-2.2750 J2.1291 F900.00
G1 X78.1805 Y48.8008 Z3.0000 F900.00
G2 X76.5170 Y48.1979 Z3.0000 I-5.3984 J12.2999 F900.00
G1 X81.7264 Y53.4074 Z3.0000 F900.00
G3 X81.5296 Y54.2713 Z3.0000 I-4.9498 J-0.6733 F900.00
G1 X76.4476 Y49.1892 Z3.0000 F900.00
G2 X76.4968 Y50.2991 Z3.0000 I13.4390 J-0.0404 F900.00
G1 X81.2695 Y55.0718 Z3.0000 F900.00
G3 X80.9669 Y55.8298 Z3.0000 I-7.0261 J-2.3652 F900.00
G1 X76.6237 Y51.4867 Z3.0000 F900.00
G2 X76.7945 Y52.7182 Z3.0000 I16.2666 J-1.6286 F900.00
G1 X80.6315 Y56.5551 Z3.0000 F900.00
G3 X80.2754 Y57.2597 Z3.0000 I-11.7173 J-5.4796 F900.00
G1 X76.9729 Y53.9571 Z3.0000 F900.00
G3 X77.0335 Y55.0784 Z3.0000 I-5.8109 J0.8764 F900.00
G1 X79.9070 Y57.9519 Z3.0000 F900.00
G1 X79.5359 Y58.6415 Z3.0000 F900.00
G1 X76.9349 Y56.0405 Z3.0000 F900.00
G3 X76.7743 Y56.9406 Z3.0000 I-11.7703 J-1.6361 F900.00
G1 X79.1723 Y59.3386 Z3.0000 F900.00
G1 X78.8124 Y60.0393 Z3.0000 F900.00
G1 X76.5718 Y57.7987 Z3.0000 F900.00
G3 X76.2794 Y58.5670 Z3.0000 I-3.1595 J-0.7623 F900.00
G1 X78.4665 Y60.7541 Z3.0000 F900.00
G2 X78.1431 Y61.4913 Z3.0000 I9.7169 J4.7022 F900.00
G1 X75.8786 Y59.2268 Z3.0000 F900.00
G3 X75.4186 Y59.8275 Z3.0000 I-6.3377 J-4.3769 F900.00
G1 X77.8488 Y62.2577 Z3.0000 F900.00
G2 X77.5940 Y63.0636 Z3.0000 I7.0797 J2.6819 F900.00
G1 X74.9504 Y60.4200 Z3.0000 F900.00
G2 X74.4960 Y61.0262 Z3.0000 I8.3393 J6.7250 F900.00
G1 X77.4213 Y63.9515 Z3.0000 F900.00
G2 X77.3692 Y64.9600 Z3.0000 I4.4595 J0.7361 F900.00
G1 X74.0951 Y61.6860 Z3.0000 F900.00
G2 X73.8122 Y62.4637 Z3.0000 I4.2886 J2.0003 F900.00
G1 X77.6494 Y66.3009 Z3.0000 F900.00
G2 X78.2705 Y67.5850 Z3.0000 I2.8763 J-0.5990 F900.00
G1 X78.0575 Y67.7697 Z3.0000 F900.00
G1 X73.5836 Y63.2958 Z3.0000 F900.00
G2 X73.3768 Y64.1497 Z3.0000 I17.5078 J4.6926 F900.00
G1 X77.4673 Y68.2402 Z3.0000 F900.00
G3 X76.8189 Y68.6524 Z3.0000 I-3.2068 J-4.3284 F900.00
G1 X73.1909 Y65.0245 Z3.0000 F900.00
G1 X73.0246 Y65.9187 Z3.0000 F900.00
G1 X76.1248 Y69.0190 Z3.0000 F900.00
G3 X75.3960 Y69.3508 Z3.0000 I-4.1598 J-8.1699 F900.00
G1 X72.8582 Y66.8130 Z3.0000 F900.00
G3 X72.6792 Y67.6947 Z3.0000 I-11.8034 J-1.9369 F900.00
G1 X74.6462 Y69.6617 Z3.0000 F900.00
G3 X73.8709 Y69.9471 Z3.0000 I-2.4489 J-5.4578 F900.00
G1 X72.4677 Y68.5439 Z3.0000 F900.00
G3 X72.2233 Y69.3601 Z3.0000 I-9.4531 J-2.3862 F900.00
G1 X73.0594 Y70.1962 Z3.0000 F900.00
G3 X72.2110 Y70.4085 Z3.0000 I-2.3025 J-7.4015 F900.00
G1 X71.9498 Y70.1473 Z3.0000 F900.00
G1 X71.8155 Y70.5008 Z3.0000 F900.00
G2 X72.2110 Y70.4085 Z3.0000 I-1.1001 J-5.6047 F900.00
G0 X72.2110 Y70.4085 Z12.0000
G0 X72.2124 Y70.4143 Z12.0000
G1 X72.2124 Y70.4143 Z3.0000 F600.00
G2 X76.0307 Y69.0662 Z3.0000 I-4.0061 J-17.4279 F900.00
G2 X78.2705 Y67.5850 Z3.0000 I-3.4998 J-7.7267 F900.00
G3 X77.9388 Y67.0926 Z3.0000 I2.2994 J-1.9068 F900.00
G3 X77.3856 Y65.2381 Z3.0000 I8.3915 J-3.5130 F900.00
G3 X77.9869 Y61.8668 Z3.0000 I7.2615 J-0.4442 F900.00
G3 X80.1853 Y57.4348 Z3.0000 I32.9223 J13.5690 F900.00
G2 X81.7484 Y53.2633 Z3.0000 I-11.3058 J-6.6151 F900.00
G2 X80.4280 Y50.0381 Z3.0000 I-3.2318 J-0.5598 F900.00
G2 X76.4588 Y48.1822 Z3.0000 I-7.3256 J10.4952 F900.00
G2 X76.6702 Y51.8981 Z3.0000 I19.4486 J0.7573 F900.00
G3 X77.0385 Y54.8706 Z3.0000 I-27.4821 J4.9139 F900.00
G3 X76.7248 Y57.1922 Z3.0000 I-10.2678 J-0.2054 F900.00
G3 X75.9874 Y59.0721 Z3.0000 I-4.6097 J-0.7235 F900.00
G3 X74.8180 Y60.5876 Z3.0000 I-15.0692 J-10.4189 F900.00
G2 X73.9429 Y62.0515 Z3.0000 I3.4886 J3.0791 F900.00
G2 X72.9226 Y66.4667 Z3.0000 I27.5066 J8.6817 F900.00
G3 X71.8155 Y70.5008 Z3.0000 I-18.7199 J-2.9684 F900.00
G2 X72.2124 Y70.4143 Z3.0000 I-3.6092 J-17.5144 F900.00
G1 X72.2124 Y70.4143 Z2.5000 F600.00
G2 X76.0307 Y69.0662 Z2.5000 I-4.0061 J-17.4279 F900.00
G2 X78.2705 Y67.5850 Z2.5000 I-3.4998 J-7.7267 F900.00
G3 X77.9388 Y67.0926 Z2.5000 I2.2994 J-1.9068 F900.00
G3 X77.3856 Y65.2381 Z2.5000 I8.3915 J-3.5130 F900.00
G3 X77.9869 Y61.8668 Z2.5000 I7.2615 J-0.4442 F900.00
G3 X80.1853 Y57.4348 Z2.5000 I32.9223 J13.5690 F900.00
G2 X81.7484 Y53.2633 Z2.5000 I-11.3058 J-6.6151 F900.00
G2 X80.4280 Y50.0381 Z2.5000 I-3.2318 J-0.5598 F900.00
G2 X76.4588 Y48.1822 Z2.5000 I-7.3256 J10.4952 F900.00
G2 X76.6702 Y51.8981 Z2.5000 I19.4486 J0.7573 F900.00
G3 X77.0385 Y54.8706 Z2.5000 I-27.4821 J4.9139 F900.00
G3 X76.7248 Y57.1922 Z2.5000 I-10.2678 J-0.2054 F900.00
G3 X75.9874 Y59.0721 Z2.5000 I-4.6097 J-0.7235 F900.00
G3 X74.8180 Y60.5876 Z2.5000 I-15.0692 J-10.4189 F900.00
G2 X73.9429 Y62.0515 Z2.5000 I3.4886 J3.0791 F900.00
G2 X72.9226 Y66.4667 Z2.5000 I27.5066 J8.6817 F900.00
G3 X71.8155 Y70.5008 Z2.5000 I-18.7199 J-2.9684 F900.00
G2 X72.2124 Y70.4143 Z2.5000 I-3.6092 J-17.5144 F900.00
G0 X72.2124 Y70.4143 Z12.0000
G0 X72.2110 Y70.4085 Z12.0000
G1 X72.2110 Y70.4085 Z2.5000 F600.00
G3 X71.8155 Y70.5008 Z2.5000 I-1.4956 J-5.5124 F900.00
G1 X71.9498 Y70.1473 Z2.5000 F900.00
G1 X72.2110 Y70.4085 Z2.5000 F900.00
G2 X73.0594 Y70.1962 Z2.5000 I-1.4541 J-7.6138 F900.00
G1 X72.2233 Y69.3601 Z2.5000 F900.00
G2 X72.4677 Y68.5439 Z2.5000 I-9.2087 J-3.2024 F900.00
G1 X73.8709 Y69.9471 Z2.5000 F900.00
G2 X74.6462 Y69.6617 Z2.5000 I-1.6736 J-5.7432 F900.00
G1 X72.6792 Y67.6947 Z2.5000 F900.00
G2 X72.8582 Y66.8130 Z2.5000 I-11.6244 J-2.8186 F900.00
G1 X75.3960 Y69.3508 Z2.5000 F900.00
G2 X76.1248 Y69.0190 Z2.5000 I-3.4310 J-8.5017 F900.00
G1 X73.0246 Y65.9187 Z2.5000 F900.00
G1 X73.1909 Y65.0245 Z2.5000 F900.00
G1 X76.8189 Y68.6524 Z2.5000 F900.00
G2 X77.4673 Y68.2402 Z2.5000 I-2.5583 J-4.7406 F900.00
G1 X73.3768 Y64.1497 Z2.5000 F900.00
G3 X73.5836 Y63.2958 Z2.5000 I17.7146 J3.8388 F900.00
G1 X78.0575 Y67.7697 Z2.5000 F900.00
G1 X78.2705 Y67.5850 Z2.5000 F900.00
G3 X77.6494 Y66.3009 Z2.5000 I2.2552 J-1.8832 F900.00
G1 X73.8122 Y62.4637 Z2.5000 F900.00
G3 X74.0951 Y61.6860 Z2.5000 I4.5715 J1.2225 F900.00
G1 X77.3692 Y64.9600 Z2.5000 F900.00
G3 X77.4213 Y63.9515 Z2.5000 I4.5116 J-0.2725 F900.00
G1 X74.4960 Y61.0262 Z2.5000 F900.00
G3 X74.9504 Y60.4200 Z2.5000 I8.7938 J6.1188 F900.00
G1 X77.5940 Y63.0636 Z2.5000 F900.00
G3 X77.8488 Y62.2577 Z2.5000 I7.3346 J1.8760 F900.00
G1 X75.4186 Y59.8275 Z2.5000 F900.00
G2 X75.8786 Y59.2268 Z2.5000 I-5.8777 J-4.9776 F900.00
G1 X78.1431 Y61.4913 Z2.5000 F900.00
G3 X78.4665 Y60.7541 Z2.5000 I10.0403 J3.9650 F900.00
G1 X76.2794 Y58.5670 Z2.5000 F900.00
G2 X76.5718 Y57.7987 Z2.5000 I-2.8672 J-1.5306 F900.00
G1 X78.8124 Y60.0393 Z2.5000 F900.00
G1 X79.1723 Y59.3386 Z2.5000 F900.00
G1 X76.7743 Y56.9406 Z2.5000 F900.00
G2 X76.9349 Y56.0405 Z2.5000 I-11.6097 J-2.5362 F900.00
G1 X79.5359 Y58.6415 Z2.5000 F900.00
G1 X79.9070 Y57.9519 Z2.5000 F900.00
G1 X77.0335 Y55.0784 Z2.5000 F900.00
G2 X76.9729 Y53.9571 Z2.5000 I-5.8715 J-0.2449 F900.00
G1 X80.2754 Y57.2597 Z2.5000 F900.00
G2 X80.6315 Y56.5551 Z2.5000 I-11.3612 J-6.1842 F900.00
G1 X76.7945 Y52.7182 Z2.5000 F900.00
G3 X76.6237 Y51.4867 Z2.5000 I16.0958 J-2.8600 F900.00
G1 X80.9669 Y55.8298 Z2.5000 F900.00
G2 X81.2695 Y55.0718 Z2.5000 I-6.7235 J-3.1233 F900.00
G1 X76.4968 Y50.2991 Z2.5000 F900.00
G3 X76.4476 Y49.1892 Z2.5000 I13.3898 J-1.1503 F900.00
G1 X81.5296 Y54.2713 Z2.5000 F900.00
G2 X81.7264 Y53.4074 Z2.5000 I-4.7530 J-1.5371 F900.00
G1 X76.5170 Y48.1979 Z2.5000 F900.00
G3 X78.1805 Y48.8008 Z2.5000 I-3.7349 J12.9028 F900.00
G1 X81.7715 Y52.3918 Z2.5000 F900.00
G2 X80.9396 Y50.4992 Z2.5000 I-3.1069 J0.2365 F900.00
G0 Z12.0000
G0 X77.1662 Y44.3722
G0 Z10.0000
G1 X77.1662 Y44.3722 Z3.5000 F600.00
G2 X77.3248 Y44.1705 Z3.5000 I-9.7554 J-7.8361 F900.00
G2 X78.2214 Y42.4991 Z3.5000 I-3.4043 J-2.9023 F900.00
G2 X78.2576 Y39.8445 Z3.5000 I-10.2513 J-1.4675 F900.00
G2 X77.4618 Y36.5776 Z3.5000 I-8.8989 J0.4375 F900.00
G2 X74.4986 Y33.2531 Z3.5000 I-8.0219 J4.1673 F900.00
G2 X72.0765 Y31.9352 Z3.5000 I-5.0645 J6.4226 F900.00
G2 X67.8079 Y30.7037 Z3.5000 I-8.1354 J20.1852 F900.00
G3 X64.3557 Y28.3523 Z3.5000 I1.8184 J-6.3796 F900.00
G3 X63.3691 Y26.7642 Z3.5000 I9.2453 J-6.8442 F900.00
G2 X60.3411 Y24.1656 Z3.5000 I-4.8925 J2.6374 F900.00
G2 X59.3569 Y24.2333 Z3.5000 I-0.3896 J1.5238 F900.00
G2 X57.3360 Y24.9171 Z3.5000 I7.1852 J24.5621 F900.00
G3 X53.2756 Y24.4743 Z3.5000 I-1.6256 J-3.9316 F900.00
G2 X54.1467 Y27.1114 Z3.5000 I12.2451 J-2.5824 F900.00
G2 X54.8467 Y27.8461 Z3.5000 I1.2911 J-0.5294 F900.00
G1 X56.6604 Y28.3925 Z3.5000 F900.00
G3 X56.7290 Y28.4188 Z3.5000 I-0.1442 J0.4787 F900.00
G3 X58.5227 Y29.6127 Z3.5000 I-3.6165 J7.3776 F900.00
G2 X61.9146 Y32.1576 Z3.5000 I284.3888 J-375.5081 F900.00
G2 X66.3747 Y34.7993 Z3.5000 I18.1423 J-25.5444 F900.00
G3 X69.8068 Y36.2022 Z3.5000 I-19.5002 J52.6064 F900.00
G3 X72.7675 Y38.4980 Z3.5000 I-3.0547 J6.9963 F900.00
G3 X75.6929 Y43.7786 Z3.5000 I-21.2090 J15.2007 F900.00
G3 X76.3383 Y45.3037 Z3.5000 I-11.0040 J5.5558 F900.00
G2 X77.1662 Y44.3722 Z3.5000 I-8.9275 J-8.7676 F900.00
G0 X77.1662 Y44.3722 Z12.0000
G0 X76.7739 Y44.8358 Z12.0000
G1 X76.7739 Y44.8358 Z3.5000 F600.00
G1 X75.6745 Y43.7364 Z3.5000 F900.00
G3 X76.3383 Y45.3037 Z3.5000 I-11.3530 J5.7326 F900.00
G1 X76.7739 Y44.8358 Z3.5000 F900.00
G2 X77.2546 Y44.2557 Z3.5000 I-4.5817 J-4.2857 F900.00
G1 X74.7908 Y41.7920 Z3.5000 F900.00
G2 X73.2429 Y39.1835 Z3.5000 I-27.0578 J14.2922 F900.00
G1 X77.7027 Y43.6433 Z3.5000 F900.00
G2 X78.0762 Y42.9560 Z3.5000 I-2.7500 J-1.9393 F900.00
G1 X59.3542 Y24.2341 Z3.5000 F900.00
G3 X60.3498 Y24.1690 Z3.5000 I0.5943 J1.4436 F900.00
G1 X63.9599 Y27.7791 Z3.5000 F900.00
G2 X66.1625 Y29.9817 Z3.5000 I5.9277 J-3.7251 F900.00
G1 X78.2795 Y42.0988 Z3.5000 F900.00
G2 X78.3151 Y41.0737 Z3.5000 I-7.1603 J-0.7618 F900.00
G1 X67.9813 Y30.7398 Z3.5000 F900.00
G3 X69.3344 Y31.0323 Z3.5000 I-6.0074 J31.0698 F900.00
G1 X78.2653 Y39.9632 Z3.5000 F900.00
G2 X78.1255 Y38.7627 Z3.5000 I-10.5563 J0.6212 F900.00
G1 X70.8765 Y31.5137 Z3.5000 F900.00
G3 X72.5372 Y32.1137 Z3.5000 I-8.5106 J26.1534 F900.00
G1 X77.7568 Y37.3334 Z3.5000 F900.00
G2 X77.3028 Y36.2581 Z3.5000 I-6.2248 J1.9948 F900.00
G2 X75.8433 Y34.3592 Z3.5000 I-7.6794 J4.3921 F900.00
G0 X75.8433 Y34.3592 Z12.0000
G0 X70.7749 Y36.7154 Z12.0000
G1 X70.7749 Y36.7154 Z3.5000 F600.00
G1 X58.5478 Y24.4883 Z3.5000 F900.00
G1 X57.7643 Y24.7655 Z3.5000 F900.00
G1 X68.7385 Y35.7397 Z3.5000 F900.00
G2 X66.9837 Y35.0456 Z3.5000 I-10.5287 J24.0527 F900.00
G1 X56.9689 Y25.0308 Z3.5000 F900.00
G3 X56.1029 Y25.2254 Z3.5000 I-1.1909 J-3.2744 F900.00
G1 X64.9445 Y34.0670 Z3.5000 F900.00
G3 X62.1019 Y32.2851 Z3.5000 I16.1004 J-28.8420 F900.00
G1 X54.9959 Y25.1791 Z3.5000 F900.00
G3 X53.2756 Y24.4743 Z3.5000 I0.8596 J-4.5502 F900.00
G2 X53.2882 Y24.5320 Z3.5000 I0.3432 J-0.0447 F900.00
G1 X57.9081 Y29.1519 Z3.5000 F900.00
G2 X55.8412 Y28.1457 Z3.5000 I-3.1617 J3.8683 F900.00
G1 X53.7174 Y26.0219 Z3.5000 F900.00
G2 X54.3539 Y27.4516 Z3.5000 I4.4410 J-1.1205 F900.00
G2 X54.8467 Y27.8461 Z3.5000 I0.9678 J-0.7041 F900.00
G1 X55.8412 Y28.1457 Z3.5000 F900.00
G0 X55.8412 Y28.1457 Z12.0000
G0 X60.3498 Y24.1690 Z12.0000
G1 X60.3498 Y24.1690 Z3.5000 F600.00
G1 X63.9599 Y27.7791 Z3.5000 F900.00
G1 X63.3691 Y26.7642 Z3.5000 F900.00
G2 X60.3498 Y24.1690 Z3.5000 I-4.8908 J2.6360 F900.00
G1 X60.3498 Y24.1690 Z3.0000 F600.00
G1 X63.9599 Y27.7791 Z3.0000 F900.00
G1 X63.3691 Y26.7642 Z3.0000 F900.00
G2 X60.3498 Y24.1690 Z3.0000 I-4.8908 J2.6360 F900.00
G0 X60.3498 Y24.1690 Z12.0000
G0 X60.3411 Y24.1656 Z12.0000
G1 X60.3411 Y24.1656 Z3.0000 F600.00
G2 X59.3569 Y24.2333 Z3.0000 I-0.3896 J1.5238 F900.00
G2 X57.3360 Y24.9171 Z3.0000 I7.1852 J24.5621 F900.00
G3 X53.2756 Y24.4743 Z3.0000 I-1.6256 J-3.9316 F900.00
G2 X54.1467 Y27.1114 Z3.0000 I12.2451 J-2.5824 F900.00
G2 X54.8467 Y27.8461 Z3.0000 I1.2911 J-0.5294 F900.00
G1 X56.6604 Y28.3925 Z3.0000 F900.00
G3 X56.7290 Y28.4188 Z3.0000 I-0.1442 J0.4787 F900.00
G3 X58.5227 Y29.6127 Z3.0000 I-3.6165 J7.3776 F900.00
G2 X61.9146 Y32.1576 Z3.0000 I284.3888 J-375.5081 F900.00
G2 X66.3747 Y34.7993 Z3.0000 I18.1423 J-25.5444 F900.00
G3 X69.8068 Y36.2022 Z3.0000 I-19.5002 J52.6064 F900.00
G3 X72.7675 Y38.4980 Z3.0000 I-3.0547 J6.9963 F900.00
G3 X75.6929 Y43.7786 Z3.0000 I-21.2090 J15.2007 F900.00
G3 X76.3383 Y45.3037 Z3.0000 I-11.0040 J5.5558 F900.00
G2 X77.3248 Y44.1705 Z3.0000 I-8.9275 J-8.7676 F900.00
G2 X78.2214 Y42.4991 Z3.0000 I-3.4043 J-2.9023 F900.00
G2 X78.2576 Y39.8445 Z3.0000 I-10.2513 J-1.4675 F900.00
G2 X77.4618 Y36.5776 Z3.0000 I-8.8989 J0.4375 F900.00
G2 X74.4986 Y33.2531 Z3.0000 I-8.0219 J4.1673 F900.00
G2 X72.0765 Y31.9352 Z3.0000 I-5.0645 J6.4226 F900.00
G2 X67.8079 Y30.7037 Z3.0000 I-8.1354 J20.1852 F900.00
G3 X64.3557 Y28.3523 Z3.0000 I1.8184 J-6.3796 F900.00
G3 X63.3691 Y26.7642 Z3.0000 I9.2453 J-6.8442 F900.00
G2 X60.3411 Y24.1656 Z3.0000 I-4.8925 J2.6374 F900.00
G0 X60.3411 Y24.1656 Z12.0000
G0 X55.8412 Y28.1457 Z12.0000
G1 X55.8412 Y28.1457 Z3.0000 F600.00
G1 X54.8467 Y27.8461 Z3.0000 F900.00
G3 X54.3539 Y27.4516 Z3.0000 I0.4749 J-1.0985 F900.00
G3 X53.7174 Y26.0219 Z3.0000 I3.8045 J-2.5503 F900.00
G1 X55.8412 Y28.1457 Z3.0000 F900.00
G3 X57.9081 Y29.1519 Z3.0000 I-1.0947 J4.8746 F900.00
G1 X53.2882 Y24.5320 Z3.0000 F900.00
G3 X53.2756 Y24.4743 Z3.0000 I0.3306 J-0.1024 F900.00
G2 X54.9959 Y25.1791 Z3.0000 I2.5800 J-3.8454 F900.00
G1 X62.1019 Y32.2851 Z3.0000 F900.00
G2 X64.9445 Y34.0670 Z3.0000 I18.9431 J-27.0601 F900.00
G1 X56.1029 Y25.2254 Z3.0000 F900.00
G2 X56.9689 Y25.0308 Z3.0000 I-0.3249 J-3.4690 F900.00
G1 X66.9837 Y35.0456 Z3.0000 F900.00
G3 X68.7385 Y35.7397 Z3.0000 I-8.7740 J24.7468 F900.00
G1 X57.7643 Y24.7655 Z3.0000 F900.00
G1 X58.5478 Y24.4883 Z3.0000 F900.00
G1 X70.7749 Y36.7154 Z3.0000 F900.00
G0 X70.7749 Y36.7154 Z12.0000
G0 X75.8433 Y34.3592 Z12.0000
G1 X75.8433 Y34.3592 Z3.0000 F600.00
