(Exported by FreeCAD)
(Post Processor: grbl_post)
(Output Time:2020-04-03 20:53:35.342074)
(begin preamble)
G17 G90
G21
(begin operation: T1: 1/8" 4T)
(Path: T1: 1/8" 4T)
(T1: 1/8" 4T)
(begin toolchange)
; M6 T1
M3 S1000.0000
(finish operation: T1: 1/8" 4T)
(begin operation: MillFace)
(Path: MillFace)
(MillFace)
G0 Z12.0000
G0 X87.2326 Y85.2326
G0 Z10.0000
G1 X87.2326 Y85.2326 Z6.0000 F600.00
G2 X101.1803 Y46.2668 Z6.0000 I-34.2326 J-34.2326 F900.00
G1 X100.9573 Y44.3789 Z6.0000 F900.00
G2 X4.9319 Y56.7619 Z6.0000 I-47.9573 J6.6212 F900.00
G2 X87.2326 Y85.2326 Z6.0000 I48.0681 J-5.7619 F900.00
G0 X87.2326 Y85.2326 Z12.0000
G0 X87.8898 Y84.5626 Z12.0000
G1 X87.8898 Y84.5626 Z6.0000 F600.00
G3 X74.9398 Y94.1449 Z6.0000 I-34.6281 J-33.2560 F900.00
G1 X96.1449 Y72.9398 Z6.0000 F900.00
G2 X98.6728 Y67.0443 Z6.0000 I-40.4638 J-20.8399 F900.00
G1 X69.0449 Y96.6722 Z6.0000 F900.00
G3 X64.2792 Y98.0703 Z6.0000 I-14.7848 J-41.5739 F900.00
G1 X100.0704 Y62.2792 Z6.0000 F900.00
G2 X100.8818 Y58.1002 Z6.0000 I-39.6993 J-9.8765 F900.00
G1 X60.1004 Y98.8815 Z6.0000 F900.00
G3 X56.3235 Y99.2909 Z6.0000 I-6.2167 J-39.7297 F900.00
G1 X101.2911 Y54.3232 Z6.0000 F900.00
G2 X101.4029 Y50.8438 Z6.0000 I-36.9675 J-2.9293 F900.00
G1 X52.8439 Y99.4028 Z6.0000 F900.00
G3 X49.5945 Y99.2847 Z6.0000 I-0.4772 J-31.6219 F900.00
G1 X101.2844 Y47.5947 Z6.0000 F900.00
G2 X100.9758 Y44.5357 Z6.0000 I-39.0824 J2.3980 F900.00
G1 X46.5371 Y98.9744 Z6.0000 F900.00
G3 X43.6521 Y98.4919 Z6.0000 I3.9850 J-32.6910 F900.00
G1 X100.4917 Y41.6522 Z6.0000 F900.00
G2 X99.8741 Y38.9023 Z6.0000 I-35.3040 J6.4854 F900.00
G1 X40.9045 Y97.8718 Z6.0000 F900.00
G3 X38.2925 Y97.1163 Z6.0000 I7.0955 J-29.4225 F900.00
G1 X99.1153 Y36.2935 Z6.0000 F900.00
G2 X98.2450 Y33.7962 Z6.0000 I-32.2154 J9.8266 F900.00
G1 X35.7978 Y96.2434 Z6.0000 F900.00
G3 X33.4051 Y95.2685 Z6.0000 I11.0547 J-30.5557 F900.00
G1 X97.2662 Y31.4074 Z6.0000 F900.00
G2 X96.1789 Y29.1270 Z6.0000 I-29.5630 J12.6961 F900.00
G1 X31.1261 Y94.1799 Z6.0000 F900.00
G3 X28.9393 Y92.9991 Z6.0000 I13.7460 J-28.0704 F900.00
G1 X95.0008 Y26.9375 Z6.0000 F900.00
G2 X93.7326 Y24.8382 Z6.0000 I-22.9476 J12.4299 F900.00
G1 X26.8404 Y91.7303 Z6.0000 F900.00
G3 X24.8332 Y90.3699 Z6.0000 I14.1843 J-23.0889 F900.00
G1 X92.3669 Y22.8362 Z6.0000 F900.00
G2 X90.9190 Y20.9166 Z6.0000 I-25.1532 J17.4665 F900.00
G1 X22.9165 Y88.9191 Z6.0000 F900.00
G3 X21.0809 Y87.3871 Z6.0000 I18.3342 J-23.8333 F900.00
G1 X89.3901 Y19.0779 Z6.0000 F900.00
G2 X87.7761 Y17.3243 Z6.0000 I-20.4551 J17.2086 F900.00
G1 X19.3256 Y85.7748 Z6.0000 F900.00
G3 X17.6546 Y84.0782 Z6.0000 I17.9702 J-19.3684 F900.00
G1 X86.0742 Y15.6586 Z6.0000 F900.00
G2 X84.2927 Y14.0725 Z6.0000 I-21.0754 J21.8778 F900.00
G1 X16.0721 Y82.2931 Z6.0000 F900.00
G3 X14.5701 Y80.4275 Z6.0000 I22.6940 J-19.8072 F900.00
G1 X82.4311 Y12.5665 Z6.0000 F900.00
G2 X80.4811 Y11.1489 Z6.0000 I-17.0927 J21.4604 F900.00
G1 X13.1499 Y78.4801 Z6.0000 F900.00
G3 X11.8174 Y76.4450 Z6.0000 I21.5053 J-15.5346 F900.00
G1 X78.4406 Y9.8218 Z6.0000 F900.00
G2 X76.3145 Y8.5803 Z6.0000 I-16.8624 J26.4355 F900.00
G1 X10.5812 Y74.3136 Z6.0000 F900.00
G3 X9.4341 Y72.0931 Z6.0000 I27.3306 J-15.5253 F900.00
G1 X74.0989 Y7.4283 Z6.0000 F900.00
G2 X71.7740 Y6.3856 Z6.0000 I-14.4311 J29.0656 F900.00
G1 X8.3796 Y69.7801 Z6.0000 F900.00
G3 X7.4415 Y67.3505 Z6.0000 I29.5354 J-12.7993 F900.00
G1 X69.3515 Y5.4406 Z6.0000 F900.00
G2 X66.8182 Y4.6063 Z6.0000 I-10.0273 J26.1839 F900.00
G1 X6.6090 Y64.8155 Z6.0000 F900.00
G3 X5.8967 Y62.1601 Z6.0000 I27.0380 J-8.6756 F900.00
G1 X64.1566 Y3.9002 Z6.0000 F900.00
G2 X61.3696 Y3.3196 Z6.0000 I-7.1014 J27.1097 F900.00
G1 X5.3249 Y59.3644 Z6.0000 F900.00
G3 X4.8982 Y56.4235 Z6.0000 I28.9080 J-5.6960 F900.00
G1 X58.4208 Y2.9008 Z6.0000 F900.00
G2 X55.3036 Y2.6504 Z6.0000 I-4.0868 J31.3465 F900.00
G1 X4.6488 Y53.3052 Z6.0000 F900.00
G3 X4.6081 Y49.9783 Z6.0000 I35.8513 J-2.1021 F900.00
G1 X51.9871 Y2.5994 Z6.0000 F900.00
G2 X48.4091 Y2.8098 Z6.0000 I0.8551 J45.0685 F900.00
G1 X4.8157 Y46.4031 Z6.0000 F900.00
G3 X5.3490 Y42.5022 Z6.0000 I35.8194 J2.9101 F900.00
G1 X44.5109 Y3.3404 Z6.0000 F900.00
G2 X40.1525 Y4.3312 Z6.0000 I7.6491 J43.7267 F900.00
G1 X6.3309 Y38.1527 Z6.0000 F900.00
G3 X8.0372 Y33.0788 Z6.0000 I42.0579 J11.3198 F900.00
G1 X35.0940 Y6.0220 Z6.0000 F900.00
G2 X28.4948 Y9.2536 Z6.0000 I17.4749 J44.0390 F900.00
G1 X11.2644 Y26.4841 Z6.0000 F900.00
G3 X28.4948 Y9.2536 Z6.0000 I41.5925 J24.3621 F900.00
G0 Z12.0000
(finish operation: MillFace)
(begin operation: MillFace001)
(Path: MillFace001)
(MillFace001)
G0 Z12.0000
G0 X83.7639 Y81.7639
G0 Z10.0000
G1 X83.7639 Y81.7639 Z4.0000 F600.00
G2 X52.1128 Y7.5023 Z4.0000 I-30.7639 J-30.7639 F900.00
G2 X9.5023 Y51.8872 Z4.0000 I0.8872 J43.4977 F900.00
G2 X53.8872 Y94.4977 Z4.0000 I43.4977 J-0.8872 F900.00
G2 X83.7639 Y81.7639 Z4.0000 I-0.8872 J-43.4977 F900.00
G0 X83.7639 Y81.7639 Z12.0000
G0 X83.1302 Y19.6152 Z12.0000
G1 X83.1302 Y19.6152 Z4.0000 F600.00
G3 X92.3248 Y32.4019 Z4.0000 I-29.9752 J31.2536 F900.00
G1 X71.5974 Y11.6745 Z4.0000 F900.00
G2 X65.7394 Y9.4086 Z4.0000 I-17.6039 J36.8060 F900.00
G1 X94.5916 Y38.2609 Z4.0000 F900.00
G3 X95.7692 Y43.0306 Z4.0000 I-39.2612 J12.2234 F900.00
G1 X60.9700 Y8.2313 Z4.0000 F900.00
G2 X56.8164 Y7.6698 Z4.0000 I-6.6378 J33.4577 F900.00
G1 X96.3303 Y47.1838 Z4.0000 F900.00
G3 X96.4974 Y50.9430 Z4.0000 I-32.6600 J3.3351 F900.00
G1 X53.0571 Y7.5026 Z4.0000 F900.00
G2 X49.5978 Y7.6355 Z4.0000 I-0.5353 J31.1606 F900.00
G1 X96.3646 Y54.4023 Z4.0000 F900.00
G3 X95.9938 Y57.6235 Z4.0000 I-28.3922 J-1.6369 F900.00
G1 X46.3768 Y8.0065 Z4.0000 F900.00
G2 X43.3566 Y8.5785 Z4.0000 I5.4045 J36.7961 F900.00
G1 X95.4212 Y60.6430 Z4.0000 F900.00
G3 X94.6681 Y63.4820 Z4.0000 I-31.8472 J-6.9288 F900.00
G1 X40.5180 Y9.3319 Z4.0000 F900.00
G2 X37.8242 Y10.2303 Z4.0000 I6.9310 J25.2699 F900.00
G1 X93.7700 Y66.1761 Z4.0000 F900.00
G3 X92.7242 Y68.7223 Z4.0000 I-31.3046 J-11.3697 F900.00
G1 X35.2775 Y11.2757 Z4.0000 F900.00
G2 X32.8540 Y12.4442 Z4.0000 I10.0436 J23.9283 F900.00
G1 X91.5560 Y71.1463 Z4.0000 F900.00
G3 X90.2608 Y73.4432 Z4.0000 I-28.4143 J-14.5094 F900.00
G1 X30.5568 Y13.7391 Z4.0000 F900.00
G2 X28.3669 Y15.1414 Z4.0000 I12.2011 J21.4646 F900.00
G1 X88.8589 Y75.6334 Z4.0000 F900.00
G3 X87.3363 Y77.7029 Z4.0000 I-25.7791 J-17.3720 F900.00
G1 X26.2971 Y16.6637 Z4.0000 F900.00
G2 X24.3252 Y18.2839 Z4.0000 I18.6005 J24.6482 F900.00
G1 X85.7158 Y79.6745 Z4.0000 F900.00
G3 X83.9820 Y81.5328 Z4.0000 I-21.5058 J-18.3274 F900.00
G1 X22.4674 Y20.0181 Z4.0000 F900.00
G2 X20.7099 Y21.8527 Z4.0000 I21.2996 J22.1635 F900.00
G1 X82.1471 Y83.2900 Z4.0000 F900.00
G3 X80.2082 Y84.9432 Z4.0000 I-17.4450 J-18.4957 F900.00
G1 X19.0571 Y23.7920 Z4.0000 F900.00
G2 X17.5155 Y25.8425 Z4.0000 I24.0177 J19.6613 F900.00
G1 X78.1574 Y86.4845 Z4.0000 F900.00
G3 X76.0064 Y87.9255 Z4.0000 I-14.4840 J-19.2937 F900.00
G1 X16.0748 Y27.9940 Z4.0000 F900.00
G2 X14.7596 Y30.2709 Z4.0000 I26.8675 J17.0378 F900.00
G1 X73.7292 Y89.2404 Z4.0000 F900.00
G3 X71.3451 Y90.4484 Z4.0000 I-15.7954 J-28.2171 F900.00
G1 X13.5512 Y32.6546 Z4.0000 F900.00
G2 X12.4823 Y35.1778 Z4.0000 I29.2753 J13.8902 F900.00
G1 X68.8222 Y91.5177 Z4.0000 F900.00
G3 X66.1746 Y92.4621 Z4.0000 I-9.8466 J-23.4203 F900.00
G1 X11.5382 Y37.8258 Z4.0000 F900.00
G2 X10.7545 Y40.6341 Z4.0000 I33.5580 J10.8789 F900.00
G1 X63.3657 Y93.2454 Z4.0000 F900.00
G3 X60.3934 Y93.8652 Z4.0000 I-7.4942 J-28.5024 F900.00
G1 X10.1349 Y43.6067 Z4.0000 F900.00
G2 X9.7043 Y46.7682 Z4.0000 I27.3719 J5.3380 F900.00
G1 X57.2321 Y94.2960 Z4.0000 F900.00
G3 X53.8417 Y94.4977 Z4.0000 I-3.3600 J-27.8876 F900.00
G1 X9.5028 Y50.1588 Z4.0000 F900.00
G2 X9.5888 Y53.8369 Z4.0000 I29.8620 J1.1420 F900.00
G1 X50.1636 Y94.4117 Z4.0000 F900.00
G3 X46.1088 Y93.9490 Z4.0000 I1.7456 J-33.2975 F900.00
G1 X10.0512 Y57.8913 Z4.0000 F900.00
G2 X11.0326 Y62.4649 Z4.0000 I40.1922 J-6.2330 F900.00
G1 X41.5345 Y92.9667 Z4.0000 F900.00
G3 X36.0301 Y91.0545 Z4.0000 I10.8455 J-40.0967 F900.00
G1 X12.9461 Y67.9705 Z4.0000 F900.00
G2 X17.4523 Y76.0688 Z4.0000 I38.9348 J-16.3619 F900.00
G2 X27.9318 Y86.5483 Z4.0000 I35.1334 J-24.6539 F900.00
G1 X17.4523 Y76.0688 Z4.0000 F900.00
G0 Z12.0000
(finish operation: MillFace001)
(begin operation: Pocket_Shape)
(Path: Pocket_Shape)
(Pocket_Shape)
G0 Z12.0000
G0 X60.7923 Y58.6369
G0 Z10.0000
G1 X60.7923 Y58.6369 Z2.0000 F600.00
G2 X63.6048 Y48.4622 Z2.0000 I-7.7711 J-7.6242 F900.00
G1 X59.4247 Y49.5823 Z2.0000 F900.00
G3 X56.4970 Y56.5826 Z2.0000 I-6.4097 J1.4317 F900.00
G1 X55.1275 Y61.6936 Z2.0000 F900.00
G2 X60.7923 Y58.6369 Z2.0000 I-2.1063 J-10.6809 F900.00
G0 X60.7923 Y58.6369 Z12.0000
G0 X56.3283 Y61.3912 Z12.0000
G1 X56.3283 Y61.3912 Z2.0000 F600.00
G3 X55.1275 Y61.6936 Z2.0000 I-2.0776 J-5.7152 F900.00
G1 X55.4452 Y60.5081 Z2.0000 F900.00
G1 X56.3283 Y61.3912 Z2.0000 F900.00
G2 X57.9199 Y60.7378 Z2.0000 I-3.2570 J-10.1976 F900.00
G1 X55.9196 Y58.7375 Z2.0000 F900.00
G1 X56.3941 Y56.9669 Z2.0000 F900.00
G1 X59.3205 Y59.8934 Z2.0000 F900.00
G2 X60.5472 Y58.8749 Z2.0000 I-3.8582 J-5.8947 F900.00
G1 X57.4856 Y55.8133 Z2.0000 F900.00
G2 X58.5117 Y54.5943 Z2.0000 I-3.7795 J-4.2229 F900.00
G1 X61.6100 Y57.6926 Z2.0000 F900.00
G2 X62.5053 Y56.3430 Z2.0000 I-5.7478 J-4.7849 F900.00
G1 X59.2457 Y53.0833 Z2.0000 F900.00
G2 X59.5777 Y51.1702 Z2.0000 I-5.7924 J-1.9906 F900.00
G1 X63.2170 Y54.8095 Z2.0000 F900.00
G2 X63.7107 Y53.0582 Z2.0000 I-7.4992 J-3.0594 F900.00
G1 X60.0636 Y49.4111 Z2.0000 F900.00
G1 X61.8342 Y48.9366 Z2.0000 F900.00
G1 X63.9048 Y51.0072 Z2.0000 F900.00
G2 X63.6048 Y48.4622 Z2.0000 I-9.9942 J-0.1122 F900.00
G0 Z12.0000
G0 X49.9704 Y61.1729
G0 Z10.0000
G1 X49.9704 Y61.1729 Z2.0000 F600.00
G1 X51.0155 Y57.2728 Z2.0000 F900.00
G3 X46.4168 Y51.2372 Z2.0000 I1.9649 J-6.2668 F900.00
G1 X42.6753 Y47.4957 Z2.0000 F900.00
G2 X49.8954 Y61.4530 Z2.0000 I10.3031 J3.5163 F900.00
G1 X49.9704 Y61.1729 Z2.0000 F900.00
G0 X49.9704 Y61.1729 Z12.0000
G0 X49.8954 Y61.4530 Z12.0000
G1 X49.8954 Y61.4530 Z2.0000 F600.00
G3 X42.5479 Y54.1034 Z2.0000 I3.0612 J-10.4079 F900.00
G1 X49.8958 Y61.4514 Z2.0000 F900.00
G1 X50.3702 Y59.6808 Z2.0000 F900.00
G1 X42.1026 Y51.4132 Z2.0000 F900.00
G3 X42.2293 Y49.2947 Z2.0000 I9.7210 J-0.4820 F900.00
G1 X47.4201 Y54.4856 Z2.0000 F900.00
G2 X49.5205 Y56.5859 Z2.0000 I5.4353 J-3.3350 F900.00
G1 X50.8447 Y57.9101 Z2.0000 F900.00
G1 X51.0155 Y57.2728 Z2.0000 F900.00
G3 X49.5205 Y56.5859 Z2.0000 I1.6202 J-5.4970 F900.00
G0 X49.5205 Y56.5859 Z12.0000
G0 X42.2293 Y49.2947 Z12.0000
G1 X42.2293 Y49.2947 Z2.0000 F600.00
G1 X47.4201 Y54.4856 Z2.0000 F900.00
G3 X46.4168 Y51.2372 Z2.0000 I5.4797 J-3.4717 F900.00
G1 X42.6753 Y47.4957 Z2.0000 F900.00
G0 Z12.0000
G0 X60.6136 Y43.9671
G0 Z10.0000
G1 X60.6136 Y43.9671 Z2.0000 F600.00
G1 X61.1972 Y43.8107 Z2.0000 F900.00
G2 X52.5949 Y40.0962 Z2.0000 I-8.1884 J7.1452 F900.00
G2 X45.4998 Y43.0848 Z2.0000 I0.3914 J10.8457 F900.00
G1 X48.5599 Y46.1450 Z2.0000 F900.00
G3 X56.0862 Y45.1802 Z2.0000 I4.4448 J4.8351 F900.00
G1 X60.6136 Y43.9671 Z2.0000 F900.00
G0 X60.6136 Y43.9671 Z12.0000
G0 X60.9392 Y43.5150 Z12.0000
G1 X60.9392 Y43.5150 Z2.0000 F600.00
G1 X61.1972 Y43.8107 Z2.0000 F900.00
G1 X59.4563 Y44.2772 Z2.0000 F900.00
G1 X55.5873 Y40.4081 Z2.0000 F900.00
G2 X53.0310 Y40.0969 Z2.0000 I-2.4601 J9.5528 F900.00
G1 X57.6857 Y44.7516 Z2.0000 F900.00
G1 X56.0862 Y45.1802 Z2.0000 F900.00
G2 X55.6811 Y44.9921 Z2.0000 I-2.3473 J4.5240 F900.00
G1 X50.9702 Y40.2811 Z2.0000 F900.00
G2 X49.2137 Y40.7697 Z2.0000 I1.8624 J10.0960 F900.00
G1 X52.8648 Y44.4208 Z2.0000 F900.00
G2 X50.9446 Y44.7457 Z2.0000 I0.0788 J6.3032 F900.00
G1 X47.6773 Y41.4784 Z2.0000 F900.00
G2 X46.3241 Y42.3702 Z2.0000 I3.2144 J6.3504 F900.00
G1 X49.4225 Y45.4687 Z2.0000 F900.00
G2 X48.5599 Y46.1450 Z2.0000 I2.8004 J4.4604 F900.00
G1 X45.4998 Y43.0848 Z2.0000 F900.00
G3 X46.3241 Y42.3702 Z2.0000 I5.0163 J4.9532 F900.00
G0 Z12.0000
G0 X55.2071 Y34.5623
G0 Z10.0000
G1 X55.2071 Y34.5623 Z2.0000 F600.00
G1 X53.3112 Y22.5920 Z2.0000 F900.00
G2 X52.6888 Y22.5920 Z2.0000 I-0.3112 J11.1464 F900.00
G1 X50.7929 Y34.5623 Z2.0000 F900.00
G3 X55.2071 Y34.5623 Z2.0000 I2.2071 J16.1858 F900.00
G0 X55.2071 Y34.5623 Z12.0000
G0 X50.9321 Y33.6833 Z12.0000
G1 X50.9321 Y33.6833 Z2.0000 F600.00
G1 X51.7143 Y34.4655 Z2.0000 F900.00
G1 X50.7929 Y34.5623 Z2.0000 F900.00
G1 X50.9321 Y33.6833 Z2.0000 F900.00
G1 X51.2391 Y31.7452 Z2.0000 F900.00
G1 X53.9381 Y34.4443 Z2.0000 F900.00
G3 X55.2071 Y34.5623 Z2.0000 I-0.2793 J9.8860 F900.00
G1 X55.0012 Y33.2623 Z2.0000 F900.00
G1 X51.5461 Y29.8071 Z2.0000 F900.00
G1 X51.8530 Y27.8690 Z2.0000 F900.00
G1 X54.5787 Y30.5947 Z2.0000 F900.00
G1 X54.1562 Y27.9271 Z2.0000 F900.00
G1 X52.1600 Y25.9309 Z2.0000 F900.00
G1 X52.4670 Y23.9928 Z2.0000 F900.00
G1 X53.7337 Y25.2596 Z2.0000 F900.00
G1 X53.3112 Y22.5920 Z2.0000 F900.00
G0 Z12.0000
G0 X71.3877 Y33.8467
G0 Z10.0000
G1 X71.3877 Y33.8467 Z2.0000 F600.00
G1 X74.2166 Y32.1131 Z2.0000 F900.00
G2 X64.4062 Y24.9854 Z2.0000 I-21.0443 J18.6497 F900.00
G1 X61.5692 Y36.8025 Z2.0000 F900.00
G3 X63.8546 Y38.4630 Z2.0000 I-7.9458 J13.3395 F900.00
G1 X71.3877 Y33.8467 Z2.0000 F900.00
G0 X71.3877 Y33.8467 Z12.0000
G0 X73.4859 Y31.3133 Z12.0000
G1 X73.4859 Y31.3133 Z2.0000 F600.00
G1 X74.2166 Y32.1131 Z2.0000 F900.00
G1 X72.8675 Y32.9399 Z2.0000 F900.00
G1 X65.3343 Y25.4067 Z2.0000 F900.00
G1 X64.4062 Y24.9854 Z2.0000 F900.00
G1 X64.0697 Y26.3871 Z2.0000 F900.00
G1 X71.4755 Y33.7929 Z2.0000 F900.00
G1 X70.0834 Y34.6459 Z2.0000 F900.00
G1 X63.6350 Y28.1975 Z2.0000 F900.00
G1 X63.2004 Y30.0080 Z2.0000 F900.00
G1 X68.6914 Y35.4990 Z2.0000 F900.00
G1 X67.2994 Y36.3520 Z2.0000 F900.00
G1 X62.7657 Y31.8184 Z2.0000 F900.00
G1 X62.3311 Y33.6288 Z2.0000 F900.00
G1 X65.9073 Y37.2051 Z2.0000 F900.00
G1 X64.5153 Y38.0581 Z2.0000 F900.00
G1 X61.8965 Y35.4392 Z2.0000 F900.00
G1 X61.5692 Y36.8025 Z2.0000 F900.00
G3 X63.8546 Y38.4630 Z2.0000 I-7.9458 J13.3395 F900.00
G1 X64.5153 Y38.0581 Z2.0000 F900.00
G0 Z12.0000
G0 X77.8881 Y43.6514
G0 Z10.0000
G1 X77.8881 Y43.6514 Z2.0000 F600.00
G1 X80.1138 Y42.5174 Z2.0000 F900.00
G2 X79.9215 Y41.9255 Z2.0000 I-10.6971 J3.1485 F900.00
G1 X67.9512 Y43.8214 Z2.0000 F900.00
G3 X69.3152 Y48.0195 Z2.0000 I-14.7116 J7.1007 F900.00
G1 X77.8881 Y43.6514 Z2.0000 F900.00
G0 X77.8881 Y43.6514 Z12.0000
G0 X79.9215 Y41.9255 Z12.0000
G1 X79.9215 Y41.9255 Z2.0000 F600.00
G3 X80.1138 Y42.5174 Z2.0000 I-10.5048 J3.7404 F900.00
G1 X78.8912 Y43.1403 Z2.0000 F900.00
G1 X77.9834 Y42.2325 Z2.0000 F900.00
G1 X76.0453 Y42.5394 Z2.0000 F900.00
G1 X77.4039 Y43.8981 Z2.0000 F900.00
G1 X75.9167 Y44.6559 Z2.0000 F900.00
G1 X74.1072 Y42.8464 Z2.0000 F900.00
G1 X72.1691 Y43.1534 Z2.0000 F900.00
G1 X74.4294 Y45.4137 Z2.0000 F900.00
G1 X72.9422 Y46.1715 Z2.0000 F900.00
G1 X70.2310 Y43.4603 Z2.0000 F900.00
G1 X68.2929 Y43.7673 Z2.0000 F900.00
G1 X71.4549 Y46.9293 Z2.0000 F900.00
G1 X69.9676 Y47.6871 Z2.0000 F900.00
G1 X69.3152 Y48.0195 Z2.0000 F900.00
G2 X69.0267 Y46.7462 Z2.0000 I-9.9215 J1.5787 F900.00
G1 X69.9676 Y47.6871 Z2.0000 F900.00
G0 Z12.0000
G0 X78.3362 Y63.8500
G0 Z10.0000
G1 X78.3362 Y63.8500 Z2.0000 F600.00
G2 X81.2660 Y53.8090 Z2.0000 I-25.0574 J-12.7594 F900.00
G1 X69.1506 Y54.7625 Z2.0000 F900.00
G3 X68.2777 Y57.4492 Z2.0000 I-15.1419 J-3.4347 F900.00
G1 X77.5188 Y65.3418 Z2.0000 F900.00
G2 X78.3362 Y63.8500 Z2.0000 I-24.2399 J-14.2512 F900.00
G0 X78.3362 Y63.8500 Z12.0000
G0 X74.5353 Y62.7937 Z12.0000
G1 X74.5353 Y62.7937 Z2.0000 F600.00
G1 X68.2777 Y57.4492 Z2.0000 F900.00
G1 X68.5377 Y56.7961 Z2.0000 F900.00
G1 X74.5353 Y62.7937 Z2.0000 F900.00
G1 X77.5188 Y65.3418 Z2.0000 F900.00
G2 X78.1650 Y64.1784 Z2.0000 I-11.1724 J-6.9667 F900.00
G1 X69.0691 Y55.0825 Z2.0000 F900.00
G1 X69.1506 Y54.7625 Z2.0000 F900.00
G1 X70.8597 Y54.6280 Z2.0000 F900.00
G1 X78.8976 Y62.6659 Z2.0000 F900.00
G2 X79.5549 Y61.0781 Z2.0000 I-15.3588 J-7.2881 F900.00
G1 X72.9410 Y54.4642 Z2.0000 F900.00
G1 X75.0222 Y54.3004 Z2.0000 F900.00
G1 X80.1320 Y59.4101 Z2.0000 F900.00
G2 X80.6206 Y57.6536 Z2.0000 I-16.4953 J-5.5345 F900.00
G1 X77.1035 Y54.1366 Z2.0000 F900.00
G1 X79.1848 Y53.9728 Z2.0000 F900.00
G1 X80.9975 Y55.7855 Z2.0000 F900.00
G2 X81.2660 Y53.8090 Z2.0000 I-19.3946 J-3.6411 F900.00
G0 Z12.0000
G0 X43.6428 Y37.3046
G0 Z10.0000
G1 X43.6428 Y37.3046 Z2.0000 F600.00
G3 X44.4308 Y36.8025 Z2.0000 I8.7338 J12.8373 F900.00
G1 X41.5938 Y24.9854 Z2.0000 F900.00
G2 X31.7834 Y32.1131 Z2.0000 I11.2339 J25.7774 F900.00
G1 X42.1454 Y38.4630 Z2.0000 F900.00
G3 X43.6428 Y37.3046 Z2.0000 I10.2312 J11.6790 F900.00
G0 X43.6428 Y37.3046 Z12.0000
G0 X34.9411 Y34.0482 Z12.0000
G1 X34.9411 Y34.0482 Z2.0000 F600.00
G1 X31.7834 Y32.1131 Z2.0000 F900.00
G1 X32.3671 Y31.4742 Z2.0000 F900.00
G1 X34.9411 Y34.0482 Z2.0000 F900.00
G1 X40.7393 Y37.6014 Z2.0000 F900.00
G1 X33.4879 Y30.3499 Z2.0000 F900.00
G3 X34.6740 Y29.2910 Z2.0000 I10.4885 J10.5548 F900.00
G1 X43.0897 Y37.7067 Z2.0000 F900.00
G3 X44.4307 Y36.8026 Z2.0000 I7.8698 J10.2261 F900.00
G1 X35.9255 Y28.2974 Z2.0000 F900.00
G3 X37.2412 Y27.3680 Z2.0000 I9.8406 J12.5343 F900.00
G1 X43.7216 Y33.8484 Z2.0000 F900.00
G1 X43.0124 Y30.8941 Z2.0000 F900.00
G1 X38.6227 Y26.5045 Z2.0000 F900.00
G3 X40.0726 Y25.7093 Z2.0000 I8.5819 J13.9272 F900.00
G1 X42.3031 Y27.9398 Z2.0000 F900.00
G1 X41.5938 Y24.9854 Z2.0000 F900.00
G0 Z12.0000
G0 X36.7338 Y47.7601
G0 Z10.0000
G1 X36.7338 Y47.7601 Z2.0000 F600.00
G3 X38.0488 Y43.8214 Z2.0000 I16.0266 J3.1621 F900.00
G1 X26.0785 Y41.9255 Z2.0000 F900.00
G2 X25.8862 Y42.5174 Z2.0000 I10.5048 J3.7404 F900.00
G1 X36.6848 Y48.0195 Z2.0000 F900.00
G3 X36.7338 Y47.7601 Z2.0000 I16.0756 J2.9026 F900.00
G0 X36.7338 Y47.7601 Z12.0000
G0 X38.0488 Y43.8214 Z12.0000
G1 X38.0488 Y43.8214 Z2.0000 F600.00
G2 X37.3923 Y45.4099 Z2.0000 I11.4324 J5.6550 F900.00
G1 X35.3813 Y43.3989 Z2.0000 F900.00
G1 X32.7137 Y42.9764 Z2.0000 F900.00
G1 X36.8727 Y47.1354 Z2.0000 F900.00
G1 X36.6848 Y48.0195 Z2.0000 F900.00
G1 X34.2932 Y46.8009 Z2.0000 F900.00
G1 X30.0461 Y42.5539 Z2.0000 F900.00
G1 X27.3786 Y42.1314 Z2.0000 F900.00
G1 X26.0785 Y41.9255 Z2.0000 F900.00
G2 X25.8862 Y42.5174 Z2.0000 I10.5048 J3.7404 F900.00
G1 X29.7158 Y44.4687 Z2.0000 F900.00
G1 X27.3786 Y42.1314 Z2.0000 F900.00
G0 Z12.0000
G0 X33.8246 Y60.7782
G0 Z10.0000
G1 X33.8246 Y60.7782 Z2.0000 F600.00
G1 X37.7223 Y57.4492 Z2.0000 F900.00
G3 X36.8494 Y54.7625 Z2.0000 I14.2690 J-6.1214 F900.00
G1 X24.7340 Y53.8090 Z2.0000 F900.00
G2 X28.4812 Y65.3418 Z2.0000 I27.9872 J-2.7184 F900.00
G1 X33.8246 Y60.7782 Z2.0000 F900.00
G0 X33.8246 Y60.7782 Z12.0000
G0 X36.8494 Y54.7625 Z12.0000
G1 X36.8494 Y54.7625 Z2.0000 F600.00
G2 X37.7223 Y57.4492 Z2.0000 I15.1419 J-3.4347 F900.00
G1 X37.4897 Y57.6479 Z2.0000 F900.00
G1 X34.4125 Y54.5707 Z2.0000 F900.00
G1 X31.9757 Y54.3789 Z2.0000 F900.00
G1 X36.2788 Y58.6821 Z2.0000 F900.00
G1 X35.0679 Y59.7163 Z2.0000 F900.00
G1 X29.5388 Y54.1871 Z2.0000 F900.00
G1 X27.1020 Y53.9953 Z2.0000 F900.00
G1 X33.8571 Y60.7504 Z2.0000 F900.00
G1 X32.6462 Y61.7846 Z2.0000 F900.00
G1 X24.7420 Y53.8805 Z2.0000 F900.00
G2 X25.1336 Y56.5171 Z2.0000 I18.6144 J-1.4172 F900.00
G1 X31.4353 Y62.8188 Z2.0000 F900.00
G1 X30.2244 Y63.8530 Z2.0000 F900.00
G1 X25.9096 Y59.5382 Z2.0000 F900.00
G2 X27.3601 Y63.2337 Z2.0000 I25.2601 J-7.7818 F900.00
G2 X28.4812 Y65.3418 Z2.0000 I21.3894 J-10.0232 F900.00
G1 X29.0135 Y64.8872 Z2.0000 F900.00
G1 X27.3601 Y63.2337 Z2.0000 F900.00
G0 Z12.0000
G0 X40.8388 Y69.8806
G0 Z10.0000
G1 X40.8388 Y69.8806 Z2.0000 F600.00
G1 X45.1237 Y65.5957 Z2.0000 F900.00
G3 X41.5526 Y63.0011 Z2.0000 I7.7282 J-14.3919 F900.00
G1 X36.0504 Y73.7997 Z2.0000 F900.00
G2 X36.5539 Y74.1655 Z2.0000 I6.8035 J-8.8348 F900.00
G1 X40.8388 Y69.8806 Z2.0000 F900.00
G0 X40.8388 Y69.8806 Z12.0000
G0 X37.2660 Y73.4534 Z12.0000
G1 X37.2660 Y73.4534 Z2.0000 F600.00
G1 X36.5539 Y74.1655 Z2.0000 F900.00
G3 X36.0504 Y73.7997 Z2.0000 I6.3000 J-9.2006 F900.00
G1 X36.5776 Y72.7650 Z2.0000 F900.00
G1 X37.2660 Y73.4534 Z2.0000 F900.00
G1 X38.3885 Y72.3309 Z2.0000 F900.00
G1 X37.3354 Y71.2778 Z2.0000 F900.00
G1 X38.0932 Y69.7905 Z2.0000 F900.00
G1 X39.5111 Y71.2083 Z2.0000 F900.00
G1 X40.6336 Y70.0858 Z2.0000 F900.00
G1 X38.8510 Y68.3032 Z2.0000 F900.00
G1 X39.6088 Y66.8160 Z2.0000 F900.00
G1 X41.7561 Y68.9633 Z2.0000 F900.00
G1 X42.8787 Y67.8407 Z2.0000 F900.00
G1 X40.3666 Y65.3287 Z2.0000 F900.00
G1 X41.1244 Y63.8414 Z2.0000 F900.00
G1 X44.0012 Y66.7182 Z2.0000 F900.00
G1 X45.1237 Y65.5957 Z2.0000 F900.00
G0 Z12.0000
G0 X58.9270 Y78.7803
G0 Z10.0000
G1 X58.9270 Y78.7803 Z2.0000 F600.00
G2 X59.0632 Y78.7506 Z2.0000 I-5.9270 J-27.4871 F900.00
G1 X54.4125 Y67.5229 Z2.0000 F900.00
G3 X51.5875 Y67.5229 Z2.0000 I-1.4125 J-15.4622 F900.00
G1 X46.9368 Y78.7506 Z2.0000 F900.00
G2 X58.9270 Y78.7803 Z2.0000 I6.0632 J-27.4574 F900.00
G0 X58.9270 Y78.7803 Z12.0000
G0 X47.1544 Y78.2253 Z12.0000
G1 X47.1544 Y78.2253 Z2.0000 F600.00
G1 X46.9368 Y78.7506 Z2.0000 F900.00
G1 X47.8714 Y78.9423 Z2.0000 F900.00
G1 X47.1544 Y78.2253 Z2.0000 F900.00
G1 X47.8120 Y76.6378 Z2.0000 F900.00
G1 X50.4658 Y79.2916 Z2.0000 F900.00
G2 X52.8222 Y79.4029 Z2.0000 I2.0413 J-18.2187 F900.00
G1 X48.4695 Y75.0503 Z2.0000 F900.00
G1 X49.1271 Y73.4628 Z2.0000 F900.00
G1 X55.0022 Y79.3379 Z2.0000 F900.00
G2 X57.0267 Y79.1173 Z2.0000 I-0.7470 J-16.2535 F900.00
G1 X49.7847 Y71.8753 Z2.0000 F900.00
G1 X50.4422 Y70.2878 Z2.0000 F900.00
G1 X58.9320 Y78.7775 Z2.0000 F900.00
G1 X59.0632 Y78.7506 Z2.0000 F900.00
G1 X57.5875 Y75.1880 Z2.0000 F900.00
G1 X51.0998 Y68.7003 Z2.0000 F900.00
G1 X51.5875 Y67.5229 Z2.0000 F900.00
G1 X52.2077 Y67.5631 Z2.0000 F900.00
G1 X56.0000 Y71.3554 Z2.0000 F900.00
G1 X54.4125 Y67.5229 Z2.0000 F900.00
G0 Z12.0000
G0 X69.7759 Y73.9307
G0 Z10.0000
G1 X69.7759 Y73.9307 Z2.0000 F600.00
G2 X69.9496 Y73.7997 Z2.0000 I-6.6299 J-8.9659 F900.00
G1 X64.4474 Y63.0011 Z2.0000 F900.00
G3 X60.8763 Y65.5957 Z2.0000 I-11.2993 J-11.7973 F900.00
G1 X69.4461 Y74.1655 Z2.0000 F900.00
G2 X69.7759 Y73.9307 Z2.0000 I-6.3000 J-9.2006 F900.00
G0 X69.7759 Y73.9307 Z12.0000
G0 X61.9300 Y64.9738 Z12.0000
G1 X61.9300 Y64.9738 Z2.0000 F600.00
G1 X69.1119 Y72.1558 Z2.0000 F900.00
G1 X69.9496 Y73.7997 Z2.0000 F900.00
G3 X69.4461 Y74.1655 Z2.0000 I-6.8035 J-8.8348 F900.00
G1 X60.8763 Y65.5957 Z2.0000 F900.00
G2 X61.9300 Y64.9738 Z2.0000 I-4.3918 J-8.6446 F900.00
G2 X63.2395 Y64.0383 Z2.0000 I-6.2882 J-10.1865 F900.00
G1 X66.7797 Y67.5784 Z2.0000 F900.00
G1 X64.4474 Y63.0011 Z2.0000 F900.00
G0 Z12.0000
(finish operation: Pocket_Shape)
(begin operation: Profile_Faces)
(Path: Profile_Faces)
(Profile_Faces)
(Compensated Tool Path. Diameter: 3.175)
G0 Z12.0000
G0 X89.4777 Y87.4777
G0 Z10.0000
G1 X89.4777 Y87.4777 Z3.8250 F600.00
G2 X56.0809 Y-0.4951 Z3.8250 I-36.4777 J-36.4777 F900.00
G2 X49.8931 Y102.4936 Z3.8250 I-3.0809 J51.4951 F900.00
G2 X89.4777 Y87.4777 Z3.8250 I3.1069 J-51.4936 F900.00
G1 X89.4777 Y87.4777 Z0.6500 F600.00
G2 X56.0809 Y-0.4951 Z0.6500 I-36.4777 J-36.4777 F900.00
G2 X49.8931 Y102.4936 Z0.6500 I-3.0809 J51.4951 F900.00
G2 X89.4777 Y87.4777 Z0.6500 I3.1069 J-51.4936 F900.00
G1 X89.4777 Y87.4777 Z0.0000 F600.00
G2 X56.0809 Y-0.4951 Z0.0000 I-36.4777 J-36.4777 F900.00
G2 X49.8931 Y102.4936 Z0.0000 I-3.0809 J51.4951 F900.00
G2 X89.4777 Y87.4777 Z0.0000 I3.1069 J-51.4936 F900.00
G0 Z12.0000
(finish operation: Profile_Faces)
(begin postamble)
M5
G17 G90
; M2
